; G-Code generated by Simplify3D(R) Version 4.1.2
;
;
;
;
; Aug 6, 2023 at 5:42:21 PM
; Settings Summary
;   processName,PLA C01
;   applyToModels,AttacheBracelet
;   profileName,PLA_C01_04_50_OS180_05 Tevo Tornado
;   profileVersion,2023-07-25 16:48:30
;   baseProfile,Creality CR-10(2)
;   printMaterial,PLA
;   printQuality,High
;   printExtruders,
;   extruderName,Primary Extruder
;   extruderToolheadNumber,0
;   extruderDiameter,0.4
;   extruderAutoWidth,0
;   extruderWidth,0.35
;   extrusionMultiplier,0.95
;   extruderUseRetract,1
;   extruderRetractionDistance,3.8
;   extruderExtraRestartDistance,0
;   extruderRetractionZLift,0.3
;   extruderRetractionSpeed,3000
;   extruderUseCoasting,1
;   extruderCoastingDistance,0.2
;   extruderUseWipe,0
;   extruderWipeDistance,5
;   primaryExtruder,0
;   layerHeight,0.12
;   topSolidLayers,6
;   bottomSolidLayers,6
;   perimeterOutlines,4
;   printPerimetersInsideOut,1
;   startPointOption,2
;   startPointOriginX,0
;   startPointOriginY,300
;   sequentialIslands,0
;   spiralVaseMode,0
;   firstLayerHeightPercentage,120
;   firstLayerWidthPercentage,100
;   firstLayerUnderspeed,0.25
;   useRaft,0
;   raftExtruder,0
;   raftTopLayers,3
;   raftBaseLayers,2
;   raftOffset,3
;   raftSeparationDistance,0.14
;   raftTopInfill,100
;   aboveRaftSpeedMultiplier,0.3
;   useSkirt,1
;   skirtExtruder,0
;   skirtLayers,2
;   skirtOutlines,2
;   skirtOffset,3
;   usePrimePillar,0
;   primePillarExtruder,999
;   primePillarWidth,12
;   primePillarLocation,7
;   primePillarSpeedMultiplier,1
;   useOozeShield,0
;   oozeShieldExtruder,999
;   oozeShieldOffset,2
;   oozeShieldOutlines,1
;   oozeShieldSidewallShape,1
;   oozeShieldSidewallAngle,30
;   oozeShieldSpeedMultiplier,1
;   infillExtruder,0
;   internalInfillPattern,Fast Honeycomb
;   externalInfillPattern,Rectilinear
;   infillPercentage,50
;   outlineOverlapPercentage,15
;   infillExtrusionWidthPercentage,100
;   minInfillLength,5
;   infillLayerInterval,1
;   internalInfillAngles,0
;   overlapInternalInfillAngles,0
;   externalInfillAngles,45,-45
;   generateSupport,0
;   supportExtruder,0
;   supportInfillPercentage,40
;   supportExtraInflation,0
;   supportBaseLayers,0
;   denseSupportExtruder,0
;   denseSupportLayers,0
;   denseSupportInfillPercentage,70
;   supportLayerInterval,1
;   supportHorizontalPartOffset,0.4
;   supportUpperSeparationLayers,1
;   supportLowerSeparationLayers,1
;   supportType,0
;   supportGridSpacing,4.5
;   maxOverhangAngle,45
;   supportAngles,0
;   temperatureName,Primary Extruder,Heated Bed
;   temperatureNumber,0,0
;   temperatureSetpointCount,2,2
;   temperatureSetpointLayers,1,2,1,2
;   temperatureSetpointTemperatures,185,180,10,5
;   temperatureStabilizeAtStartup,1,1
;   temperatureHeatedBed,0,1
;   fanLayers,1,2
;   fanSpeeds,0,100
;   blipFanToFullPower,0
;   adjustSpeedForCooling,1
;   minSpeedLayerTime,15
;   minCoolingSpeedSlowdown,20
;   increaseFanForCooling,1
;   minFanLayerTime,25
;   maxCoolingFanSpeed,100
;   increaseFanForBridging,1
;   bridgingFanSpeed,100
;   use5D,1
;   relativeEdistances,0
;   allowEaxisZeroing,1
;   independentExtruderAxes,0
;   includeM10123,0
;   stickySupport,1
;   applyToolheadOffsets,0
;   gcodeXoffset,0
;   gcodeYoffset,0
;   gcodeZoffset,0
;   overrideMachineDefinition,1
;   machineTypeOverride,0
;   strokeXoverride,300
;   strokeYoverride,300
;   strokeZoverride,400
;   originOffsetXoverride,0
;   originOffsetYoverride,0
;   originOffsetZoverride,0
;   homeXdirOverride,-1
;   homeYdirOverride,-1
;   homeZdirOverride,-1
;   flipXoverride,1
;   flipYoverride,-1
;   flipZoverride,1
;   toolheadOffsets,0,0|0,0|0,0|0,0|0,0|0,0
;   overrideFirmwareConfiguration,1
;   firmwareTypeOverride,RepRap (Marlin/Repetier/Sprinter)
;   GPXconfigOverride,r2
;   baudRateOverride,250000
;   overridePrinterModels,1
;   printerModelsOverride
;   startingGcode,;,; -]H.P.B[- MarshMalloW  ,; $VER: StartScript 1.03 (18.12.2022) MarshMalloW,;,; Begin Startcode,;,M117 *Preheat*	; Preheat,;extruder0_temperature,M104 S[extruder0_temperature],M109 S[extruder0_temperature],;M109 R[extruder0_temperature] ,;,M117 *Auto-leveling*     	; Auto-leveling,M107                   	; Turn layer fan off,G21                    	; Set to metric [change to G20 if you want Imperial],G90                    	; Force coordinates to be absolute relative to the origin,G28                    	; Home X/Y/Z axis,G29                    	; Auto-leveling (BL-Touch),;,M117 *Start Clean*     	; Indicate nozzle clean in progress on LCD,G92 E0                 	; Set Extruder to 0 ,G1 X0 Y0 F2000         	; Move X and Y to 0 with speed 2000 (mm/min),G1 Z0.1 F1000          	; Move Z to   0.1 with speed 1000 (mm/min),G1 X8.0 F2000          	; Move X to   8.0 with speed 2000 (mm/min),G1 Y60.0 E4.0 F1000.0  	; Move Y to  60 and Extruder with 4.0 with speed 1000 (mm/min),G1 Y100.0 E8.5 F1000.0 	; Move Y to 100 and Extruder with 8.5 with speed 1000 (mm/min),G92 E0                 	; Set extruder to 0,G1 X16.0 F3000         	; Move X to 16.0 with speed 3000 (mm/min),G1 Y60.0 F3000         	; Move Y to 60.0 with speed 3000 (mm/min),M117 *End Clean*       	; Indicate nozzle clean in progress on LCD,G1 Z5 F3000            	; Move Z to  5.0 with speed 3000 (mm/min),G1 X20.0 F3000         	; Move X to 20.0 with speed 3000 (mm/min),G1 Y20.0 F3000         	; Move Y to 20.0 with speed 3000 (mm/min),; ,M117 *Printing...*     	; Start printing msg on LCD,;,; End Startcode,;,; Begin printing with sliced GCode after here,;
;   layerChangeGcode,
;   retractionGcode,
;   toolChangeGcode,
;   endingGcode,;,; init 181010,;,;M107 			; Fan off,;G1 E-1 F300 			; Retract the filament a bit before lifting the nozzle,;M104 S0 			; Turn off extruder,;M140 S0 			; Turn off bed,;G91			; Relative positioning,;G28 X0 Y0 			; Move X/Y to min endstops so the head is out of teh way,;M84 			; Disable motors,;G90 			; Absolute positioning,;M117 Print ready...,,;,; // From Cura 181010,; // End_gcode,G92 E0			; Zero the extruded length,;G1 E-30 F300		; Retract E -30,M106 S0			; Turn off cooling fan,M104 S0			; Turn off temperature,M140 S0		     	; Turn off bed,G91			; Relative positioning,G1 E-1 F300			; Retract the filament a bit before lifting the nozzle to release some of the pressure,G1 Z+20 E-5 X-20 Y-20 F7200	; Move Z up a bit and retract filament even more,G1 X0 Y150 F10000		; Move right min,M107			; Turn off layer fan,M84			; Disable motors,G90			; Absolute positioning,M117 *The-End* 		; End msg,;,
;   exportFileFormat,gcode
;   celebration,0
;   celebrationSong,Star Wars
;   postProcessing,D:\S3D_Thumbs\S3D_Thumbs.exe f="[output_filepath]" x=600 y=110 w=953 lw=400 lh=300 sw=32 sh=32 d=Y
;   defaultSpeed,4200
;   outlineUnderspeed,0.5
;   solidInfillUnderspeed,0.8
;   supportUnderspeed,0.8
;   rapidXYspeed,6000
;   rapidZspeed,1002
;   minBridgingArea,50
;   bridgingExtraInflation,0.2
;   bridgingExtrusionMultiplier,1
;   bridgingSpeedMultiplier,0.8
;   useFixedBridgingAngle,0
;   fixedBridgingAngle,0
;   applyBridgingToPerimeters,0
;   filamentDiameters,1.75|1.75|1.75|1.75|1.75|1.75
;   filamentPricesPerKg,30|46|46|46|46|46
;   filamentDensities,1.25|1.25|1.25|1.25|1.25|1.25
;   useMinPrintHeight,0
;   minPrintHeight,0
;   useMaxPrintHeight,0
;   maxPrintHeight,50
;   useDiaphragm,0
;   diaphragmLayerInterval,20
;   robustSlicing,1
;   mergeAllIntoSolid,0
;   onlyRetractWhenCrossingOutline,1
;   retractBetweenLayers,1
;   useRetractionMinTravel,0
;   retractionMinTravel,3
;   retractWhileWiping,1
;   onlyWipeOutlines,1
;   avoidCrossingOutline,0
;   maxMovementDetourFactor,3
;   toolChangeRetractionDistance,12
;   toolChangeExtraRestartDistance,-0.5
;   toolChangeRetractionSpeed,600
;   externalThinWallType,1
;   internalThinWallType,1
;   thinWallAllowedOverlapPercentage,10
;   singleExtrusionMinLength,1
;   singleExtrusionMinPrintingWidthPercentage,50
;   singleExtrusionMaxPrintingWidthPercentage,200
;   singleExtrusionEndpointExtension,0.2
;   horizontalSizeCompensation,0
G90
M82
M106 S13
M140 S10
;
; -]H.P.B[- MarshMalloW  
; $VER: StartScript 1.03 (18.12.2022) MarshMalloW
;
; Begin Startcode
;
M117 *Preheat*	; Preheat
;extruder0_temperature
M104 S185
M109 S185
;M109 R185 
;
M117 *Auto-leveling*     	; Auto-leveling
M107                   	; Turn layer fan off
G21                    	; Set to metric [change to G20 if you want Imperial]
G90                    	; Force coordinates to be absolute relative to the origin
G28                    	; Home X/Y/Z axis
G29                    	; Auto-leveling (BL-Touch)
;
M117 *Start Clean*     	; Indicate nozzle clean in progress on LCD
G92 E0                 	; Set Extruder to 0 
G1 X0 Y0 F2000         	; Move X and Y to 0 with speed 2000 (mm/min)
G1 Z0.1 F1000          	; Move Z to   0.1 with speed 1000 (mm/min)
G1 X8.0 F2000          	; Move X to   8.0 with speed 2000 (mm/min)
G1 Y60.0 E4.0 F1000.0  	; Move Y to  60 and Extruder with 4.0 with speed 1000 (mm/min)
G1 Y100.0 E8.5 F1000.0 	; Move Y to 100 and Extruder with 8.5 with speed 1000 (mm/min)
G92 E0                 	; Set extruder to 0
G1 X16.0 F3000         	; Move X to 16.0 with speed 3000 (mm/min)
G1 Y60.0 F3000         	; Move Y to 60.0 with speed 3000 (mm/min)
M117 *End Clean*       	; Indicate nozzle clean in progress on LCD
G1 Z5 F3000            	; Move Z to  5.0 with speed 3000 (mm/min)
G1 X20.0 F3000         	; Move X to 20.0 with speed 3000 (mm/min)
G1 Y20.0 F3000         	; Move Y to 20.0 with speed 3000 (mm/min)
; 
M117 *Printing...*     	; Start printing msg on LCD
;
; End Startcode
;
; Begin printing with sliced GCode after here
;
; process PLA C01
; layer 1, Z = 0.144
T0
G92 E0.0000
G1 E-3.8000 F3000
; feature skirt
; tool H0.144 W0.350
G1 Z0.300 F1002
G1 X139.162 Y144.564 F6000
G1 Z0.144 F1002
G1 E0.0000 F3000
G92 E0.0000
G1 X139.472 Y144.318 E0.0079 F1050
G1 X140.487 Y143.680 E0.0317
G1 X140.843 Y143.508 E0.0396
G1 X141.975 Y143.112 E0.0635
G1 X142.361 Y143.024 E0.0714
G1 X143.454 Y142.901 E0.0933
G1 X143.651 Y142.890 E0.0972
G1 X156.357 Y142.890 E0.3501
G1 X156.569 Y142.903 E0.3544
G1 X157.745 Y143.045 E0.3779
G1 X158.159 Y143.147 E0.3864
G1 X159.366 Y143.605 E0.4121
G1 X159.743 Y143.803 E0.4206
G1 X160.780 Y144.519 E0.4457
G1 X161.058 Y144.757 E0.4530
G1 X161.730 Y145.464 E0.4724
G1 X161.945 Y145.741 E0.4794
G1 X162.538 Y146.685 E0.5015
G1 X162.665 Y146.928 E0.5070
G1 X162.880 Y147.429 E0.5179
G1 X162.948 Y147.614 E0.5218
G1 X163.151 Y148.285 E0.5357
G1 X163.200 Y148.492 E0.5400
G1 X163.299 Y149.060 E0.5514
G1 X163.322 Y149.256 E0.5554
G1 X163.360 Y149.893 E0.5681
G1 X163.360 Y150.107 E0.5723
G1 X163.322 Y150.744 E0.5850
G1 X163.299 Y150.940 E0.5890
G1 X163.200 Y151.508 E0.6005
G1 X163.151 Y151.715 E0.6047
G1 X162.948 Y152.386 E0.6186
G1 X162.880 Y152.571 E0.6226
G1 X162.665 Y153.072 E0.6334
G1 X162.538 Y153.315 E0.6389
G1 X161.932 Y154.278 E0.6615
G1 X161.686 Y154.588 E0.6694
G1 X160.838 Y155.436 E0.6933
G1 X160.528 Y155.682 E0.7012
G1 X159.513 Y156.320 E0.7250
G1 X159.157 Y156.492 E0.7329
G1 X158.025 Y156.888 E0.7568
G1 X157.639 Y156.976 E0.7646
G1 X156.546 Y157.099 E0.7865
G1 X156.349 Y157.110 E0.7905
G1 X152.487 Y157.110 E0.8674
G1 X152.274 Y157.097 E0.8716
G1 X151.615 Y157.017 E0.8848
G1 X151.201 Y156.915 E0.8933
G1 X150.481 Y156.642 E0.9086
G1 X150.103 Y156.444 E0.9171
G1 X149.997 Y156.371 E0.9197
G1 X149.827 Y156.484 E0.9237
G1 X149.459 Y156.670 E0.9320
G1 X148.757 Y156.927 E0.9468
G1 X148.355 Y157.023 E0.9551
G1 X147.716 Y157.098 E0.9679
G1 X147.510 Y157.110 E0.9720
G1 X143.644 Y157.110 E1.0489
G1 X143.431 Y157.097 E1.0532
G1 X142.255 Y156.955 E1.0768
G1 X141.841 Y156.853 E1.0852
G1 X140.634 Y156.395 E1.1109
G1 X140.257 Y156.197 E1.1194
G1 X139.220 Y155.481 E1.1445
G1 X138.942 Y155.243 E1.1518
G1 X138.317 Y154.585 E1.1699
G1 X138.180 Y154.422 E1.1741
G1 X137.910 Y154.059 E1.1831
G1 X137.801 Y153.894 E1.1870
G1 X137.419 Y153.235 E1.2022
G1 X137.323 Y153.044 E1.2065
G1 X137.120 Y152.571 E1.2167
G1 X137.052 Y152.386 E1.2206
G1 X136.849 Y151.715 E1.2346
G1 X136.800 Y151.508 E1.2388
G1 X136.701 Y150.940 E1.2503
G1 X136.678 Y150.744 E1.2542
G1 X136.640 Y150.107 E1.2669
G1 X136.640 Y149.893 E1.2712
G1 X136.678 Y149.256 E1.2839
G1 X136.701 Y149.060 E1.2878
G1 X136.800 Y148.492 E1.2993
G1 X136.849 Y148.285 E1.3035
G1 X137.052 Y147.614 E1.3175
G1 X137.120 Y147.429 E1.3214
G1 X137.323 Y146.956 E1.3317
G1 X137.419 Y146.765 E1.3359
G1 X137.801 Y146.106 E1.3511
G1 X137.910 Y145.941 E1.3550
G1 X138.194 Y145.559 E1.3645
G1 X138.363 Y145.363 E1.3696
G1 X139.162 Y144.564 E1.3921
G92 E0.0000
G1 E-3.8000 F3000
G1 Z0.444 F1002
G1 X139.396 Y144.826 F6000
G1 Z0.144 F1002
G1 E0.0000 F3000
G92 E0.0000
G1 X139.674 Y144.603 E0.0071 F1050
G1 X140.656 Y143.987 E0.0302
G1 X140.977 Y143.832 E0.0373
G1 X142.072 Y143.449 E0.0604
G1 X142.420 Y143.370 E0.0675
G1 X143.483 Y143.250 E0.0888
G1 X143.661 Y143.240 E0.0923
G1 X156.346 Y143.240 E0.3448
G1 X156.537 Y143.251 E0.3486
G1 X157.681 Y143.390 E0.3716
G1 X158.054 Y143.482 E0.3792
G1 X159.222 Y143.925 E0.4041
G1 X159.562 Y144.103 E0.4117
G1 X160.567 Y144.797 E0.4360
G1 X160.817 Y145.011 E0.4426
G1 X161.464 Y145.693 E0.4613
G1 X161.658 Y145.942 E0.4676
G1 X162.234 Y146.860 E0.4891
G1 X162.349 Y147.078 E0.4941
G1 X162.555 Y147.558 E0.5045
G1 X162.616 Y147.725 E0.5080
G1 X162.812 Y148.376 E0.5215
G1 X162.857 Y148.562 E0.5253
G1 X162.952 Y149.110 E0.5364
G1 X162.973 Y149.287 E0.5400
G1 X163.010 Y149.904 E0.5523
G1 X163.010 Y150.096 E0.5561
G1 X162.973 Y150.713 E0.5684
G1 X162.952 Y150.890 E0.5719
G1 X162.857 Y151.438 E0.5830
G1 X162.812 Y151.624 E0.5868
G1 X162.616 Y152.275 E0.6004
G1 X162.555 Y152.442 E0.6039
G1 X162.349 Y152.922 E0.6143
G1 X162.234 Y153.140 E0.6192
G1 X161.647 Y154.076 E0.6412
G1 X161.424 Y154.354 E0.6483
G1 X160.604 Y155.174 E0.6714
G1 X160.326 Y155.397 E0.6785
G1 X159.344 Y156.013 E0.7015
G1 X159.022 Y156.168 E0.7086
G1 X157.928 Y156.551 E0.7317
G1 X157.580 Y156.630 E0.7388
G1 X156.517 Y156.750 E0.7601
G1 X156.339 Y156.760 E0.7637
G1 X152.497 Y156.760 E0.8401
G1 X152.306 Y156.749 E0.8440
G1 X151.678 Y156.673 E0.8565
G1 X151.305 Y156.581 E0.8642
G1 X150.624 Y156.323 E0.8787
G1 X150.284 Y156.144 E0.8863
G1 X150.001 Y155.949 E0.8932
G1 X149.651 Y156.181 E0.9015
G1 X149.319 Y156.349 E0.9090
G1 X148.656 Y156.591 E0.9230
G1 X148.294 Y156.678 E0.9304
G1 X147.685 Y156.749 E0.9426
G1 X147.500 Y156.760 E0.9463
G1 X143.654 Y156.760 E1.0229
G1 X143.463 Y156.749 E1.0267
G1 X142.319 Y156.610 E1.0496
G1 X141.946 Y156.518 E1.0573
G1 X140.778 Y156.075 E1.0821
G1 X140.438 Y155.897 E1.0898
G1 X139.433 Y155.203 E1.1141
G1 X139.183 Y154.989 E1.1206
G1 X138.578 Y154.352 E1.1381
G1 X138.455 Y154.205 E1.1419
G1 X138.197 Y153.858 E1.1506
G1 X138.099 Y153.709 E1.1541
G1 X137.726 Y153.068 E1.1689
G1 X137.640 Y152.897 E1.1727
G1 X137.445 Y152.442 E1.1825
G1 X137.384 Y152.275 E1.1861
G1 X137.188 Y151.624 E1.1996
G1 X137.143 Y151.438 E1.2034
G1 X137.048 Y150.890 E1.2145
G1 X137.027 Y150.713 E1.2180
G1 X136.990 Y150.096 E1.2303
G1 X136.990 Y149.904 E1.2342
G1 X137.027 Y149.287 E1.2465
G1 X137.048 Y149.110 E1.2500
G1 X137.143 Y148.562 E1.2611
G1 X137.188 Y148.376 E1.2649
G1 X137.384 Y147.725 E1.2784
G1 X137.445 Y147.558 E1.2820
G1 X137.640 Y147.103 E1.2918
G1 X137.726 Y146.932 E1.2956
G1 X138.099 Y146.291 E1.3104
G1 X138.197 Y146.142 E1.3139
G1 X138.467 Y145.778 E1.3230
G1 X138.619 Y145.602 E1.3276
G1 X139.396 Y144.826 E1.3494
G92 E0.0000
G1 E-3.8000 F3000
; feature inner perimeter
G1 Z0.444 F1002
G1 X142.169 Y148.018 F6000
G1 Z0.144 F1002
G1 E0.0000 F3000
G92 E0.0000
G1 X142.650 Y147.716 E0.0113 F788
G1 X143.186 Y147.528 E0.0226
G1 X143.799 Y147.459 E0.0349
G1 X156.197 Y147.459 E0.2817
G1 X156.857 Y147.539 E0.2949
G1 X157.428 Y147.756 E0.3071
G1 X157.943 Y148.112 E0.3195
G1 X158.250 Y148.434 E0.3284
G1 X158.329 Y148.542 E0.3311
G1 X158.545 Y148.912 E0.3396
G1 X158.621 Y149.089 E0.3434
G1 X158.727 Y149.442 E0.3508
G1 X158.771 Y149.690 E0.3558
G1 X158.789 Y150.000 E0.3620
G1 X158.771 Y150.310 E0.3681
G1 X158.727 Y150.558 E0.3731
G1 X158.621 Y150.911 E0.3805
G1 X158.544 Y151.088 E0.3843
