; G-Code generated by Simplify3D(R) Version 4.1.2
;
;
;
;
; Aug 4, 2023 at 11:40:39 PM
; Settings Summary
;   processName,PLA C01
;   applyToModels,AttacheBracelet(2)
;   profileName,PLA_C01_04_50_OS180_05 Tevo Tornado
;   profileVersion,2023-07-25 16:48:30
;   baseProfile,Creality CR-10(2)
;   printMaterial,PLA
;   printQuality,High
;   printExtruders,
;   extruderName,Primary Extruder
;   extruderToolheadNumber,0
;   extruderDiameter,0.4
;   extruderAutoWidth,0
;   extruderWidth,0.35
;   extrusionMultiplier,0.95
;   extruderUseRetract,1
;   extruderRetractionDistance,3.8
;   extruderExtraRestartDistance,0
;   extruderRetractionZLift,0.3
;   extruderRetractionSpeed,3000
;   extruderUseCoasting,1
;   extruderCoastingDistance,0.2
;   extruderUseWipe,0
;   extruderWipeDistance,5
;   primaryExtruder,0
;   layerHeight,0.12
;   topSolidLayers,6
;   bottomSolidLayers,6
;   perimeterOutlines,4
;   printPerimetersInsideOut,1
;   startPointOption,2
;   startPointOriginX,0
;   startPointOriginY,300
;   sequentialIslands,0
;   spiralVaseMode,0
;   firstLayerHeightPercentage,120
;   firstLayerWidthPercentage,100
;   firstLayerUnderspeed,0.25
;   useRaft,0
;   raftExtruder,0
;   raftTopLayers,3
;   raftBaseLayers,2
;   raftOffset,3
;   raftSeparationDistance,0.14
;   raftTopInfill,100
;   aboveRaftSpeedMultiplier,0.3
;   useSkirt,1
;   skirtExtruder,0
;   skirtLayers,2
;   skirtOutlines,2
;   skirtOffset,3
;   usePrimePillar,0
;   primePillarExtruder,999
;   primePillarWidth,12
;   primePillarLocation,7
;   primePillarSpeedMultiplier,1
;   useOozeShield,0
;   oozeShieldExtruder,999
;   oozeShieldOffset,2
;   oozeShieldOutlines,1
;   oozeShieldSidewallShape,1
;   oozeShieldSidewallAngle,30
;   oozeShieldSpeedMultiplier,1
;   infillExtruder,0
;   internalInfillPattern,Fast Honeycomb
;   externalInfillPattern,Rectilinear
;   infillPercentage,50
;   outlineOverlapPercentage,15
;   infillExtrusionWidthPercentage,100
;   minInfillLength,5
;   infillLayerInterval,1
;   internalInfillAngles,0
;   overlapInternalInfillAngles,0
;   externalInfillAngles,45,-45
;   generateSupport,0
;   supportExtruder,0
;   supportInfillPercentage,40
;   supportExtraInflation,0
;   supportBaseLayers,0
;   denseSupportExtruder,0
;   denseSupportLayers,0
;   denseSupportInfillPercentage,70
;   supportLayerInterval,1
;   supportHorizontalPartOffset,0.4
;   supportUpperSeparationLayers,1
;   supportLowerSeparationLayers,1
;   supportType,0
;   supportGridSpacing,4.5
;   maxOverhangAngle,45
;   supportAngles,0
;   temperatureName,Primary Extruder,Heated Bed
;   temperatureNumber,0,0
;   temperatureSetpointCount,2,2
;   temperatureSetpointLayers,1,2,1,2
;   temperatureSetpointTemperatures,185,180,10,5
;   temperatureStabilizeAtStartup,1,1
;   temperatureHeatedBed,0,1
;   fanLayers,1,2
;   fanSpeeds,0,100
;   blipFanToFullPower,0
;   adjustSpeedForCooling,1
;   minSpeedLayerTime,15
;   minCoolingSpeedSlowdown,20
;   increaseFanForCooling,1
;   minFanLayerTime,25
;   maxCoolingFanSpeed,100
;   increaseFanForBridging,1
;   bridgingFanSpeed,100
;   use5D,1
;   relativeEdistances,0
;   allowEaxisZeroing,1
;   independentExtruderAxes,0
;   includeM10123,0
;   stickySupport,1
;   applyToolheadOffsets,0
;   gcodeXoffset,0
;   gcodeYoffset,0
;   gcodeZoffset,0
;   overrideMachineDefinition,1
;   machineTypeOverride,0
;   strokeXoverride,300
;   strokeYoverride,300
;   strokeZoverride,400
;   originOffsetXoverride,0
;   originOffsetYoverride,0
;   originOffsetZoverride,0
;   homeXdirOverride,-1
;   homeYdirOverride,-1
;   homeZdirOverride,-1
;   flipXoverride,1
;   flipYoverride,-1
;   flipZoverride,1
;   toolheadOffsets,0,0|0,0|0,0|0,0|0,0|0,0
;   overrideFirmwareConfiguration,1
;   firmwareTypeOverride,RepRap (Marlin/Repetier/Sprinter)
;   GPXconfigOverride,r2
;   baudRateOverride,250000
;   overridePrinterModels,1
;   printerModelsOverride
;   startingGcode,;,; -]H.P.B[- MarshMalloW  ,; $VER: StartScript 1.03 (18.12.2022) MarshMalloW,;,; Begin Startcode,;,M117 *Preheat*	; Preheat,;extruder0_temperature,M104 S[extruder0_temperature],M109 S[extruder0_temperature],;M109 R[extruder0_temperature] ,;,M117 *Auto-leveling*     	; Auto-leveling,M107                   	; Turn layer fan off,G21                    	; Set to metric [change to G20 if you want Imperial],G90                    	; Force coordinates to be absolute relative to the origin,G28                    	; Home X/Y/Z axis,G29                    	; Auto-leveling (BL-Touch),;,M117 *Start Clean*     	; Indicate nozzle clean in progress on LCD,G92 E0                 	; Set Extruder to 0 ,G1 X0 Y0 F2000         	; Move X and Y to 0 with speed 2000 (mm/min),G1 Z0.1 F1000          	; Move Z to   0.1 with speed 1000 (mm/min),G1 X8.0 F2000          	; Move X to   8.0 with speed 2000 (mm/min),G1 Y60.0 E4.0 F1000.0  	; Move Y to  60 and Extruder with 4.0 with speed 1000 (mm/min),G1 Y100.0 E8.5 F1000.0 	; Move Y to 100 and Extruder with 8.5 with speed 1000 (mm/min),G92 E0                 	; Set extruder to 0,G1 X16.0 F3000         	; Move X to 16.0 with speed 3000 (mm/min),G1 Y60.0 F3000         	; Move Y to 60.0 with speed 3000 (mm/min),M117 *End Clean*       	; Indicate nozzle clean in progress on LCD,G1 Z5 F3000            	; Move Z to  5.0 with speed 3000 (mm/min),G1 X20.0 F3000         	; Move X to 20.0 with speed 3000 (mm/min),G1 Y20.0 F3000         	; Move Y to 20.0 with speed 3000 (mm/min),; ,M117 *Printing...*     	; Start printing msg on LCD,;,; End Startcode,;,; Begin printing with sliced GCode after here,;
;   layerChangeGcode,
;   retractionGcode,
;   toolChangeGcode,
;   endingGcode,;,; init 181010,;,;M107 			; Fan off,;G1 E-1 F300 			; Retract the filament a bit before lifting the nozzle,;M104 S0 			; Turn off extruder,;M140 S0 			; Turn off bed,;G91			; Relative positioning,;G28 X0 Y0 			; Move X/Y to min endstops so the head is out of teh way,;M84 			; Disable motors,;G90 			; Absolute positioning,;M117 Print ready...,,;,; // From Cura 181010,; // End_gcode,G92 E0			; Zero the extruded length,;G1 E-30 F300		; Retract E -30,M106 S0			; Turn off cooling fan,M104 S0			; Turn off temperature,M140 S0		     	; Turn off bed,G91			; Relative positioning,G1 E-1 F300			; Retract the filament a bit before lifting the nozzle to release some of the pressure,G1 Z+20 E-5 X-20 Y-20 F7200	; Move Z up a bit and retract filament even more,G1 X0 Y150 F10000		; Move right min,M107			; Turn off layer fan,M84			; Disable motors,G90			; Absolute positioning,M117 *The-End* 		; End msg,;,
;   exportFileFormat,gcode
;   celebration,0
;   celebrationSong,Star Wars
;   postProcessing,D:\S3D_Thumbs\S3D_Thumbs.exe f="[output_filepath]" x=600 y=110 w=953 lw=400 lh=300 sw=32 sh=32 d=Y
;   defaultSpeed,4200
;   outlineUnderspeed,0.5
;   solidInfillUnderspeed,0.8
;   supportUnderspeed,0.8
;   rapidXYspeed,6000
;   rapidZspeed,1002
;   minBridgingArea,50
;   bridgingExtraInflation,0.2
;   bridgingExtrusionMultiplier,1
;   bridgingSpeedMultiplier,0.8
;   useFixedBridgingAngle,0
;   fixedBridgingAngle,0
;   applyBridgingToPerimeters,0
;   filamentDiameters,1.75|1.75|1.75|1.75|1.75|1.75
;   filamentPricesPerKg,30|46|46|46|46|46
;   filamentDensities,1.25|1.25|1.25|1.25|1.25|1.25
;   useMinPrintHeight,0
;   minPrintHeight,0
;   useMaxPrintHeight,0
;   maxPrintHeight,50
;   useDiaphragm,0
;   diaphragmLayerInterval,20
;   robustSlicing,1
;   mergeAllIntoSolid,0
;   onlyRetractWhenCrossingOutline,1
;   retractBetweenLayers,1
;   useRetractionMinTravel,0
;   retractionMinTravel,3
;   retractWhileWiping,1
;   onlyWipeOutlines,1
;   avoidCrossingOutline,0
;   maxMovementDetourFactor,3
;   toolChangeRetractionDistance,12
;   toolChangeExtraRestartDistance,-0.5
;   toolChangeRetractionSpeed,600
;   externalThinWallType,1
;   internalThinWallType,1
;   thinWallAllowedOverlapPercentage,10
;   singleExtrusionMinLength,1
;   singleExtrusionMinPrintingWidthPercentage,50
;   singleExtrusionMaxPrintingWidthPercentage,200
;   singleExtrusionEndpointExtension,0.2
;   horizontalSizeCompensation,0
G90
M82
M106 S102
M140 S10
;
; -]H.P.B[- MarshMalloW  
; $VER: StartScript 1.03 (18.12.2022) MarshMalloW
;
; Begin Startcode
;
M117 *Preheat*	; Preheat
;extruder0_temperature
M104 S185
M109 S185
;M109 R185 
;
M117 *Auto-leveling*     	; Auto-leveling
M107                   	; Turn layer fan off
G21                    	; Set to metric [change to G20 if you want Imperial]
G90                    	; Force coordinates to be absolute relative to the origin
G28                    	; Home X/Y/Z axis
G29                    	; Auto-leveling (BL-Touch)
;
M117 *Start Clean*     	; Indicate nozzle clean in progress on LCD
G92 E0                 	; Set Extruder to 0 
G1 X0 Y0 F2000         	; Move X and Y to 0 with speed 2000 (mm/min)
G1 Z0.1 F1000          	; Move Z to   0.1 with speed 1000 (mm/min)
G1 X8.0 F2000          	; Move X to   8.0 with speed 2000 (mm/min)
G1 Y60.0 E4.0 F1000.0  	; Move Y to  60 and Extruder with 4.0 with speed 1000 (mm/min)
G1 Y100.0 E8.5 F1000.0 	; Move Y to 100 and Extruder with 8.5 with speed 1000 (mm/min)
G92 E0                 	; Set extruder to 0
G1 X16.0 F3000         	; Move X to 16.0 with speed 3000 (mm/min)
G1 Y60.0 F3000         	; Move Y to 60.0 with speed 3000 (mm/min)
M117 *End Clean*       	; Indicate nozzle clean in progress on LCD
G1 Z5 F3000            	; Move Z to  5.0 with speed 3000 (mm/min)
G1 X20.0 F3000         	; Move X to 20.0 with speed 3000 (mm/min)
G1 Y20.0 F3000         	; Move Y to 20.0 with speed 3000 (mm/min)
; 
M117 *Printing...*     	; Start printing msg on LCD
;
; End Startcode
;
; Begin printing with sliced GCode after here
;
; process PLA C01
; layer 1, Z = 0.144
T0
G92 E0.0000
G1 E-3.8000 F3000
; feature skirt
; tool H0.144 W0.350
G1 Z0.300 F1002
G1 X139.905 Y144.733 F6000
G1 Z0.144 F1002
G1 E0.0000 F3000
G92 E0.0000
G1 X140.720 Y144.064 E0.0210 F815
G1 X140.964 Y143.896 E0.0269
G1 X141.687 Y143.483 E0.0435
G1 X141.980 Y143.350 E0.0499
G1 X143.108 Y142.955 E0.0737
G1 X143.494 Y142.867 E0.0815
G1 X144.620 Y142.740 E0.1041
G1 X144.818 Y142.729 E0.1080
G1 X155.170 Y142.729 E0.3141
G1 X155.343 Y142.737 E0.3176
G1 X156.330 Y142.834 E0.3373
G1 X156.670 Y142.902 E0.3442
G1 X157.702 Y143.215 E0.3657
G1 X158.022 Y143.348 E0.3726
G1 X158.973 Y143.856 E0.3940
G1 X159.261 Y144.048 E0.4009
G1 X160.095 Y144.733 E0.4224
G1 X160.340 Y144.978 E0.4293
G1 X161.008 Y145.792 E0.4503
G1 X161.177 Y146.037 E0.4562
G1 X161.590 Y146.760 E0.4727
G1 X161.723 Y147.052 E0.4791
G1 X162.118 Y148.180 E0.5029
G1 X162.206 Y148.566 E0.5108
G1 X162.342 Y149.776 E0.5351
G1 X162.345 Y150.142 E0.5423
G1 X162.239 Y151.250 E0.5645
G1 X162.171 Y151.595 E0.5715
G1 X161.857 Y152.629 E0.5930
G1 X161.725 Y152.949 E0.5999
G1 X161.216 Y153.901 E0.6214
G1 X161.024 Y154.189 E0.6283
G1 X160.340 Y155.022 E0.6497
G1 X160.095 Y155.267 E0.6566
G1 X159.280 Y155.936 E0.6776
G1 X159.036 Y156.104 E0.6835
G1 X158.313 Y156.517 E0.7001
G1 X158.020 Y156.650 E0.7065
G1 X156.892 Y157.045 E0.7303
G1 X156.506 Y157.133 E0.7382
G1 X155.380 Y157.260 E0.7607
G1 X155.182 Y157.271 E0.7647
G1 X152.746 Y157.271 E0.8132
G1 X152.439 Y157.244 E0.8193
G1 X151.729 Y157.119 E0.8337
G1 X151.149 Y156.908 E0.8459
G1 X150.391 Y156.470 E0.8634
G1 X150.000 Y156.142 E0.8735
G1 X149.609 Y156.470 E0.8837
G1 X148.851 Y156.908 E0.9011
G1 X148.271 Y157.119 E0.9134
G1 X147.561 Y157.244 E0.9278
G1 X147.254 Y157.271 E0.9339
G1 X144.830 Y157.271 E0.9821
G1 X144.657 Y157.263 E0.9856
G1 X143.670 Y157.166 E1.0053
G1 X143.330 Y157.098 E1.0122
G1 X142.298 Y156.785 E1.0337
G1 X141.978 Y156.652 E1.0406
G1 X141.027 Y156.144 E1.0621
G1 X140.739 Y155.952 E1.0689
G1 X139.905 Y155.267 E1.0904
G1 X139.660 Y155.022 E1.0973
G1 X138.992 Y154.208 E1.1183
G1 X138.823 Y153.963 E1.1242
G1 X138.410 Y153.240 E1.1408
G1 X138.277 Y152.948 E1.1472
G1 X137.882 Y151.820 E1.1710
G1 X137.794 Y151.434 E1.1788
G1 X137.658 Y150.224 E1.2031
G1 X137.655 Y149.858 E1.2104
G1 X137.761 Y148.750 E1.2325
G1 X137.829 Y148.405 E1.2395
G1 X138.143 Y147.371 E1.2610
G1 X138.275 Y147.051 E1.2679
G1 X138.784 Y146.099 E1.2894
G1 X138.976 Y145.811 E1.2963
G1 X139.660 Y144.978 E1.3178
G1 X139.905 Y144.733 E1.3247
G92 E0.0000
G1 E-3.8000 F3000
G1 Z0.444 F1002
G1 X140.141 Y144.992 F6000
G1 Z0.144 F1002
G1 E0.0000 F3000
G92 E0.0000
G1 X140.930 Y144.344 E0.0203 F815
G1 X141.151 Y144.192 E0.0257
G1 X141.847 Y143.795 E0.0416
G1 X142.111 Y143.675 E0.0474
G1 X143.205 Y143.292 E0.0705
G1 X143.553 Y143.212 E0.0776
G1 X144.650 Y143.089 E0.0995
G1 X144.827 Y143.079 E0.1031
G1 X155.161 Y143.079 E0.3088
G1 X155.317 Y143.086 E0.3119
G1 X156.279 Y143.181 E0.3311
G1 X156.585 Y143.242 E0.3373
G1 X157.584 Y143.545 E0.3581
G1 X157.872 Y143.664 E0.3643
G1 X158.793 Y144.157 E0.3851
G1 X159.052 Y144.330 E0.3913
G1 X159.859 Y144.992 E0.4121
G1 X160.080 Y145.213 E0.4183
G1 X160.728 Y146.003 E0.4387
G1 X160.880 Y146.223 E0.4440
G1 X161.278 Y146.919 E0.4600
G1 X161.398 Y147.183 E0.4657
G1 X161.781 Y148.277 E0.4888
G1 X161.860 Y148.625 E0.4959
G1 X161.992 Y149.797 E0.5194
G1 X161.995 Y150.127 E0.5260
G1 X161.893 Y151.199 E0.5474
G1 X161.831 Y151.510 E0.5537
G1 X161.527 Y152.511 E0.5745
G1 X161.408 Y152.800 E0.5807
G1 X160.916 Y153.721 E0.6015
G1 X160.742 Y153.980 E0.6077
G1 X160.080 Y154.787 E0.6285
G1 X159.859 Y155.008 E0.6347
G1 X159.070 Y155.656 E0.6551
G1 X158.849 Y155.808 E0.6604
G1 X158.153 Y156.205 E0.6764
G1 X157.890 Y156.325 E0.6821
G1 X156.795 Y156.708 E0.7052
G1 X156.447 Y156.788 E0.7123
G1 X155.350 Y156.911 E0.7343
G1 X155.173 Y156.921 E0.7378
G1 X152.761 Y156.921 E0.7858
G1 X152.485 Y156.897 E0.7913
G1 X151.820 Y156.780 E0.8048
G1 X151.298 Y156.590 E0.8158
G1 X150.592 Y156.182 E0.8321
G1 X150.167 Y155.825 E0.8431
G1 X150.000 Y155.627 E0.8483
G1 X149.833 Y155.825 E0.8534
G1 X149.408 Y156.182 E0.8645
G1 X148.702 Y156.590 E0.8807
G1 X148.180 Y156.780 E0.8918
G1 X147.515 Y156.897 E0.9052
G1 X147.239 Y156.921 E0.9108
G1 X144.839 Y156.921 E0.9585
G1 X144.683 Y156.914 E0.9616
G1 X143.721 Y156.819 E0.9809
G1 X143.415 Y156.758 E0.9871
G1 X142.416 Y156.455 E1.0079
G1 X142.128 Y156.336 E1.0141
G1 X141.207 Y155.843 E1.0349
G1 X140.948 Y155.670 E1.0411
G1 X140.141 Y155.008 E1.0619
G1 X139.920 Y154.787 E1.0681
G1 X139.272 Y153.997 E1.0884
G1 X139.120 Y153.777 E1.0937
G1 X138.722 Y153.081 E1.1097
G1 X138.602 Y152.817 E1.1155
G1 X138.219 Y151.723 E1.1385
G1 X138.140 Y151.375 E1.1456
G1 X138.008 Y150.203 E1.1691
G1 X138.005 Y149.873 E1.1757
G1 X138.107 Y148.801 E1.1971
G1 X138.169 Y148.490 E1.2034
G1 X138.473 Y147.489 E1.2243
G1 X138.592 Y147.200 E1.2305
G1 X139.084 Y146.279 E1.2513
G1 X139.258 Y146.020 E1.2575
G1 X139.920 Y145.213 E1.2782
G1 X140.141 Y144.992 E1.2845
G92 E0.0000
G1 E-3.8000 F3000
; feature outer perimeter
G1 Z0.444 F1002
G1 X142.615 Y147.688 F6000
G1 Z0.144 F1002
G1 E0.0000 F3000
G92 E0.0000
G1 X142.888 Y147.444 E0.0073 F408
G1 X143.107 Y147.284 E0.0127
G1 X143.501 Y147.059 E0.0217
G1 X144.193 Y146.817 E0.0363
G1 X144.926 Y146.734 E0.0510
G1 X155.075 Y146.734 E0.2530
G1 X155.718 Y146.798 E0.2659
G1 X156.329 Y146.983 E0.2786
G1 X156.895 Y147.286 E0.2914
G1 X157.112 Y147.444 E0.2967
G1 X157.385 Y147.688 E0.3040
G1 X157.629 Y147.961 E0.3113
G1 X157.788 Y148.179 E0.3167
G1 X158.013 Y148.574 E0.3257
G1 X158.255 Y149.265 E0.3403
G1 X158.337 Y149.990 E0.3548
G1 X158.275 Y150.646 E0.3679
G1 X158.089 Y151.256 E0.3806
G1 X157.786 Y151.823 E0.3934
G1 X157.629 Y152.039 E0.3987
G1 X157.385 Y152.312 E0.4060
G1 X157.112 Y152.556 E0.4133
G1 X156.893 Y152.716 E0.4187
G1 X156.499 Y152.941 E0.4277
G1 X155.807 Y153.183 E0.4423
G1 X155.074 Y153.266 E0.4570
G1 X152.915 Y153.266 E0.5000
G1 X152.810 Y153.247 E0.5021
G1 X152.731 Y153.201 E0.5039
G1 X152.672 Y153.131 E0.5057
G1 X152.641 Y153.046 E0.5076
G1 X152.641 Y152.954 E0.5094
G1 X152.672 Y152.869 E0.5112
G1 X152.731 Y152.799 E0.5130
G1 X152.810 Y152.753 E0.5148
G1 X152.915 Y152.734 E0.5170
G1 X155.083 Y152.734 E0.5601
G1 X155.727 Y152.656 E0.5730
G1 X156.344 Y152.422 E0.5862
G1 X156.507 Y152.309 E0.5901
G1 X156.887 Y152.048 E0.5993
G1 X157.324 Y151.554 E0.6124
G1 X157.630 Y150.970 E0.6255
G1 X157.788 Y150.330 E0.6387
