; G-Code generated by Simplify3D(R) Version 4.1.2
;
;
;
;
; Aug 3, 2023 at 1:58:38 PM
; Settings Summary
;   processName,PLA C01
;   applyToModels,AttacheBracelet
;   profileName,PLA_C01_04_50_OS180_05 Tevo Tornado
;   profileVersion,2023-07-25 16:48:30
;   baseProfile,Creality CR-10(2)
;   printMaterial,PLA
;   printQuality,High
;   printExtruders,
;   extruderName,Primary Extruder
;   extruderToolheadNumber,0
;   extruderDiameter,0.4
;   extruderAutoWidth,0
;   extruderWidth,0.35
;   extrusionMultiplier,0.95
;   extruderUseRetract,1
;   extruderRetractionDistance,3.8
;   extruderExtraRestartDistance,0
;   extruderRetractionZLift,0.3
;   extruderRetractionSpeed,3000
;   extruderUseCoasting,1
;   extruderCoastingDistance,0.2
;   extruderUseWipe,0
;   extruderWipeDistance,5
;   primaryExtruder,0
;   layerHeight,0.12
;   topSolidLayers,6
;   bottomSolidLayers,6
;   perimeterOutlines,4
;   printPerimetersInsideOut,1
;   startPointOption,2
;   startPointOriginX,0
;   startPointOriginY,300
;   sequentialIslands,0
;   spiralVaseMode,0
;   firstLayerHeightPercentage,120
;   firstLayerWidthPercentage,100
;   firstLayerUnderspeed,0.25
;   useRaft,0
;   raftExtruder,0
;   raftTopLayers,3
;   raftBaseLayers,2
;   raftOffset,3
;   raftSeparationDistance,0.14
;   raftTopInfill,100
;   aboveRaftSpeedMultiplier,0.3
;   useSkirt,1
;   skirtExtruder,0
;   skirtLayers,2
;   skirtOutlines,2
;   skirtOffset,3
;   usePrimePillar,0
;   primePillarExtruder,999
;   primePillarWidth,12
;   primePillarLocation,7
;   primePillarSpeedMultiplier,1
;   useOozeShield,0
;   oozeShieldExtruder,999
;   oozeShieldOffset,2
;   oozeShieldOutlines,1
;   oozeShieldSidewallShape,1
;   oozeShieldSidewallAngle,30
;   oozeShieldSpeedMultiplier,1
;   infillExtruder,0
;   internalInfillPattern,Fast Honeycomb
;   externalInfillPattern,Rectilinear
;   infillPercentage,50
;   outlineOverlapPercentage,15
;   infillExtrusionWidthPercentage,100
;   minInfillLength,5
;   infillLayerInterval,1
;   internalInfillAngles,0
;   overlapInternalInfillAngles,0
;   externalInfillAngles,45,-45
;   generateSupport,0
;   supportExtruder,0
;   supportInfillPercentage,40
;   supportExtraInflation,0
;   supportBaseLayers,0
;   denseSupportExtruder,0
;   denseSupportLayers,0
;   denseSupportInfillPercentage,70
;   supportLayerInterval,1
;   supportHorizontalPartOffset,0.4
;   supportUpperSeparationLayers,1
;   supportLowerSeparationLayers,1
;   supportType,0
;   supportGridSpacing,4.5
;   maxOverhangAngle,45
;   supportAngles,0
;   temperatureName,Primary Extruder,Heated Bed
;   temperatureNumber,0,0
;   temperatureSetpointCount,2,2
;   temperatureSetpointLayers,1,2,1,2
;   temperatureSetpointTemperatures,185,180,10,5
;   temperatureStabilizeAtStartup,1,1
;   temperatureHeatedBed,0,1
;   fanLayers,1,2
;   fanSpeeds,0,100
;   blipFanToFullPower,0
;   adjustSpeedForCooling,1
;   minSpeedLayerTime,15
;   minCoolingSpeedSlowdown,20
;   increaseFanForCooling,1
;   minFanLayerTime,25
;   maxCoolingFanSpeed,100
;   increaseFanForBridging,1
;   bridgingFanSpeed,100
;   use5D,1
;   relativeEdistances,0
;   allowEaxisZeroing,1
;   independentExtruderAxes,0
;   includeM10123,0
;   stickySupport,1
;   applyToolheadOffsets,0
;   gcodeXoffset,0
;   gcodeYoffset,0
;   gcodeZoffset,0
;   overrideMachineDefinition,1
;   machineTypeOverride,0
;   strokeXoverride,300
;   strokeYoverride,300
;   strokeZoverride,400
;   originOffsetXoverride,0
;   originOffsetYoverride,0
;   originOffsetZoverride,0
;   homeXdirOverride,-1
;   homeYdirOverride,-1
;   homeZdirOverride,-1
;   flipXoverride,1
;   flipYoverride,-1
;   flipZoverride,1
;   toolheadOffsets,0,0|0,0|0,0|0,0|0,0|0,0
;   overrideFirmwareConfiguration,1
;   firmwareTypeOverride,RepRap (Marlin/Repetier/Sprinter)
;   GPXconfigOverride,r2
;   baudRateOverride,250000
;   overridePrinterModels,1
;   printerModelsOverride
;   startingGcode,;,; -]H.P.B[- MarshMalloW  ,; $VER: StartScript 1.03 (18.12.2022) MarshMalloW,;,; Begin Startcode,;,M117 *Preheat*	; Preheat,;extruder0_temperature,M104 S[extruder0_temperature],M109 S[extruder0_temperature],;M109 R[extruder0_temperature] ,;,M117 *Auto-leveling*     	; Auto-leveling,M107                   	; Turn layer fan off,G21                    	; Set to metric [change to G20 if you want Imperial],G90                    	; Force coordinates to be absolute relative to the origin,G28                    	; Home X/Y/Z axis,G29                    	; Auto-leveling (BL-Touch),;,M117 *Start Clean*     	; Indicate nozzle clean in progress on LCD,G92 E0                 	; Set Extruder to 0 ,G1 X0 Y0 F2000         	; Move X and Y to 0 with speed 2000 (mm/min),G1 Z0.1 F1000          	; Move Z to   0.1 with speed 1000 (mm/min),G1 X8.0 F2000          	; Move X to   8.0 with speed 2000 (mm/min),G1 Y60.0 E4.0 F1000.0  	; Move Y to  60 and Extruder with 4.0 with speed 1000 (mm/min),G1 Y100.0 E8.5 F1000.0 	; Move Y to 100 and Extruder with 8.5 with speed 1000 (mm/min),G92 E0                 	; Set extruder to 0,G1 X16.0 F3000         	; Move X to 16.0 with speed 3000 (mm/min),G1 Y60.0 F3000         	; Move Y to 60.0 with speed 3000 (mm/min),M117 *End Clean*       	; Indicate nozzle clean in progress on LCD,G1 Z5 F3000            	; Move Z to  5.0 with speed 3000 (mm/min),G1 X20.0 F3000         	; Move X to 20.0 with speed 3000 (mm/min),G1 Y20.0 F3000         	; Move Y to 20.0 with speed 3000 (mm/min),; ,M117 *Printing...*     	; Start printing msg on LCD,;,; End Startcode,;,; Begin printing with sliced GCode after here,;
;   layerChangeGcode,
;   retractionGcode,
;   toolChangeGcode,
;   endingGcode,;,; init 181010,;,;M107 			; Fan off,;G1 E-1 F300 			; Retract the filament a bit before lifting the nozzle,;M104 S0 			; Turn off extruder,;M140 S0 			; Turn off bed,;G91			; Relative positioning,;G28 X0 Y0 			; Move X/Y to min endstops so the head is out of teh way,;M84 			; Disable motors,;G90 			; Absolute positioning,;M117 Print ready...,,;,; // From Cura 181010,; // End_gcode,G92 E0			; Zero the extruded length,;G1 E-30 F300		; Retract E -30,M106 S0			; Turn off cooling fan,M104 S0			; Turn off temperature,M140 S0		     	; Turn off bed,G91			; Relative positioning,G1 E-1 F300			; Retract the filament a bit before lifting the nozzle to release some of the pressure,G1 Z+20 E-5 X-20 Y-20 F7200	; Move Z up a bit and retract filament even more,G1 X0 Y150 F10000		; Move right min,M107			; Turn off layer fan,M84			; Disable motors,G90			; Absolute positioning,M117 *The-End* 		; End msg,;,
;   exportFileFormat,gcode
;   celebration,0
;   celebrationSong,Star Wars
;   postProcessing,D:\S3D_Thumbs\S3D_Thumbs.exe f="[output_filepath]" x=600 y=110 w=953 lw=400 lh=300 sw=32 sh=32 d=Y
;   defaultSpeed,4200
;   outlineUnderspeed,0.5
;   solidInfillUnderspeed,0.8
;   supportUnderspeed,0.8
;   rapidXYspeed,6000
;   rapidZspeed,1002
;   minBridgingArea,50
;   bridgingExtraInflation,0.2
;   bridgingExtrusionMultiplier,1
;   bridgingSpeedMultiplier,0.8
;   useFixedBridgingAngle,0
;   fixedBridgingAngle,0
;   applyBridgingToPerimeters,0
;   filamentDiameters,1.75|1.75|1.75|1.75|1.75|1.75
;   filamentPricesPerKg,30|46|46|46|46|46
;   filamentDensities,1.25|1.25|1.25|1.25|1.25|1.25
;   useMinPrintHeight,0
;   minPrintHeight,0
;   useMaxPrintHeight,0
;   maxPrintHeight,50
;   useDiaphragm,0
;   diaphragmLayerInterval,20
;   robustSlicing,1
;   mergeAllIntoSolid,0
;   onlyRetractWhenCrossingOutline,1
;   retractBetweenLayers,1
;   useRetractionMinTravel,0
;   retractionMinTravel,3
;   retractWhileWiping,1
;   onlyWipeOutlines,1
;   avoidCrossingOutline,0
;   maxMovementDetourFactor,3
;   toolChangeRetractionDistance,12
;   toolChangeExtraRestartDistance,-0.5
;   toolChangeRetractionSpeed,600
;   externalThinWallType,1
;   internalThinWallType,1
;   thinWallAllowedOverlapPercentage,10
;   singleExtrusionMinLength,1
;   singleExtrusionMinPrintingWidthPercentage,50
;   singleExtrusionMaxPrintingWidthPercentage,200
;   singleExtrusionEndpointExtension,0.2
;   horizontalSizeCompensation,0
G90
M82
M106 S102
M140 S10
;
; -]H.P.B[- MarshMalloW  
; $VER: StartScript 1.03 (18.12.2022) MarshMalloW
;
; Begin Startcode
;
M117 *Preheat*	; Preheat
;extruder0_temperature
M104 S185
M109 S185
;M109 R185 
;
M117 *Auto-leveling*     	; Auto-leveling
M107                   	; Turn layer fan off
G21                    	; Set to metric [change to G20 if you want Imperial]
G90                    	; Force coordinates to be absolute relative to the origin
G28                    	; Home X/Y/Z axis
G29                    	; Auto-leveling (BL-Touch)
;
M117 *Start Clean*     	; Indicate nozzle clean in progress on LCD
G92 E0                 	; Set Extruder to 0 
G1 X0 Y0 F2000         	; Move X and Y to 0 with speed 2000 (mm/min)
G1 Z0.1 F1000          	; Move Z to   0.1 with speed 1000 (mm/min)
G1 X8.0 F2000          	; Move X to   8.0 with speed 2000 (mm/min)
G1 Y60.0 E4.0 F1000.0  	; Move Y to  60 and Extruder with 4.0 with speed 1000 (mm/min)
G1 Y100.0 E8.5 F1000.0 	; Move Y to 100 and Extruder with 8.5 with speed 1000 (mm/min)
G92 E0                 	; Set extruder to 0
G1 X16.0 F3000         	; Move X to 16.0 with speed 3000 (mm/min)
G1 Y60.0 F3000         	; Move Y to 60.0 with speed 3000 (mm/min)
M117 *End Clean*       	; Indicate nozzle clean in progress on LCD
G1 Z5 F3000            	; Move Z to  5.0 with speed 3000 (mm/min)
G1 X20.0 F3000         	; Move X to 20.0 with speed 3000 (mm/min)
G1 Y20.0 F3000         	; Move Y to 20.0 with speed 3000 (mm/min)
; 
M117 *Printing...*     	; Start printing msg on LCD
;
; End Startcode
;
; Begin printing with sliced GCode after here
;
; process PLA C01
; layer 1, Z = 0.144
T0
G92 E0.0000
G1 E-3.8000 F3000
; feature skirt
; tool H0.144 W0.350
G1 Z0.300 F1002
G1 X140.038 Y144.924 F6000
G1 Z0.144 F1002
G1 E0.0000 F3000
G92 E0.0000
G1 X140.347 Y144.677 E0.0079 F611
G1 X141.260 Y144.103 E0.0293
G1 X141.617 Y143.932 E0.0372
G1 X142.634 Y143.576 E0.0587
G1 X143.020 Y143.487 E0.0666
G1 X143.993 Y143.378 E0.0860
G1 X144.190 Y143.367 E0.0900
G1 X155.810 Y143.367 E0.3213
G1 X156.007 Y143.378 E0.3252
G1 X156.980 Y143.487 E0.3447
G1 X157.366 Y143.576 E0.3526
G1 X158.383 Y143.932 E0.3740
G1 X158.740 Y144.103 E0.3819
G1 X159.653 Y144.677 E0.4034
G1 X159.962 Y144.924 E0.4113
G1 X160.724 Y145.686 E0.4327
G1 X160.971 Y145.995 E0.4406
G1 X161.545 Y146.908 E0.4620
G1 X161.716 Y147.265 E0.4699
G1 X162.072 Y148.282 E0.4914
G1 X162.160 Y148.668 E0.4993
G1 X162.279 Y149.724 E0.5204
G1 X162.283 Y150.089 E0.5277
G1 X162.169 Y151.286 E0.5516
G1 X162.077 Y151.703 E0.5601
G1 X161.716 Y152.735 E0.5819
G1 X161.545 Y153.092 E0.5898
G1 X160.971 Y154.005 E0.6112
G1 X160.724 Y154.314 E0.6191
G1 X159.962 Y155.076 E0.6406
G1 X159.653 Y155.323 E0.6484
G1 X158.740 Y155.897 E0.6699
G1 X158.383 Y156.068 E0.6778
G1 X157.366 Y156.424 E0.6992
G1 X156.980 Y156.512 E0.7071
G1 X156.007 Y156.622 E0.7266
G1 X155.810 Y156.633 E0.7305
G1 X152.281 Y156.633 E0.8008
G1 X151.975 Y156.606 E0.8069
G1 X151.311 Y156.489 E0.8203
G1 X150.732 Y156.278 E0.8326
G1 X150.015 Y155.864 E0.8491
G1 X150.000 Y155.852 E0.8495
G1 X149.985 Y155.864 E0.8498
G1 X149.268 Y156.278 E0.8663
G1 X148.689 Y156.489 E0.8786
G1 X148.025 Y156.606 E0.8920
G1 X147.719 Y156.633 E0.8981
G1 X144.190 Y156.633 E0.9684
G1 X143.993 Y156.622 E0.9723
G1 X143.020 Y156.512 E0.9918
G1 X142.634 Y156.424 E0.9997
G1 X141.617 Y156.068 E1.0211
G1 X141.260 Y155.897 E1.0290
G1 X140.347 Y155.323 E1.0505
G1 X140.038 Y155.076 E1.0584
G1 X139.276 Y154.314 E1.0798
G1 X139.029 Y154.005 E1.0877
G1 X138.455 Y153.092 E1.1091
G1 X138.284 Y152.735 E1.1170
G1 X137.923 Y151.703 E1.1388
G1 X137.831 Y151.286 E1.1473
G1 X137.717 Y150.089 E1.1712
G1 X137.721 Y149.724 E1.1785
G1 X137.840 Y148.668 E1.1996
G1 X137.928 Y148.282 E1.2075
G1 X138.284 Y147.265 E1.2290
G1 X138.455 Y146.908 E1.2369
G1 X139.029 Y145.995 E1.2583
G1 X139.276 Y145.686 E1.2662
G1 X140.038 Y144.924 E1.2877
G92 E0.0000
G1 E-3.8000 F3000
G1 Z0.444 F1002
G1 X140.271 Y145.185 F6000
G1 Z0.144 F1002
G1 E0.0000 F3000
G92 E0.0000
G1 X140.550 Y144.963 E0.0071 F611
G1 X141.430 Y144.410 E0.0278
G1 X141.751 Y144.255 E0.0349
G1 X142.731 Y143.912 E0.0555
G1 X143.079 Y143.833 E0.0626
G1 X144.022 Y143.727 E0.0815
G1 X144.200 Y143.717 E0.0851
G1 X155.800 Y143.717 E0.3160
G1 X155.978 Y143.727 E0.3195
G1 X156.921 Y143.833 E0.3384
G1 X157.269 Y143.912 E0.3455
G1 X158.249 Y144.255 E0.3662
G1 X158.570 Y144.410 E0.3733
G1 X159.450 Y144.963 E0.3940
G1 X159.729 Y145.185 E0.4011
G1 X160.463 Y145.919 E0.4218
G1 X160.685 Y146.198 E0.4289
G1 X161.238 Y147.077 E0.4495
G1 X161.393 Y147.399 E0.4566
G1 X161.736 Y148.379 E0.4773
G1 X161.815 Y148.727 E0.4844
G1 X161.930 Y149.745 E0.5048
G1 X161.932 Y150.074 E0.5113
G1 X161.822 Y151.232 E0.5345
G1 X161.740 Y151.608 E0.5422
G1 X161.393 Y152.601 E0.5631
G1 X161.238 Y152.922 E0.5702
G1 X160.685 Y153.802 E0.5909
G1 X160.463 Y154.081 E0.5980
G1 X159.729 Y154.815 E0.6187
G1 X159.450 Y155.037 E0.6258
G1 X158.570 Y155.590 E0.6464
G1 X158.249 Y155.745 E0.6535
G1 X157.269 Y156.088 E0.6742
G1 X156.921 Y156.167 E0.6813
G1 X155.978 Y156.273 E0.7002
G1 X155.800 Y156.283 E0.7037
G1 X152.297 Y156.283 E0.7735
G1 X152.020 Y156.259 E0.7790
G1 X151.402 Y156.150 E0.7915
G1 X150.880 Y155.960 E0.8026
G1 X150.216 Y155.577 E0.8178
G1 X150.000 Y155.395 E0.8234
G1 X149.784 Y155.577 E0.8291
G1 X149.120 Y155.960 E0.8443
G1 X148.598 Y156.150 E0.8554
G1 X147.980 Y156.259 E0.8679
G1 X147.703 Y156.283 E0.8734
G1 X144.200 Y156.283 E0.9431
G1 X144.022 Y156.273 E0.9467
G1 X143.079 Y156.167 E0.9656
G1 X142.731 Y156.088 E0.9727
G1 X141.751 Y155.745 E0.9933
G1 X141.430 Y155.590 E1.0004
G1 X140.550 Y155.037 E1.0211
G1 X140.271 Y154.815 E1.0282
G1 X139.537 Y154.081 E1.0489
G1 X139.315 Y153.802 E1.0560
G1 X138.762 Y152.922 E1.0767
G1 X138.607 Y152.601 E1.0838
G1 X138.260 Y151.608 E1.1047
G1 X138.178 Y151.232 E1.1124
G1 X138.068 Y150.074 E1.1355
G1 X138.070 Y149.745 E1.1421
G1 X138.185 Y148.727 E1.1625
G1 X138.264 Y148.379 E1.1696
G1 X138.607 Y147.399 E1.1902
G1 X138.762 Y147.078 E1.1973
G1 X139.315 Y146.198 E1.2180
G1 X139.537 Y145.919 E1.2251
G1 X140.271 Y145.185 E1.2458
G92 E0.0000
G1 E-3.8000 F3000
; feature outer perimeter
G1 Z0.444 F1002
G1 X142.652 Y147.884 F6000
G1 Z0.144 F1002
G1 E0.0000 F3000
G92 E0.0000
G1 X143.150 Y147.571 E0.0117 F306
G1 X143.705 Y147.377 E0.0234
G1 X144.299 Y147.310 E0.0353
G1 X155.701 Y147.310 E0.2623
G1 X156.295 Y147.377 E0.2742
G1 X156.850 Y147.571 E0.2859
G1 X157.348 Y147.884 E0.2976
G1 X157.764 Y148.300 E0.3093
G1 X158.077 Y148.798 E0.3210
G1 X158.271 Y149.353 E0.3327
G1 X158.338 Y149.947 E0.3446
G1 X158.338 Y150.053 E0.3467
G1 X158.271 Y150.647 E0.3586
G1 X158.077 Y151.202 E0.3703
G1 X157.764 Y151.700 E0.3821
G1 X157.348 Y152.116 E0.3938
G1 X156.850 Y152.429 E0.4055
G1 X156.295 Y152.623 E0.4172
G1 X155.701 Y152.690 E0.4291
G1 X152.450 Y152.690 E0.4938
G1 X152.371 Y152.676 E0.4954
G1 X152.315 Y152.644 E0.4967
G1 X152.273 Y152.594 E0.4980
G1 X152.251 Y152.533 E0.4993
G1 X152.251 Y152.467 E0.5006
G1 X152.273 Y152.406 E0.5019
G1 X152.315 Y152.356 E0.5032
G1 X152.371 Y152.324 E0.5045
G1 X152.451 Y152.310 E0.5061
G1 X155.659 Y152.310 E0.5699
G1 X156.201 Y152.244 E0.5808
G1 X156.520 Y152.123 E0.5876
G1 X156.722 Y152.046 E0.5919
G1 X157.181 Y151.730 E0.6030
G1 X157.550 Y151.313 E0.6141
G1 X157.809 Y150.820 E0.6252
G1 X157.942 Y150.279 E0.6363
G1 X157.942 Y149.721 E0.6473
G1 X157.809 Y149.180 E0.6584
G1 X157.550 Y148.687 E0.6695
G1 X157.181 Y148.270 E0.6806
G1 X156.722 Y147.954 E0.6917
G1 X156.201 Y147.756 E0.7028
G1 X155.659 Y147.690 E0.7137
G1 X144.341 Y147.690 E0.9390
G1 X143.799 Y147.756 E0.9498
G1 X143.278 Y147.954 E0.9609
G1 X142.819 Y148.270 E0.9720
G1 X142.450 Y148.687 E0.9831
G1 X142.191 Y149.180 E0.9942
G1 X142.058 Y149.721 E1.0053
G1 X142.058 Y150.279 E1.0164
G1 X142.191 Y150.820 E1.0275
G1 X142.450 Y151.313 E1.0386
G1 X142.819 Y151.730 E1.0497
G1 X143.278 Y152.046 E1.0607
G1 X143.799 Y152.244 E1.0718
G1 X144.341 Y152.310 E1.0827
G1 X147.549 Y152.310 E1.1466
G1 X147.629 Y152.324 E1.1482
G1 X147.685 Y152.356 E1.1495
G1 X147.727 Y152.406 E1.1508
