; G-Code generated by Simplify3D(R) Version 4.0.1
;
;
;
;
; Aug 7, 2023 at 5:17:59 PM
; Settings Summary
;   processName,PLA C01
;   applyToModels,watchstand_base
;   profileName,PLA_C01_04_15_OS180_05 Tevo Tornado
;   profileVersion,2023-07-25 15:27:17
;   baseProfile,Creality CR-10(2)
;   printMaterial,PLA
;   printQuality,High
;   printExtruders,
;   extruderName,Primary Extruder
;   extruderToolheadNumber,0
;   extruderDiameter,0.4
;   extruderAutoWidth,0
;   extruderWidth,0.35
;   extrusionMultiplier,0.95
;   extruderUseRetract,1
;   extruderRetractionDistance,3.8
;   extruderExtraRestartDistance,0
;   extruderRetractionZLift,0.3
;   extruderRetractionSpeed,3000
;   extruderUseCoasting,1
;   extruderCoastingDistance,0.2
;   extruderUseWipe,0
;   extruderWipeDistance,5
;   primaryExtruder,0
;   layerHeight,0.12
;   topSolidLayers,6
;   bottomSolidLayers,6
;   perimeterOutlines,4
;   printPerimetersInsideOut,1
;   startPointOption,2
;   startPointOriginX,0
;   startPointOriginY,300
;   sequentialIslands,0
;   spiralVaseMode,0
;   firstLayerHeightPercentage,120
;   firstLayerWidthPercentage,100
;   firstLayerUnderspeed,0.25
;   useRaft,0
;   raftExtruder,0
;   raftTopLayers,3
;   raftBaseLayers,2
;   raftOffset,3
;   raftSeparationDistance,0.14
;   raftTopInfill,100
;   aboveRaftSpeedMultiplier,0.3
;   useSkirt,1
;   skirtExtruder,0
;   skirtLayers,2
;   skirtOutlines,2
;   skirtOffset,3
;   usePrimePillar,0
;   primePillarExtruder,999
;   primePillarWidth,12
;   primePillarLocation,7
;   primePillarSpeedMultiplier,1
;   useOozeShield,0
;   oozeShieldExtruder,999
;   oozeShieldOffset,2
;   oozeShieldOutlines,1
;   oozeShieldSidewallShape,1
;   oozeShieldSidewallAngle,30
;   oozeShieldSpeedMultiplier,1
;   infillExtruder,0
;   internalInfillPattern,Fast Honeycomb
;   externalInfillPattern,Rectilinear
;   infillPercentage,15
;   outlineOverlapPercentage,15
;   infillExtrusionWidthPercentage,100
;   minInfillLength,5
;   infillLayerInterval,1
;   internalInfillAngles,0
;   overlapInternalInfillAngles,0
;   externalInfillAngles,45,-45
;   generateSupport,0
;   supportExtruder,0
;   supportInfillPercentage,40
;   supportExtraInflation,0
;   supportBaseLayers,0
;   denseSupportExtruder,0
;   denseSupportLayers,0
;   denseSupportInfillPercentage,70
;   supportLayerInterval,1
;   supportHorizontalPartOffset,0.4
;   supportUpperSeparationLayers,1
;   supportLowerSeparationLayers,1
;   supportType,0
;   supportGridSpacing,4.5
;   maxOverhangAngle,45
;   supportAngles,0
;   temperatureName,Primary Extruder,Heated Bed
;   temperatureNumber,0,0
;   temperatureSetpointCount,2,2
;   temperatureSetpointLayers,1,2,1,2
;   temperatureSetpointTemperatures,185,180,10,5
;   temperatureStabilizeAtStartup,1,1
;   temperatureHeatedBed,0,1
;   temperatureRelayBetweenLayers,0,0
;   temperatureRelayBetweenLoops,0,0
;   fanLayers,1,2
;   fanSpeeds,0,100
;   blipFanToFullPower,0
;   adjustSpeedForCooling,1
;   minSpeedLayerTime,15
;   minCoolingSpeedSlowdown,20
;   increaseFanForCooling,1
;   minFanLayerTime,25
;   maxCoolingFanSpeed,100
;   increaseFanForBridging,1
;   bridgingFanSpeed,100
;   use5D,1
;   relativeEdistances,0
;   allowEaxisZeroing,1
;   independentExtruderAxes,0
;   includeM10123,0
;   stickySupport,1
;   applyToolheadOffsets,0
;   gcodeXoffset,0
;   gcodeYoffset,0
;   gcodeZoffset,0
;   overrideMachineDefinition,1
;   machineTypeOverride,0
;   strokeXoverride,300
;   strokeYoverride,300
;   strokeZoverride,400
;   originOffsetXoverride,0
;   originOffsetYoverride,0
;   originOffsetZoverride,0
;   homeXdirOverride,-1
;   homeYdirOverride,-1
;   homeZdirOverride,-1
;   flipXoverride,1
;   flipYoverride,-1
;   flipZoverride,1
;   toolheadOffsets,0,0|0,0|0,0|0,0|0,0|0,0
;   overrideFirmwareConfiguration,1
;   firmwareTypeOverride,RepRap (Marlin/Repetier/Sprinter)
;   GPXconfigOverride,r2
;   baudRateOverride,250000
;   overridePrinterModels,1
;   printerModelsOverride
;   startingGcode,;,; -]H.P.B[- MarshMalloW  ,; $VER: StartScript 1.03 (18.12.2022) MarshMalloW,;,; Begin Startcode,;,M117 *Preheat*	; Preheat,;extruder0_temperature,M104 S[extruder0_temperature],M109 S[extruder0_temperature],;M109 R[extruder0_temperature] ,;,M117 *Auto-leveling*     	; Auto-leveling,M107                   	; Turn layer fan off,G21                    	; Set to metric [change to G20 if you want Imperial],G90                    	; Force coordinates to be absolute relative to the origin,G28                    	; Home X/Y/Z axis,G29                    	; Auto-leveling (BL-Touch),;,M117 *Start Clean*     	; Indicate nozzle clean in progress on LCD,G92 E0                 	; Set Extruder to 0 ,G1 X0 Y0 F2000         	; Move X and Y to 0 with speed 2000 (mm/min),G1 Z0.1 F1000          	; Move Z to   0.1 with speed 1000 (mm/min),G1 X8.0 F2000          	; Move X to   8.0 with speed 2000 (mm/min),G1 Y60.0 E4.0 F1000.0  	; Move Y to  60 and Extruder with 4.0 with speed 1000 (mm/min),G1 Y100.0 E8.5 F1000.0 	; Move Y to 100 and Extruder with 8.5 with speed 1000 (mm/min),G92 E0                 	; Set extruder to 0,G1 X16.0 F3000         	; Move X to 16.0 with speed 3000 (mm/min),G1 Y60.0 F3000         	; Move Y to 60.0 with speed 3000 (mm/min),M117 *End Clean*       	; Indicate nozzle clean in progress on LCD,G1 Z5 F3000            	; Move Z to  5.0 with speed 3000 (mm/min),G1 X20.0 F3000         	; Move X to 20.0 with speed 3000 (mm/min),G1 Y20.0 F3000         	; Move Y to 20.0 with speed 3000 (mm/min),; ,M117 *Printing...*     	; Start printing msg on LCD,;,; End Startcode,;,; Begin printing with sliced GCode after here,;
;   layerChangeGcode,
;   retractionGcode,
;   toolChangeGcode,
;   endingGcode,;,; init 181010,;,;M107 			; Fan off,;G1 E-1 F300 			; Retract the filament a bit before lifting the nozzle,;M104 S0 			; Turn off extruder,;M140 S0 			; Turn off bed,;G91			; Relative positioning,;G28 X0 Y0 			; Move X/Y to min endstops so the head is out of teh way,;M84 			; Disable motors,;G90 			; Absolute positioning,;M117 Print ready...,,;,; // From Cura 181010,; // End_gcode,G92 E0			; Zero the extruded length,;G1 E-30 F300		; Retract E -30,M106 S0			; Turn off cooling fan,M104 S0			; Turn off temperature,M140 S0		     	; Turn off bed,G91			; Relative positioning,G1 E-1 F300			; Retract the filament a bit before lifting the nozzle to release some of the pressure,G1 Z+20 E-5 X-20 Y-20 F7200	; Move Z up a bit and retract filament even more,G1 X0 Y150 F10000		; Move right min,M107			; Turn off layer fan,M84			; Disable motors,G90			; Absolute positioning,M117 *The-End* 		; End msg,;,
;   exportFileFormat,gcode
;   celebration,0
;   celebrationSong,Star Wars
;   postProcessing,D:\S3D_Thumbs\S3D_Thumbs.exe f="[output_filepath]" x=600 y=110 w=953 lw=400 lh=300 sw=32 sh=32 d=Y
;   defaultSpeed,4200
;   outlineUnderspeed,0.5
;   solidInfillUnderspeed,0.8
;   supportUnderspeed,0.8
;   rapidXYspeed,6000
;   rapidZspeed,1002
;   minBridgingArea,50
;   bridgingExtraInflation,0.2
;   bridgingExtrusionMultiplier,1
;   bridgingSpeedMultiplier,0.8
;   useFixedBridgingAngle,0
;   fixedBridgingAngle,0
;   applyBridgingToPerimeters,0
;   filamentDiameters,1.75|1.75|1.75|1.75|1.75|1.75
;   filamentPricesPerKg,30|46|46|46|46|46
;   filamentDensities,1.25|1.25|1.25|1.25|1.25|1.25
;   useMinPrintHeight,0
;   minPrintHeight,0
;   useMaxPrintHeight,0
;   maxPrintHeight,50
;   useDiaphragm,0
;   diaphragmLayerInterval,20
;   robustSlicing,1
;   mergeAllIntoSolid,0
;   onlyRetractWhenCrossingOutline,1
;   retractBetweenLayers,1
;   useRetractionMinTravel,0
;   retractionMinTravel,3
;   retractWhileWiping,1
;   onlyWipeOutlines,1
;   avoidCrossingOutline,0
;   maxMovementDetourFactor,3
;   toolChangeRetractionDistance,12
;   toolChangeExtraRestartDistance,-0.5
;   toolChangeRetractionSpeed,600
;   externalThinWallType,1
;   internalThinWallType,1
;   thinWallAllowedOverlapPercentage,10
;   singleExtrusionMinLength,1
;   singleExtrusionMinPrintingWidthPercentage,50
;   singleExtrusionMaxPrintingWidthPercentage,200
;   singleExtrusionEndpointExtension,0.2
;   horizontalSizeCompensation,0
G90
M82
M106 S0
M140 S10
M190 S10
;
; -]H.P.B[- MarshMalloW  
; $VER: StartScript 1.03 (18.12.2022) MarshMalloW
;
; Begin Startcode
;
M117 *Preheat*	; Preheat
;extruder0_temperature
M104 S185
M109 S185
;M109 R185 
;
M117 *Auto-leveling*     	; Auto-leveling
M107                   	; Turn layer fan off
G21                    	; Set to metric [change to G20 if you want Imperial]
G90                    	; Force coordinates to be absolute relative to the origin
G28                    	; Home X/Y/Z axis
G29                    	; Auto-leveling (BL-Touch)
;
M117 *Start Clean*     	; Indicate nozzle clean in progress on LCD
G92 E0                 	; Set Extruder to 0 
G1 X0 Y0 F2000         	; Move X and Y to 0 with speed 2000 (mm/min)
G1 Z0.1 F1000          	; Move Z to   0.1 with speed 1000 (mm/min)
G1 X8.0 F2000          	; Move X to   8.0 with speed 2000 (mm/min)
G1 Y60.0 E4.0 F1000.0  	; Move Y to  60 and Extruder with 4.0 with speed 1000 (mm/min)
G1 Y100.0 E8.5 F1000.0 	; Move Y to 100 and Extruder with 8.5 with speed 1000 (mm/min)
G92 E0                 	; Set extruder to 0
G1 X16.0 F3000         	; Move X to 16.0 with speed 3000 (mm/min)
G1 Y60.0 F3000         	; Move Y to 60.0 with speed 3000 (mm/min)
M117 *End Clean*       	; Indicate nozzle clean in progress on LCD
G1 Z5 F3000            	; Move Z to  5.0 with speed 3000 (mm/min)
G1 X20.0 F3000         	; Move X to 20.0 with speed 3000 (mm/min)
G1 Y20.0 F3000         	; Move Y to 20.0 with speed 3000 (mm/min)
; 
M117 *Printing...*     	; Start printing msg on LCD
;
; End Startcode
;
; Begin printing with sliced GCode after here
;
G92 E0
G1 E-3.8000 F3000
G1 Z0.444 F1002
; process PLA C01
; layer 1, Z = 0.144
T0
; tool H0.144 W0.350
; skirt
G1 X116.286 Y118.171 F6000
G1 Z0.144 F1002
G1 E0.0000 F900
G92 E0
G1 X117.329 Y117.102 E0.0297 F1050
G1 X117.332 Y117.099 E0.0298
G1 X117.371 Y117.060 E0.0309
G1 X117.374 Y117.057 E0.0310
G1 X118.453 Y116.023 E0.0607
G1 X118.456 Y116.020 E0.0608
G1 X118.496 Y115.983 E0.0619
G1 X118.499 Y115.980 E0.0620
G1 X119.612 Y114.982 E0.0918
G1 X119.615 Y114.979 E0.0918
G1 X119.657 Y114.943 E0.0929
G1 X119.660 Y114.941 E0.0930
G1 X120.805 Y113.981 E0.1228
G1 X120.809 Y113.978 E0.1229
G1 X120.851 Y113.944 E0.1239
G1 X120.855 Y113.941 E0.1240
G1 X122.032 Y113.021 E0.1538
G1 X122.035 Y113.018 E0.1539
G1 X122.079 Y112.985 E0.1550
G1 X122.083 Y112.983 E0.1550
G1 X123.290 Y112.102 E0.1848
G1 X123.294 Y112.100 E0.1849
G1 X123.338 Y112.068 E0.1860
G1 X123.342 Y112.066 E0.1860
G1 X124.578 Y111.227 E0.2158
G1 X124.582 Y111.224 E0.2159
G1 X124.628 Y111.194 E0.2170
G1 X124.631 Y111.192 E0.2171
G1 X125.895 Y110.395 E0.2468
G1 X125.899 Y110.392 E0.2469
G1 X125.946 Y110.364 E0.2480
G1 X125.949 Y110.362 E0.2481
G1 X127.239 Y109.607 E0.2778
G1 X127.243 Y109.605 E0.2779
G1 X127.291 Y109.578 E0.2790
G1 X127.295 Y109.576 E0.2791
G1 X128.609 Y108.866 E0.3088
G1 X128.613 Y108.863 E0.3089
G1 X128.661 Y108.838 E0.3100
G1 X128.665 Y108.836 E0.3101
G1 X130.003 Y108.170 E0.3398
G1 X130.007 Y108.168 E0.3399
G1 X130.056 Y108.145 E0.3410
G1 X130.060 Y108.143 E0.3411
G1 X131.419 Y107.522 E0.3708
G1 X131.423 Y107.520 E0.3709
G1 X131.474 Y107.498 E0.3720
G1 X131.478 Y107.497 E0.3721
G1 X132.857 Y106.922 E0.4018
G1 X132.861 Y106.920 E0.4019
G1 X132.912 Y106.900 E0.4030
G1 X132.916 Y106.899 E0.4031
G1 X134.314 Y106.371 E0.4328
G1 X134.318 Y106.369 E0.4329
G1 X134.369 Y106.351 E0.4340
G1 X134.373 Y106.349 E0.4341
G1 X135.788 Y105.868 E0.4639
G1 X135.792 Y105.867 E0.4639
G1 X135.844 Y105.850 E0.4650
G1 X135.849 Y105.849 E0.4651
G1 X137.279 Y105.416 E0.4949
G1 X137.283 Y105.415 E0.4950
G1 X137.336 Y105.400 E0.4960
G1 X137.340 Y105.398 E0.4961
G1 X138.784 Y105.014 E0.5259
G1 X138.788 Y105.013 E0.5260
G1 X138.841 Y104.999 E0.5271
G1 X138.845 Y104.998 E0.5271
G1 X140.301 Y104.663 E0.5569
G1 X140.305 Y104.662 E0.5570
G1 X140.359 Y104.650 E0.5581
G1 X140.363 Y104.649 E0.5581
G1 X141.830 Y104.362 E0.5879
G1 X141.834 Y104.362 E0.5880
G1 X141.888 Y104.352 E0.5891
G1 X141.892 Y104.351 E0.5892
G1 X143.367 Y104.114 E0.6189
G1 X143.372 Y104.113 E0.6190
G1 X143.426 Y104.105 E0.6201
G1 X143.430 Y104.105 E0.6202
G1 X144.913 Y103.917 E0.6499
G1 X144.917 Y103.916 E0.6500
G1 X144.971 Y103.910 E0.6511
G1 X144.976 Y103.910 E0.6512
G1 X146.464 Y103.772 E0.6809
G1 X146.468 Y103.772 E0.6810
G1 X146.523 Y103.768 E0.6821
G1 X146.527 Y103.767 E0.6822
G1 X148.019 Y103.680 E0.7119
G1 X148.023 Y103.679 E0.7120
G1 X148.078 Y103.677 E0.7131
G1 X148.082 Y103.677 E0.7132
G1 X149.576 Y103.639 E0.7429
G1 X149.580 Y103.639 E0.7430
G1 X149.635 Y103.639 E0.7441
G1 X149.639 Y103.639 E0.7442
G1 X151.133 Y103.651 E0.7739
G1 X151.138 Y103.651 E0.7740
G1 X151.193 Y103.653 E0.7751
G1 X151.197 Y103.653 E0.7752
G1 X152.690 Y103.716 E0.8049
G1 X152.694 Y103.716 E0.8050
G1 X152.749 Y103.719 E0.8061
G1 X152.753 Y103.719 E0.8062
G1 X154.243 Y103.832 E0.8360
G1 X154.247 Y103.833 E0.8360
G1 X154.302 Y103.838 E0.8371
G1 X154.306 Y103.838 E0.8372
G1 X155.792 Y104.001 E0.8670
G1 X155.796 Y104.001 E0.8671
G1 X155.850 Y104.008 E0.8681
G1 X155.855 Y104.009 E0.8682
G1 X157.334 Y104.222 E0.8980
G1 X157.338 Y104.222 E0.8981
G1 X157.392 Y104.231 E0.8992
G1 X157.396 Y104.232 E0.8992
G1 X158.867 Y104.494 E0.9290
G1 X158.872 Y104.495 E0.9291
G1 X158.925 Y104.505 E0.9302
G1 X158.930 Y104.506 E0.9302
G1 X160.391 Y104.817 E0.9600
G1 X160.395 Y104.818 E0.9601
G1 X160.449 Y104.831 E0.9612
G1 X160.453 Y104.832 E0.9613
G1 X161.903 Y105.192 E0.9910
G1 X161.907 Y105.193 E0.9911
G1 X161.960 Y105.207 E0.9922
G1 X161.965 Y105.209 E0.9923
G1 X163.402 Y105.617 E1.0220
G1 X163.406 Y105.619 E1.0221
G1 X163.458 Y105.635 E1.0232
G1 X163.463 Y105.636 E1.0233
G1 X164.885 Y106.093 E1.0530
G1 X164.889 Y106.094 E1.0531
G1 X164.941 Y106.112 E1.0542
G1 X164.945 Y106.113 E1.0543
G1 X166.352 Y106.618 E1.0840
G1 X166.356 Y106.619 E1.0841
G1 X166.407 Y106.639 E1.0852
G1 X166.411 Y106.640 E1.0853
G1 X167.800 Y107.192 E1.1150
G1 X167.804 Y107.193 E1.1151
G1 X167.854 Y107.214 E1.1162
G1 X167.858 Y107.216 E1.1163
G1 X169.228 Y107.814 E1.1460
G1 X169.232 Y107.816 E1.1461
G1 X169.282 Y107.838 E1.1472
G1 X169.286 Y107.840 E1.1473
G1 X170.634 Y108.484 E1.1770
G1 X170.638 Y108.486 E1.1771
G1 X170.687 Y108.510 E1.1782
G1 X170.691 Y108.512 E1.1783
G1 X172.017 Y109.200 E1.2081
G1 X172.021 Y109.202 E1.2081
G1 X172.069 Y109.229 E1.2092
G1 X172.073 Y109.231 E1.2093
G1 X173.375 Y109.963 E1.2391
G1 X173.379 Y109.965 E1.2391
G1 X173.426 Y109.993 E1.2402
G1 X173.430 Y109.995 E1.2403
G1 X174.707 Y110.771 E1.2701
G1 X174.711 Y110.773 E1.2702
G1 X174.757 Y110.803 E1.2712
G1 X174.761 Y110.805 E1.2713
G1 X176.011 Y111.623 E1.3011
G1 X176.015 Y111.626 E1.3012
G1 X176.060 Y111.657 E1.3023
G1 X176.064 Y111.659 E1.3023
G1 X177.286 Y112.519 E1.3321
G1 X177.289 Y112.521 E1.3322
G1 X177.333 Y112.554 E1.3333
G1 X177.337 Y112.556 E1.3334
G1 X178.529 Y113.457 E1.3631
G1 X178.533 Y113.459 E1.3632
G1 X178.576 Y113.493 E1.3643
G1 X178.579 Y113.496 E1.3644
G1 X179.741 Y114.436 E1.3941
G1 X179.744 Y114.439 E1.3942
G1 X179.786 Y114.474 E1.3953
G1 X179.790 Y114.477 E1.3954
G1 X180.919 Y115.455 E1.4251
G1 X180.922 Y115.458 E1.4252
G1 X180.963 Y115.495 E1.4263
G1 X180.966 Y115.498 E1.4264
G1 X182.062 Y116.513 E1.4561
G1 X182.065 Y116.517 E1.4562
G1 X182.105 Y116.554 E1.4573
G1 X182.108 Y116.558 E1.4574
G1 X183.169 Y117.610 E1.4871
G1 X183.172 Y117.613 E1.4872
G1 X183.210 Y117.652 E1.4883
G1 X183.213 Y117.655 E1.4884
G1 X184.238 Y118.742 E1.5181
G1 X184.241 Y118.745 E1.5182
G1 X184.278 Y118.786 E1.5193
G1 X184.281 Y118.789 E1.5194
G1 X185.269 Y119.910 E1.5491
G1 X185.272 Y119.913 E1.5492
G1 X185.307 Y119.955 E1.5503
G1 X185.310 Y119.959 E1.5504
G1 X186.260 Y121.112 E1.5802
G1 X186.262 Y121.115 E1.5802
G1 X186.296 Y121.158 E1.5813
G1 X186.299 Y121.162 E1.5814
G1 X187.210 Y122.346 E1.6112
G1 X187.212 Y122.350 E1.6112
G1 X187.245 Y122.394 E1.6123
G1 X187.248 Y122.398 E1.6124
G1 X188.118 Y123.612 E1.6422
G1 X188.120 Y123.616 E1.6423
G1 X188.151 Y123.661 E1.6433
