; G-Code generated by Simplify3D(R) Version 4.1.2
;
;
;
;
; Aug 3, 2023 at 10:21:29 AM
; Settings Summary
;   processName,PLA C01
;   applyToModels,watchstand_base
;   profileName,PLA_C01_04_10_OS180_05 Tevo Tornado
;   profileVersion,2023-07-25 15:27:17
;   baseProfile,Creality CR-10(2)
;   printMaterial,PLA
;   printQuality,High
;   printExtruders,
;   extruderName,Primary Extruder
;   extruderToolheadNumber,0
;   extruderDiameter,0.4
;   extruderAutoWidth,0
;   extruderWidth,0.35
;   extrusionMultiplier,0.95
;   extruderUseRetract,1
;   extruderRetractionDistance,3.8
;   extruderExtraRestartDistance,0
;   extruderRetractionZLift,0.3
;   extruderRetractionSpeed,3000
;   extruderUseCoasting,1
;   extruderCoastingDistance,0.2
;   extruderUseWipe,0
;   extruderWipeDistance,5
;   primaryExtruder,0
;   layerHeight,0.12
;   topSolidLayers,6
;   bottomSolidLayers,6
;   perimeterOutlines,4
;   printPerimetersInsideOut,1
;   startPointOption,2
;   startPointOriginX,0
;   startPointOriginY,300
;   sequentialIslands,0
;   spiralVaseMode,0
;   firstLayerHeightPercentage,120
;   firstLayerWidthPercentage,100
;   firstLayerUnderspeed,0.25
;   useRaft,0
;   raftExtruder,0
;   raftTopLayers,3
;   raftBaseLayers,2
;   raftOffset,3
;   raftSeparationDistance,0.14
;   raftTopInfill,100
;   aboveRaftSpeedMultiplier,0.3
;   useSkirt,1
;   skirtExtruder,0
;   skirtLayers,2
;   skirtOutlines,2
;   skirtOffset,3
;   usePrimePillar,0
;   primePillarExtruder,999
;   primePillarWidth,12
;   primePillarLocation,7
;   primePillarSpeedMultiplier,1
;   useOozeShield,0
;   oozeShieldExtruder,999
;   oozeShieldOffset,2
;   oozeShieldOutlines,1
;   oozeShieldSidewallShape,1
;   oozeShieldSidewallAngle,30
;   oozeShieldSpeedMultiplier,1
;   infillExtruder,0
;   internalInfillPattern,Fast Honeycomb
;   externalInfillPattern,Rectilinear
;   infillPercentage,10
;   outlineOverlapPercentage,15
;   infillExtrusionWidthPercentage,100
;   minInfillLength,5
;   infillLayerInterval,1
;   internalInfillAngles,0
;   overlapInternalInfillAngles,0
;   externalInfillAngles,45,-45
;   generateSupport,0
;   supportExtruder,0
;   supportInfillPercentage,40
;   supportExtraInflation,0
;   supportBaseLayers,0
;   denseSupportExtruder,0
;   denseSupportLayers,0
;   denseSupportInfillPercentage,70
;   supportLayerInterval,1
;   supportHorizontalPartOffset,0.4
;   supportUpperSeparationLayers,1
;   supportLowerSeparationLayers,1
;   supportType,0
;   supportGridSpacing,4.5
;   maxOverhangAngle,45
;   supportAngles,0
;   temperatureName,Primary Extruder,Heated Bed
;   temperatureNumber,0,0
;   temperatureSetpointCount,2,2
;   temperatureSetpointLayers,1,2,1,2
;   temperatureSetpointTemperatures,185,180,10,5
;   temperatureStabilizeAtStartup,1,1
;   temperatureHeatedBed,0,1
;   fanLayers,1,2
;   fanSpeeds,0,100
;   blipFanToFullPower,0
;   adjustSpeedForCooling,1
;   minSpeedLayerTime,15
;   minCoolingSpeedSlowdown,20
;   increaseFanForCooling,1
;   minFanLayerTime,25
;   maxCoolingFanSpeed,100
;   increaseFanForBridging,1
;   bridgingFanSpeed,100
;   use5D,1
;   relativeEdistances,0
;   allowEaxisZeroing,1
;   independentExtruderAxes,0
;   includeM10123,0
;   stickySupport,1
;   applyToolheadOffsets,0
;   gcodeXoffset,0
;   gcodeYoffset,0
;   gcodeZoffset,0
;   overrideMachineDefinition,1
;   machineTypeOverride,0
;   strokeXoverride,300
;   strokeYoverride,300
;   strokeZoverride,400
;   originOffsetXoverride,0
;   originOffsetYoverride,0
;   originOffsetZoverride,0
;   homeXdirOverride,-1
;   homeYdirOverride,-1
;   homeZdirOverride,-1
;   flipXoverride,1
;   flipYoverride,-1
;   flipZoverride,1
;   toolheadOffsets,0,0|0,0|0,0|0,0|0,0|0,0
;   overrideFirmwareConfiguration,1
;   firmwareTypeOverride,RepRap (Marlin/Repetier/Sprinter)
;   GPXconfigOverride,r2
;   baudRateOverride,250000
;   overridePrinterModels,1
;   printerModelsOverride
;   startingGcode,;,; -]H.P.B[- MarshMalloW  ,; $VER: StartScript 1.03 (18.12.2022) MarshMalloW,;,; Begin Startcode,;,M117 *Preheat*	; Preheat,;extruder0_temperature,M104 S[extruder0_temperature],M109 S[extruder0_temperature],;M109 R[extruder0_temperature] ,;,M117 *Auto-leveling*     	; Auto-leveling,M107                   	; Turn layer fan off,G21                    	; Set to metric [change to G20 if you want Imperial],G90                    	; Force coordinates to be absolute relative to the origin,G28                    	; Home X/Y/Z axis,G29                    	; Auto-leveling (BL-Touch),;,M117 *Start Clean*     	; Indicate nozzle clean in progress on LCD,G92 E0                 	; Set Extruder to 0 ,G1 X0 Y0 F2000         	; Move X and Y to 0 with speed 2000 (mm/min),G1 Z0.1 F1000          	; Move Z to   0.1 with speed 1000 (mm/min),G1 X8.0 F2000          	; Move X to   8.0 with speed 2000 (mm/min),G1 Y60.0 E4.0 F1000.0  	; Move Y to  60 and Extruder with 4.0 with speed 1000 (mm/min),G1 Y100.0 E8.5 F1000.0 	; Move Y to 100 and Extruder with 8.5 with speed 1000 (mm/min),G92 E0                 	; Set extruder to 0,G1 X16.0 F3000         	; Move X to 16.0 with speed 3000 (mm/min),G1 Y60.0 F3000         	; Move Y to 60.0 with speed 3000 (mm/min),M117 *End Clean*       	; Indicate nozzle clean in progress on LCD,G1 Z5 F3000            	; Move Z to  5.0 with speed 3000 (mm/min),G1 X20.0 F3000         	; Move X to 20.0 with speed 3000 (mm/min),G1 Y20.0 F3000         	; Move Y to 20.0 with speed 3000 (mm/min),; ,M117 *Printing...*     	; Start printing msg on LCD,;,; End Startcode,;,; Begin printing with sliced GCode after here,;
;   layerChangeGcode,
;   retractionGcode,
;   toolChangeGcode,
;   endingGcode,;,; init 181010,;,;M107 			; Fan off,;G1 E-1 F300 			; Retract the filament a bit before lifting the nozzle,;M104 S0 			; Turn off extruder,;M140 S0 			; Turn off bed,;G91			; Relative positioning,;G28 X0 Y0 			; Move X/Y to min endstops so the head is out of teh way,;M84 			; Disable motors,;G90 			; Absolute positioning,;M117 Print ready...,,;,; // From Cura 181010,; // End_gcode,G92 E0			; Zero the extruded length,;G1 E-30 F300		; Retract E -30,M106 S0			; Turn off cooling fan,M104 S0			; Turn off temperature,M140 S0		     	; Turn off bed,G91			; Relative positioning,G1 E-1 F300			; Retract the filament a bit before lifting the nozzle to release some of the pressure,G1 Z+20 E-5 X-20 Y-20 F7200	; Move Z up a bit and retract filament even more,G1 X0 Y150 F10000		; Move right min,M107			; Turn off layer fan,M84			; Disable motors,G90			; Absolute positioning,M117 *The-End* 		; End msg,;,
;   exportFileFormat,gcode
;   celebration,0
;   celebrationSong,Star Wars
;   postProcessing,D:\S3D_Thumbs\S3D_Thumbs.exe f="[output_filepath]" x=600 y=110 w=953 lw=400 lh=300 sw=32 sh=32 d=Y
;   defaultSpeed,4200
;   outlineUnderspeed,0.5
;   solidInfillUnderspeed,0.8
;   supportUnderspeed,0.8
;   rapidXYspeed,6000
;   rapidZspeed,1002
;   minBridgingArea,50
;   bridgingExtraInflation,0.2
;   bridgingExtrusionMultiplier,1
;   bridgingSpeedMultiplier,0.8
;   useFixedBridgingAngle,0
;   fixedBridgingAngle,0
;   applyBridgingToPerimeters,0
;   filamentDiameters,1.75|1.75|1.75|1.75|1.75|1.75
;   filamentPricesPerKg,30|46|46|46|46|46
;   filamentDensities,1.25|1.25|1.25|1.25|1.25|1.25
;   useMinPrintHeight,0
;   minPrintHeight,0
;   useMaxPrintHeight,0
;   maxPrintHeight,50
;   useDiaphragm,0
;   diaphragmLayerInterval,20
;   robustSlicing,1
;   mergeAllIntoSolid,0
;   onlyRetractWhenCrossingOutline,1
;   retractBetweenLayers,1
;   useRetractionMinTravel,0
;   retractionMinTravel,3
;   retractWhileWiping,1
;   onlyWipeOutlines,1
;   avoidCrossingOutline,0
;   maxMovementDetourFactor,3
;   toolChangeRetractionDistance,12
;   toolChangeExtraRestartDistance,-0.5
;   toolChangeRetractionSpeed,600
;   externalThinWallType,1
;   internalThinWallType,1
;   thinWallAllowedOverlapPercentage,10
;   singleExtrusionMinLength,1
;   singleExtrusionMinPrintingWidthPercentage,50
;   singleExtrusionMaxPrintingWidthPercentage,200
;   singleExtrusionEndpointExtension,0.2
;   horizontalSizeCompensation,0
G90
M82
M106 S0
M140 S10
;
; -]H.P.B[- MarshMalloW  
; $VER: StartScript 1.03 (18.12.2022) MarshMalloW
;
; Begin Startcode
;
M117 *Preheat*	; Preheat
;extruder0_temperature
M104 S185
M109 S185
;M109 R185 
;
M117 *Auto-leveling*     	; Auto-leveling
M107                   	; Turn layer fan off
G21                    	; Set to metric [change to G20 if you want Imperial]
G90                    	; Force coordinates to be absolute relative to the origin
G28                    	; Home X/Y/Z axis
G29                    	; Auto-leveling (BL-Touch)
;
M117 *Start Clean*     	; Indicate nozzle clean in progress on LCD
G92 E0                 	; Set Extruder to 0 
G1 X0 Y0 F2000         	; Move X and Y to 0 with speed 2000 (mm/min)
G1 Z0.1 F1000          	; Move Z to   0.1 with speed 1000 (mm/min)
G1 X8.0 F2000          	; Move X to   8.0 with speed 2000 (mm/min)
G1 Y60.0 E4.0 F1000.0  	; Move Y to  60 and Extruder with 4.0 with speed 1000 (mm/min)
G1 Y100.0 E8.5 F1000.0 	; Move Y to 100 and Extruder with 8.5 with speed 1000 (mm/min)
G92 E0                 	; Set extruder to 0
G1 X16.0 F3000         	; Move X to 16.0 with speed 3000 (mm/min)
G1 Y60.0 F3000         	; Move Y to 60.0 with speed 3000 (mm/min)
M117 *End Clean*       	; Indicate nozzle clean in progress on LCD
G1 Z5 F3000            	; Move Z to  5.0 with speed 3000 (mm/min)
G1 X20.0 F3000         	; Move X to 20.0 with speed 3000 (mm/min)
G1 Y20.0 F3000         	; Move Y to 20.0 with speed 3000 (mm/min)
; 
M117 *Printing...*     	; Start printing msg on LCD
;
; End Startcode
;
; Begin printing with sliced GCode after here
;
; process PLA C01
; layer 1, Z = 0.144
T0
G92 E0.0000
G1 E-3.8000 F3000
; feature skirt
; tool H0.144 W0.350
G1 Z0.300 F1002
G1 X117.373 Y117.058 F6000
G1 Z0.144 F1002
G1 E0.0000 F3000
G92 E0.0000
G1 X118.454 Y116.021 E0.0298 F1050
G1 X118.498 Y115.981 E0.0310
G1 X119.613 Y114.981 E0.0608
G1 X119.658 Y114.942 E0.0620
G1 X120.807 Y113.980 E0.0918
G1 X120.853 Y113.943 E0.0930
G1 X122.034 Y113.020 E0.1229
G1 X122.081 Y112.984 E0.1240
G1 X123.292 Y112.101 E0.1539
G1 X123.340 Y112.067 E0.1550
G1 X124.580 Y111.225 E0.1849
G1 X124.629 Y111.193 E0.1860
G1 X125.897 Y110.393 E0.2159
G1 X125.947 Y110.363 E0.2171
G1 X127.244 Y109.605 E0.2470
G1 X127.301 Y109.573 E0.2483
G1 X128.773 Y108.783 E0.2815
G1 X128.820 Y108.759 E0.2826
G1 X130.005 Y108.169 E0.3089
G1 X130.058 Y108.144 E0.3101
G1 X131.424 Y107.520 E0.3400
G1 X131.484 Y107.494 E0.3413
G1 X133.029 Y106.857 E0.3745
G1 X133.078 Y106.837 E0.3756
G1 X134.316 Y106.370 E0.4019
G1 X134.371 Y106.350 E0.4031
G1 X135.790 Y105.868 E0.4329
G1 X135.847 Y105.850 E0.4341
G1 X137.281 Y105.415 E0.4639
G1 X137.338 Y105.399 E0.4651
G1 X138.786 Y105.013 E0.4949
G1 X138.843 Y104.999 E0.4961
G1 X140.303 Y104.662 E0.5260
G1 X140.361 Y104.650 E0.5271
G1 X141.832 Y104.362 E0.5570
G1 X141.890 Y104.352 E0.5581
G1 X143.370 Y104.113 E0.5880
G1 X143.428 Y104.105 E0.5892
G1 X144.918 Y103.916 E0.6190
G1 X144.983 Y103.909 E0.6203
G1 X146.647 Y103.761 E0.6536
G1 X146.700 Y103.757 E0.6547
G1 X148.021 Y103.679 E0.6810
G1 X148.080 Y103.677 E0.6822
G1 X149.578 Y103.639 E0.7120
G1 X149.637 Y103.639 E0.7132
G1 X151.136 Y103.651 E0.7430
G1 X151.195 Y103.653 E0.7442
G1 X152.692 Y103.716 E0.7740
G1 X152.751 Y103.719 E0.7752
G1 X154.245 Y103.832 E0.8050
G1 X154.304 Y103.838 E0.8062
G1 X155.797 Y104.001 E0.8361
G1 X155.862 Y104.010 E0.8374
G1 X157.515 Y104.254 E0.8707
G1 X157.567 Y104.262 E0.8717
G1 X158.870 Y104.494 E0.8981
G1 X158.928 Y104.506 E0.8992
G1 X160.393 Y104.818 E0.9291
G1 X160.451 Y104.831 E0.9302
G1 X161.905 Y105.193 E0.9601
G1 X161.962 Y105.208 E0.9612
G1 X163.404 Y105.618 E0.9911
G1 X163.460 Y105.635 E0.9923
G1 X164.887 Y106.093 E1.0221
G1 X164.943 Y106.113 E1.0233
G1 X166.354 Y106.618 E1.0531
G1 X166.409 Y106.639 E1.0543
G1 X167.802 Y107.192 E1.0841
G1 X167.856 Y107.215 E1.0853
G1 X169.230 Y107.815 E1.1151
G1 X169.284 Y107.839 E1.1163
G1 X170.636 Y108.485 E1.1461
G1 X170.689 Y108.511 E1.1473
G1 X172.019 Y109.201 E1.1771
G1 X172.071 Y109.230 E1.1783
G1 X173.377 Y109.964 E1.2081
G1 X173.428 Y109.994 E1.2093
G1 X174.709 Y110.772 E1.2391
G1 X174.759 Y110.804 E1.2403
G1 X176.013 Y111.625 E1.2702
G1 X176.062 Y111.658 E1.2713
G1 X177.287 Y112.520 E1.3012
G1 X177.335 Y112.555 E1.3023
G1 X178.531 Y113.458 E1.3322
G1 X178.578 Y113.495 E1.3333
G1 X179.742 Y114.437 E1.3632
G1 X179.788 Y114.475 E1.3644
G1 X180.920 Y115.457 E1.3942
G1 X180.964 Y115.496 E1.3954
G1 X182.063 Y116.515 E1.4252
G1 X182.106 Y116.556 E1.4264
G1 X183.170 Y117.611 E1.4562
G1 X183.211 Y117.653 E1.4574
G1 X184.239 Y118.744 E1.4872
G1 X184.279 Y118.788 E1.4884
G1 X185.272 Y119.914 E1.5183
G1 X185.315 Y119.964 E1.5196
G1 X186.372 Y121.258 E1.5528
G1 X186.405 Y121.299 E1.5539
G1 X187.211 Y122.348 E1.5802
G1 X187.246 Y122.396 E1.5814
G1 X188.119 Y123.614 E1.6112
G1 X188.153 Y123.663 E1.6124
G1 X188.984 Y124.910 E1.6422
G1 X189.016 Y124.959 E1.6434
G1 X189.805 Y126.233 E1.6733
G1 X189.835 Y126.284 E1.6744
G1 X190.581 Y127.584 E1.7043
G1 X190.609 Y127.636 E1.7054
G1 X191.311 Y128.960 E1.7353
G1 X191.338 Y129.013 E1.7365
G1 X191.994 Y130.360 E1.7663
G1 X192.019 Y130.413 E1.7675
G1 X192.632 Y131.785 E1.7974
G1 X192.657 Y131.845 E1.7987
G1 X193.281 Y133.395 E1.8319
G1 X193.300 Y133.444 E1.8330
G1 X193.757 Y134.686 E1.8593
G1 X193.777 Y134.742 E1.8605
G1 X194.247 Y136.164 E1.8903
G1 X194.265 Y136.221 E1.8915
G1 X194.687 Y137.659 E1.9213
G1 X194.703 Y137.716 E1.9225
G1 X195.076 Y139.167 E1.9523
G1 X195.090 Y139.225 E1.9535
G1 X195.415 Y140.691 E1.9834
G1 X195.428 Y140.755 E1.9847
G1 X195.730 Y142.398 E2.0180
G1 X195.738 Y142.450 E2.0190
G1 X195.938 Y143.758 E2.0454
G1 X195.946 Y143.817 E2.0465
G1 X196.121 Y145.305 E2.0764
G1 X196.127 Y145.364 E2.0775
G1 X196.253 Y146.857 E2.1074
G1 X196.257 Y146.916 E2.1085
G1 X196.333 Y148.413 E2.1384
G1 X196.334 Y148.472 E2.1396
G1 X196.360 Y149.974 E2.1694
G1 X196.360 Y150.039 E2.1708
G1 X196.326 Y151.709 E2.2040
G1 X196.324 Y151.762 E2.2051
G1 X196.257 Y153.084 E2.2314
G1 X196.253 Y153.143 E2.2326
G1 X196.127 Y154.636 E2.2624
G1 X196.121 Y154.695 E2.2636
G1 X195.945 Y156.186 E2.2935
G1 X195.936 Y156.251 E2.2948
G1 X195.679 Y157.902 E2.3280
G1 X195.670 Y157.954 E2.3291
G1 X195.427 Y159.254 E2.3554
G1 X195.415 Y159.313 E2.3566
G1 X195.090 Y160.775 E2.3864
G1 X195.076 Y160.833 E2.3876
G1 X194.702 Y162.287 E2.4175
G1 X194.684 Y162.350 E2.4188
G1 X194.208 Y163.952 E2.4521
G1 X194.192 Y164.002 E2.4531
G1 X193.777 Y165.258 E2.4795
G1 X193.757 Y165.314 E2.4806
G1 X193.240 Y166.721 E2.5105
G1 X193.218 Y166.776 E2.5116
G1 X192.653 Y168.164 E2.5415
G1 X192.630 Y168.218 E2.5427
G1 X192.019 Y169.587 E2.5725
G1 X191.994 Y169.640 E2.5737
G1 X191.338 Y170.987 E2.6035
G1 X191.311 Y171.040 E2.6047
G1 X190.609 Y172.364 E2.6345
G1 X190.581 Y172.416 E2.6357
G1 X189.835 Y173.716 E2.6655
G1 X189.805 Y173.767 E2.6667
G1 X189.016 Y175.041 E2.6965
G1 X188.984 Y175.090 E2.6977
G1 X188.153 Y176.337 E2.7275
G1 X188.119 Y176.386 E2.7287
G1 X187.246 Y177.604 E2.7585
G1 X187.211 Y177.652 E2.7597
G1 X186.298 Y178.840 E2.7895
G1 X186.261 Y178.886 E2.7907
G1 X185.309 Y180.043 E2.8206
G1 X185.270 Y180.088 E2.8217
G1 X184.279 Y181.212 E2.8516
G1 X184.239 Y181.256 E2.8527
G1 X183.211 Y182.346 E2.8826
G1 X183.170 Y182.389 E2.8837
G1 X182.106 Y183.444 E2.9136
G1 X182.063 Y183.485 E2.9148
G1 X180.964 Y184.504 E2.9446
G1 X180.920 Y184.543 E2.9458
G1 X179.788 Y185.525 E2.9756
G1 X179.742 Y185.563 E2.9768
G1 X178.578 Y186.505 E3.0066
G1 X178.531 Y186.542 E3.0078
G1 X177.335 Y187.445 E3.0376
G1 X177.287 Y187.480 E3.0388
G1 X176.062 Y188.342 E3.0686
G1 X176.013 Y188.375 E3.0698
G1 X174.759 Y189.196 E3.0996
G1 X174.709 Y189.228 E3.1008
G1 X173.428 Y190.006 E3.1306
G1 X173.377 Y190.036 E3.1318
G1 X172.068 Y190.772 E3.1617
G1 X172.011 Y190.803 E3.1630
G1 X170.525 Y191.567 E3.1963
G1 X170.478 Y191.591 E3.1973
G1 X169.284 Y192.161 E3.2237
G1 X169.230 Y192.185 E3.2248
G1 X167.856 Y192.785 E3.2547
G1 X167.802 Y192.808 E3.2558
G1 X166.409 Y193.361 E3.2857
G1 X166.354 Y193.382 E3.2869
G1 X164.943 Y193.887 E3.3167
