; G-Code generated by Simplify3D(R) Version 4.1.2
;
;
;
;
; Aug 7, 2023 at 1:45:46 PM
; Settings Summary
;   processName,PLA C01
;   applyToModels,BaseSupportGlassesV2
;   profileName,PLA_C01_04_15_OS180_05 Tevo Tornado
;   profileVersion,2023-07-25 15:27:17
;   baseProfile,Creality CR-10(2)
;   printMaterial,PLA
;   printQuality,High
;   printExtruders,
;   extruderName,Primary Extruder
;   extruderToolheadNumber,0
;   extruderDiameter,0.4
;   extruderAutoWidth,0
;   extruderWidth,0.35
;   extrusionMultiplier,0.95
;   extruderUseRetract,1
;   extruderRetractionDistance,3.8
;   extruderExtraRestartDistance,0
;   extruderRetractionZLift,0.3
;   extruderRetractionSpeed,3000
;   extruderUseCoasting,1
;   extruderCoastingDistance,0.2
;   extruderUseWipe,0
;   extruderWipeDistance,5
;   primaryExtruder,0
;   layerHeight,0.12
;   topSolidLayers,6
;   bottomSolidLayers,6
;   perimeterOutlines,4
;   printPerimetersInsideOut,1
;   startPointOption,2
;   startPointOriginX,0
;   startPointOriginY,300
;   sequentialIslands,0
;   spiralVaseMode,0
;   firstLayerHeightPercentage,120
;   firstLayerWidthPercentage,100
;   firstLayerUnderspeed,0.25
;   useRaft,0
;   raftExtruder,0
;   raftTopLayers,3
;   raftBaseLayers,2
;   raftOffset,3
;   raftSeparationDistance,0.14
;   raftTopInfill,100
;   aboveRaftSpeedMultiplier,0.3
;   useSkirt,1
;   skirtExtruder,0
;   skirtLayers,2
;   skirtOutlines,2
;   skirtOffset,3
;   usePrimePillar,0
;   primePillarExtruder,999
;   primePillarWidth,12
;   primePillarLocation,7
;   primePillarSpeedMultiplier,1
;   useOozeShield,0
;   oozeShieldExtruder,999
;   oozeShieldOffset,2
;   oozeShieldOutlines,1
;   oozeShieldSidewallShape,1
;   oozeShieldSidewallAngle,30
;   oozeShieldSpeedMultiplier,1
;   infillExtruder,0
;   internalInfillPattern,Fast Honeycomb
;   externalInfillPattern,Rectilinear
;   infillPercentage,15
;   outlineOverlapPercentage,15
;   infillExtrusionWidthPercentage,100
;   minInfillLength,5
;   infillLayerInterval,1
;   internalInfillAngles,0
;   overlapInternalInfillAngles,0
;   externalInfillAngles,45,-45
;   generateSupport,0
;   supportExtruder,0
;   supportInfillPercentage,40
;   supportExtraInflation,0
;   supportBaseLayers,0
;   denseSupportExtruder,0
;   denseSupportLayers,0
;   denseSupportInfillPercentage,70
;   supportLayerInterval,1
;   supportHorizontalPartOffset,0.4
;   supportUpperSeparationLayers,1
;   supportLowerSeparationLayers,1
;   supportType,0
;   supportGridSpacing,4.5
;   maxOverhangAngle,45
;   supportAngles,0
;   temperatureName,Primary Extruder,Heated Bed
;   temperatureNumber,0,0
;   temperatureSetpointCount,2,2
;   temperatureSetpointLayers,1,2,1,2
;   temperatureSetpointTemperatures,185,180,10,5
;   temperatureStabilizeAtStartup,1,1
;   temperatureHeatedBed,0,1
;   fanLayers,1,2
;   fanSpeeds,0,100
;   blipFanToFullPower,0
;   adjustSpeedForCooling,1
;   minSpeedLayerTime,15
;   minCoolingSpeedSlowdown,20
;   increaseFanForCooling,1
;   minFanLayerTime,25
;   maxCoolingFanSpeed,100
;   increaseFanForBridging,1
;   bridgingFanSpeed,100
;   use5D,1
;   relativeEdistances,0
;   allowEaxisZeroing,1
;   independentExtruderAxes,0
;   includeM10123,0
;   stickySupport,1
;   applyToolheadOffsets,0
;   gcodeXoffset,0
;   gcodeYoffset,0
;   gcodeZoffset,0
;   overrideMachineDefinition,1
;   machineTypeOverride,0
;   strokeXoverride,300
;   strokeYoverride,300
;   strokeZoverride,400
;   originOffsetXoverride,0
;   originOffsetYoverride,0
;   originOffsetZoverride,0
;   homeXdirOverride,-1
;   homeYdirOverride,-1
;   homeZdirOverride,-1
;   flipXoverride,1
;   flipYoverride,-1
;   flipZoverride,1
;   toolheadOffsets,0,0|0,0|0,0|0,0|0,0|0,0
;   overrideFirmwareConfiguration,1
;   firmwareTypeOverride,RepRap (Marlin/Repetier/Sprinter)
;   GPXconfigOverride,r2
;   baudRateOverride,250000
;   overridePrinterModels,1
;   printerModelsOverride
;   startingGcode,;,; -]H.P.B[- MarshMalloW  ,; $VER: StartScript 1.03 (18.12.2022) MarshMalloW,;,; Begin Startcode,;,M117 *Preheat*	; Preheat,;extruder0_temperature,M104 S[extruder0_temperature],M109 S[extruder0_temperature],;M109 R[extruder0_temperature] ,;,M117 *Auto-leveling*     	; Auto-leveling,M107                   	; Turn layer fan off,G21                    	; Set to metric [change to G20 if you want Imperial],G90                    	; Force coordinates to be absolute relative to the origin,G28                    	; Home X/Y/Z axis,G29                    	; Auto-leveling (BL-Touch),;,M117 *Start Clean*     	; Indicate nozzle clean in progress on LCD,G92 E0                 	; Set Extruder to 0 ,G1 X0 Y0 F2000         	; Move X and Y to 0 with speed 2000 (mm/min),G1 Z0.1 F1000          	; Move Z to   0.1 with speed 1000 (mm/min),G1 X8.0 F2000          	; Move X to   8.0 with speed 2000 (mm/min),G1 Y60.0 E4.0 F1000.0  	; Move Y to  60 and Extruder with 4.0 with speed 1000 (mm/min),G1 Y100.0 E8.5 F1000.0 	; Move Y to 100 and Extruder with 8.5 with speed 1000 (mm/min),G92 E0                 	; Set extruder to 0,G1 X16.0 F3000         	; Move X to 16.0 with speed 3000 (mm/min),G1 Y60.0 F3000         	; Move Y to 60.0 with speed 3000 (mm/min),M117 *End Clean*       	; Indicate nozzle clean in progress on LCD,G1 Z5 F3000            	; Move Z to  5.0 with speed 3000 (mm/min),G1 X20.0 F3000         	; Move X to 20.0 with speed 3000 (mm/min),G1 Y20.0 F3000         	; Move Y to 20.0 with speed 3000 (mm/min),; ,M117 *Printing...*     	; Start printing msg on LCD,;,; End Startcode,;,; Begin printing with sliced GCode after here,;
;   layerChangeGcode,
;   retractionGcode,
;   toolChangeGcode,
;   endingGcode,;,; init 181010,;,;M107 			; Fan off,;G1 E-1 F300 			; Retract the filament a bit before lifting the nozzle,;M104 S0 			; Turn off extruder,;M140 S0 			; Turn off bed,;G91			; Relative positioning,;G28 X0 Y0 			; Move X/Y to min endstops so the head is out of teh way,;M84 			; Disable motors,;G90 			; Absolute positioning,;M117 Print ready...,,;,; // From Cura 181010,; // End_gcode,G92 E0			; Zero the extruded length,;G1 E-30 F300		; Retract E -30,M106 S0			; Turn off cooling fan,M104 S0			; Turn off temperature,M140 S0		     	; Turn off bed,G91			; Relative positioning,G1 E-1 F300			; Retract the filament a bit before lifting the nozzle to release some of the pressure,G1 Z+20 E-5 X-20 Y-20 F7200	; Move Z up a bit and retract filament even more,G1 X0 Y150 F10000		; Move right min,M107			; Turn off layer fan,M84			; Disable motors,G90			; Absolute positioning,M117 *The-End* 		; End msg,;,
;   exportFileFormat,gcode
;   celebration,0
;   celebrationSong,Star Wars
;   postProcessing,D:\S3D_Thumbs\S3D_Thumbs.exe f="[output_filepath]" x=600 y=110 w=953 lw=400 lh=300 sw=32 sh=32 d=Y
;   defaultSpeed,4200
;   outlineUnderspeed,0.5
;   solidInfillUnderspeed,0.8
;   supportUnderspeed,0.8
;   rapidXYspeed,6000
;   rapidZspeed,1002
;   minBridgingArea,50
;   bridgingExtraInflation,0.2
;   bridgingExtrusionMultiplier,1
;   bridgingSpeedMultiplier,0.8
;   useFixedBridgingAngle,0
;   fixedBridgingAngle,0
;   applyBridgingToPerimeters,0
;   filamentDiameters,1.75|1.75|1.75|1.75|1.75|1.75
;   filamentPricesPerKg,30|46|46|46|46|46
;   filamentDensities,1.25|1.25|1.25|1.25|1.25|1.25
;   useMinPrintHeight,0
;   minPrintHeight,0
;   useMaxPrintHeight,0
;   maxPrintHeight,50
;   useDiaphragm,0
;   diaphragmLayerInterval,20
;   robustSlicing,1
;   mergeAllIntoSolid,0
;   onlyRetractWhenCrossingOutline,1
;   retractBetweenLayers,1
;   useRetractionMinTravel,0
;   retractionMinTravel,3
;   retractWhileWiping,1
;   onlyWipeOutlines,1
;   avoidCrossingOutline,0
;   maxMovementDetourFactor,3
;   toolChangeRetractionDistance,12
;   toolChangeExtraRestartDistance,-0.5
;   toolChangeRetractionSpeed,600
;   externalThinWallType,1
;   internalThinWallType,1
;   thinWallAllowedOverlapPercentage,10
;   singleExtrusionMinLength,1
;   singleExtrusionMinPrintingWidthPercentage,50
;   singleExtrusionMaxPrintingWidthPercentage,200
;   singleExtrusionEndpointExtension,0.2
;   horizontalSizeCompensation,0
G90
M82
M106 S0
M140 S10
;
; -]H.P.B[- MarshMalloW  
; $VER: StartScript 1.03 (18.12.2022) MarshMalloW
;
; Begin Startcode
;
M117 *Preheat*	; Preheat
;extruder0_temperature
M104 S185
M109 S185
;M109 R185 
;
M117 *Auto-leveling*     	; Auto-leveling
M107                   	; Turn layer fan off
G21                    	; Set to metric [change to G20 if you want Imperial]
G90                    	; Force coordinates to be absolute relative to the origin
G28                    	; Home X/Y/Z axis
G29                    	; Auto-leveling (BL-Touch)
;
M117 *Start Clean*     	; Indicate nozzle clean in progress on LCD
G92 E0                 	; Set Extruder to 0 
G1 X0 Y0 F2000         	; Move X and Y to 0 with speed 2000 (mm/min)
G1 Z0.1 F1000          	; Move Z to   0.1 with speed 1000 (mm/min)
G1 X8.0 F2000          	; Move X to   8.0 with speed 2000 (mm/min)
G1 Y60.0 E4.0 F1000.0  	; Move Y to  60 and Extruder with 4.0 with speed 1000 (mm/min)
G1 Y100.0 E8.5 F1000.0 	; Move Y to 100 and Extruder with 8.5 with speed 1000 (mm/min)
G92 E0                 	; Set extruder to 0
G1 X16.0 F3000         	; Move X to 16.0 with speed 3000 (mm/min)
G1 Y60.0 F3000         	; Move Y to 60.0 with speed 3000 (mm/min)
M117 *End Clean*       	; Indicate nozzle clean in progress on LCD
G1 Z5 F3000            	; Move Z to  5.0 with speed 3000 (mm/min)
G1 X20.0 F3000         	; Move X to 20.0 with speed 3000 (mm/min)
G1 Y20.0 F3000         	; Move Y to 20.0 with speed 3000 (mm/min)
; 
M117 *Printing...*     	; Start printing msg on LCD
;
; End Startcode
;
; Begin printing with sliced GCode after here
;
; process PLA C01
; layer 1, Z = 0.144
T0
G92 E0.0000
G1 E-3.8000 F3000
; feature skirt
; tool H0.144 W0.350
G1 Z0.300 F1002
G1 X116.392 Y126.056 F6000
G1 Z0.144 F1002
G1 E0.0000 F3000
G92 E0.0000
G1 X116.957 Y125.550 E0.0151 F1050
G1 X117.088 Y125.445 E0.0184
G1 X117.558 Y125.099 E0.0301
G1 X117.721 Y124.992 E0.0339
G1 X118.567 Y124.503 E0.0534
G1 X118.836 Y124.376 E0.0593
G1 X119.891 Y123.985 E0.0817
G1 X120.144 Y123.912 E0.0870
G1 X121.130 Y123.706 E0.1070
G1 X121.360 Y123.674 E0.1116
G1 X122.156 Y123.615 E0.1275
G1 X122.286 Y123.610 E0.1301
G1 X178.090 Y123.623 E1.2410
G1 X178.334 Y123.640 E1.2458
G1 X179.251 Y123.769 E1.2642
G1 X179.462 Y123.812 E1.2685
G1 X180.060 Y123.971 E1.2809
G1 X180.223 Y124.024 E1.2843
G1 X181.147 Y124.370 E1.3039
G1 X181.365 Y124.469 E1.3087
G1 X181.898 Y124.757 E1.3207
G1 X182.030 Y124.836 E1.3238
G1 X182.627 Y125.228 E1.3380
G1 X182.808 Y125.365 E1.3425
G1 X183.562 Y126.013 E1.3623
G1 X183.726 Y126.174 E1.3669
G1 X184.237 Y126.746 E1.3822
G1 X184.348 Y126.883 E1.3857
G1 X184.713 Y127.383 E1.3980
G1 X184.806 Y127.525 E1.4014
G1 X185.180 Y128.158 E1.4160
G1 X185.272 Y128.337 E1.4200
G1 X185.542 Y128.942 E1.4332
G1 X185.611 Y129.122 E1.4371
G1 X185.903 Y130.033 E1.4561
G1 X185.960 Y130.260 E1.4608
G1 X186.090 Y130.985 E1.4754
G1 X186.112 Y131.160 E1.4789
G1 X186.168 Y131.887 E1.4934
G1 X186.174 Y132.024 E1.4962
G1 X186.155 Y168.412 E2.2205
G1 X186.135 Y168.674 E2.2257
G1 X186.012 Y169.486 E2.2421
G1 X185.976 Y169.664 E2.2457
G1 X185.844 Y170.174 E2.2562
G1 X185.802 Y170.313 E2.2591
G1 X185.521 Y171.119 E2.2761
G1 X185.420 Y171.353 E2.2812
G1 X184.996 Y172.168 E2.2994
G1 X184.878 Y172.362 E2.3040
G1 X184.381 Y173.074 E2.3212
G1 X184.250 Y173.241 E2.3255
G1 X183.737 Y173.814 E2.3408
G1 X183.599 Y173.952 E2.3447
G1 X183.039 Y174.452 E2.3596
G1 X182.902 Y174.563 E2.3631
G1 X182.402 Y174.928 E2.3755
G1 X182.260 Y175.021 E2.3788
G1 X181.627 Y175.395 E2.3935
G1 X181.449 Y175.487 E2.3975
G1 X180.843 Y175.757 E2.4107
G1 X180.663 Y175.826 E2.4145
G1 X179.740 Y176.122 E2.4338
G1 X179.488 Y176.183 E2.4390
G1 X178.536 Y176.339 E2.4582
G1 X178.335 Y176.361 E2.4622
G1 X177.779 Y176.388 E2.4733
G1 X177.693 Y176.390 E2.4750
G1 X122.285 Y176.390 E3.5779
G1 X122.156 Y176.385 E3.5805
G1 X121.398 Y176.329 E3.5956
G1 X121.243 Y176.311 E3.5987
G1 X120.689 Y176.220 E3.6099
G1 X120.518 Y176.183 E3.6134
G1 X119.940 Y176.029 E3.6253
G1 X119.777 Y175.976 E3.6287
G1 X118.853 Y175.630 E3.6484
G1 X118.635 Y175.531 E3.6531
G1 X118.102 Y175.243 E3.6652
G1 X117.970 Y175.164 E3.6682
G1 X117.383 Y174.779 E3.6822
G1 X117.220 Y174.658 E3.6863
G1 X116.601 Y174.140 E3.7023
G1 X116.452 Y173.999 E3.7064
G1 X115.929 Y173.447 E3.7216
G1 X115.813 Y173.311 E3.7251
G1 X115.359 Y172.720 E3.7399
G1 X115.250 Y172.562 E3.7438
G1 X114.912 Y172.007 E3.7567
G1 X114.835 Y171.868 E3.7599
G1 X114.555 Y171.297 E3.7725
G1 X114.472 Y171.100 E3.7768
G1 X114.198 Y170.313 E3.7934
G1 X114.156 Y170.174 E3.7963
G1 X114.022 Y169.655 E3.8069
G1 X113.983 Y169.458 E3.8109
G1 X113.860 Y168.585 E3.8285
G1 X113.845 Y168.413 E3.8319
G1 X113.827 Y167.973 E3.8407
G1 X113.825 Y167.901 E3.8421
G1 X113.826 Y132.045 E4.5559
G1 X113.829 Y131.954 E4.5577
G1 X113.854 Y131.454 E4.5677
G1 X113.872 Y131.282 E4.5711
G1 X113.991 Y130.489 E4.5870
G1 X114.041 Y130.262 E4.5917
G1 X114.280 Y129.436 E4.6088
G1 X114.345 Y129.252 E4.6127
G1 X114.705 Y128.380 E4.6315
G1 X114.841 Y128.116 E4.6374
G1 X115.439 Y127.164 E4.6597
G1 X115.601 Y126.945 E4.6652
G1 X116.236 Y126.214 E4.6844
G1 X116.392 Y126.056 E4.6889
G92 E0.0000
G1 E-3.8000 F3000
G1 Z0.444 F1002
G1 X116.633 Y126.310 F6000
G1 Z0.144 F1002
G1 E0.0000 F3000
G92 E0.0000
G1 X117.185 Y125.817 E0.0147 F1050
G1 X117.302 Y125.722 E0.0177
G1 X117.757 Y125.386 E0.0290
G1 X117.904 Y125.290 E0.0325
G1 X118.729 Y124.813 E0.0514
G1 X118.972 Y124.699 E0.0568
G1 X120.001 Y124.317 E0.0786
G1 X120.229 Y124.252 E0.0834
G1 X121.190 Y124.051 E0.1029
G1 X121.398 Y124.022 E0.1071
G1 X122.175 Y123.964 E0.1226
G1 X122.292 Y123.960 E0.1249
G1 X178.078 Y123.973 E1.2354
G1 X178.298 Y123.989 E1.2398
G1 X179.191 Y124.114 E1.2578
G1 X179.382 Y124.152 E1.2616
G1 X179.961 Y124.307 E1.2736
G1 X180.108 Y124.354 E1.2766
G1 X181.013 Y124.694 E1.2959
G1 X181.209 Y124.783 E1.3002
G1 X181.725 Y125.061 E1.3118
G1 X181.844 Y125.132 E1.3146
G1 X182.425 Y125.514 E1.3284
G1 X182.589 Y125.637 E1.3325
G1 X183.325 Y126.270 E1.3518
G1 X183.473 Y126.416 E1.3560
G1 X183.971 Y126.972 E1.3708
G1 X184.071 Y127.096 E1.3740
G1 X184.425 Y127.583 E1.3860
G1 X184.509 Y127.710 E1.3890
G1 X184.874 Y128.327 E1.4033
G1 X184.957 Y128.488 E1.4069
G1 X185.219 Y129.076 E1.4197
G1 X185.281 Y129.238 E1.4232
G1 X185.566 Y130.128 E1.4418
G1 X185.617 Y130.333 E1.4460
G1 X185.744 Y131.039 E1.4602
G1 X185.764 Y131.196 E1.4634
G1 X185.819 Y131.907 E1.4776
G1 X185.824 Y132.031 E1.4801
G1 X185.805 Y168.398 E2.2040
G1 X185.787 Y168.635 E2.2087
G1 X185.668 Y169.425 E2.2246
G1 X185.635 Y169.585 E2.2279
G1 X185.507 Y170.079 E2.2380
G1 X185.469 Y170.205 E2.2406
G1 X185.195 Y170.992 E2.2572
G1 X185.104 Y171.203 E2.2618
G1 X184.691 Y171.996 E2.2796
G1 X184.584 Y172.171 E2.2837
G1 X184.100 Y172.865 E2.3005
G1 X183.982 Y173.015 E2.3044
G1 X183.483 Y173.573 E2.3192
G1 X183.358 Y173.698 E2.3228
G1 X182.813 Y174.186 E2.3373
G1 X182.689 Y174.286 E2.3405
G1 X182.202 Y174.640 E2.3525
G1 X182.075 Y174.724 E2.3555
G1 X181.458 Y175.089 E2.3698
G1 X181.297 Y175.172 E2.3734
G1 X180.709 Y175.434 E2.3862
G1 X180.547 Y175.496 E2.3897
G1 X179.646 Y175.785 E2.4085
G1 X179.418 Y175.840 E2.4131
G1 X178.489 Y175.992 E2.4319
G1 X178.308 Y176.011 E2.4355
G1 X177.766 Y176.038 E2.4463
G1 X177.688 Y176.040 E2.4479
G1 X122.292 Y176.040 E3.5506
G1 X122.175 Y176.036 E3.5529
G1 X121.432 Y175.981 E3.5678
G1 X121.292 Y175.964 E3.5706
G1 X120.754 Y175.876 E3.5814
G1 X120.600 Y175.843 E3.5846
G1 X120.039 Y175.693 E3.5961
G1 X119.892 Y175.646 E3.5992
G1 X118.987 Y175.306 E3.6184
G1 X118.791 Y175.217 E3.6227
G1 X118.274 Y174.939 E3.6344
G1 X118.156 Y174.868 E3.6371
G1 X117.584 Y174.492 E3.6508
G1 X117.437 Y174.383 E3.6544
G1 X116.834 Y173.878 E3.6701
G1 X116.699 Y173.751 E3.6737
G1 X116.190 Y173.213 E3.6885
G1 X116.085 Y173.090 E3.6917
G1 X115.642 Y172.514 E3.7062
G1 X115.544 Y172.372 E3.7096
G1 X115.215 Y171.832 E3.7222
G1 X115.146 Y171.706 E3.7251
G1 X114.874 Y171.152 E3.7373
G1 X114.799 Y170.974 E3.7412
G1 X114.531 Y170.205 E3.7574
G1 X114.493 Y170.079 E3.7600
G1 X114.363 Y169.577 E3.7703
