; G-Code generated by Simplify3D(R) Version 4.1.2
;
;
;
;
; Aug 7, 2023 at 10:01:29 AM
; Settings Summary
;   processName,PLA C01
;   applyToModels,BaseSupportGlassesV2
;   profileName,PLA_C01_04_05_OS180_05 Tevo Tornado
;   profileVersion,2023-07-28 11:43:39
;   baseProfile,Creality CR-10(2)
;   printMaterial,PLA
;   printQuality,High
;   printExtruders,
;   extruderName,Primary Extruder
;   extruderToolheadNumber,0
;   extruderDiameter,0.4
;   extruderAutoWidth,0
;   extruderWidth,0.35
;   extrusionMultiplier,0.95
;   extruderUseRetract,1
;   extruderRetractionDistance,3.8
;   extruderExtraRestartDistance,0
;   extruderRetractionZLift,0.3
;   extruderRetractionSpeed,3000
;   extruderUseCoasting,1
;   extruderCoastingDistance,0.2
;   extruderUseWipe,0
;   extruderWipeDistance,5
;   primaryExtruder,0
;   layerHeight,0.12
;   topSolidLayers,6
;   bottomSolidLayers,6
;   perimeterOutlines,4
;   printPerimetersInsideOut,1
;   startPointOption,2
;   startPointOriginX,0
;   startPointOriginY,300
;   sequentialIslands,0
;   spiralVaseMode,0
;   firstLayerHeightPercentage,120
;   firstLayerWidthPercentage,100
;   firstLayerUnderspeed,0.25
;   useRaft,0
;   raftExtruder,0
;   raftTopLayers,3
;   raftBaseLayers,2
;   raftOffset,3
;   raftSeparationDistance,0.14
;   raftTopInfill,100
;   aboveRaftSpeedMultiplier,0.3
;   useSkirt,1
;   skirtExtruder,0
;   skirtLayers,2
;   skirtOutlines,2
;   skirtOffset,3
;   usePrimePillar,0
;   primePillarExtruder,999
;   primePillarWidth,12
;   primePillarLocation,7
;   primePillarSpeedMultiplier,1
;   useOozeShield,0
;   oozeShieldExtruder,999
;   oozeShieldOffset,2
;   oozeShieldOutlines,1
;   oozeShieldSidewallShape,1
;   oozeShieldSidewallAngle,30
;   oozeShieldSpeedMultiplier,1
;   infillExtruder,0
;   internalInfillPattern,Fast Honeycomb
;   externalInfillPattern,Rectilinear
;   infillPercentage,5
;   outlineOverlapPercentage,15
;   infillExtrusionWidthPercentage,100
;   minInfillLength,5
;   infillLayerInterval,1
;   internalInfillAngles,0
;   overlapInternalInfillAngles,0
;   externalInfillAngles,45,-45
;   generateSupport,0
;   supportExtruder,0
;   supportInfillPercentage,40
;   supportExtraInflation,0
;   supportBaseLayers,0
;   denseSupportExtruder,0
;   denseSupportLayers,0
;   denseSupportInfillPercentage,70
;   supportLayerInterval,1
;   supportHorizontalPartOffset,0.4
;   supportUpperSeparationLayers,1
;   supportLowerSeparationLayers,1
;   supportType,0
;   supportGridSpacing,4.5
;   maxOverhangAngle,45
;   supportAngles,0
;   temperatureName,Primary Extruder,Heated Bed
;   temperatureNumber,0,0
;   temperatureSetpointCount,2,2
;   temperatureSetpointLayers,1,2,1,2
;   temperatureSetpointTemperatures,185,180,10,5
;   temperatureStabilizeAtStartup,1,1
;   temperatureHeatedBed,0,1
;   fanLayers,1,2
;   fanSpeeds,0,100
;   blipFanToFullPower,0
;   adjustSpeedForCooling,1
;   minSpeedLayerTime,15
;   minCoolingSpeedSlowdown,20
;   increaseFanForCooling,1
;   minFanLayerTime,25
;   maxCoolingFanSpeed,100
;   increaseFanForBridging,1
;   bridgingFanSpeed,100
;   use5D,1
;   relativeEdistances,0
;   allowEaxisZeroing,1
;   independentExtruderAxes,0
;   includeM10123,0
;   stickySupport,1
;   applyToolheadOffsets,0
;   gcodeXoffset,0
;   gcodeYoffset,0
;   gcodeZoffset,0
;   overrideMachineDefinition,1
;   machineTypeOverride,0
;   strokeXoverride,300
;   strokeYoverride,300
;   strokeZoverride,400
;   originOffsetXoverride,0
;   originOffsetYoverride,0
;   originOffsetZoverride,0
;   homeXdirOverride,-1
;   homeYdirOverride,-1
;   homeZdirOverride,-1
;   flipXoverride,1
;   flipYoverride,-1
;   flipZoverride,1
;   toolheadOffsets,0,0|0,0|0,0|0,0|0,0|0,0
;   overrideFirmwareConfiguration,1
;   firmwareTypeOverride,RepRap (Marlin/Repetier/Sprinter)
;   GPXconfigOverride,r2
;   baudRateOverride,250000
;   overridePrinterModels,1
;   printerModelsOverride
;   startingGcode,;,; -]H.P.B[- MarshMalloW  ,; $VER: StartScript 1.03 (18.12.2022) MarshMalloW,;,; Begin Startcode,;,M117 *Preheat*	; Preheat,;extruder0_temperature,M104 S[extruder0_temperature],M109 S[extruder0_temperature],;M109 R[extruder0_temperature] ,;,M117 *Auto-leveling*     	; Auto-leveling,M107                   	; Turn layer fan off,G21                    	; Set to metric [change to G20 if you want Imperial],G90                    	; Force coordinates to be absolute relative to the origin,G28                    	; Home X/Y/Z axis,G29                    	; Auto-leveling (BL-Touch),;,M117 *Start Clean*     	; Indicate nozzle clean in progress on LCD,G92 E0                 	; Set Extruder to 0 ,G1 X0 Y0 F2000         	; Move X and Y to 0 with speed 2000 (mm/min),G1 Z0.1 F1000          	; Move Z to   0.1 with speed 1000 (mm/min),G1 X8.0 F2000          	; Move X to   8.0 with speed 2000 (mm/min),G1 Y60.0 E4.0 F1000.0  	; Move Y to  60 and Extruder with 4.0 with speed 1000 (mm/min),G1 Y100.0 E8.5 F1000.0 	; Move Y to 100 and Extruder with 8.5 with speed 1000 (mm/min),G92 E0                 	; Set extruder to 0,G1 X16.0 F3000         	; Move X to 16.0 with speed 3000 (mm/min),G1 Y60.0 F3000         	; Move Y to 60.0 with speed 3000 (mm/min),M117 *End Clean*       	; Indicate nozzle clean in progress on LCD,G1 Z5 F3000            	; Move Z to  5.0 with speed 3000 (mm/min),G1 X20.0 F3000         	; Move X to 20.0 with speed 3000 (mm/min),G1 Y20.0 F3000         	; Move Y to 20.0 with speed 3000 (mm/min),; ,M117 *Printing...*     	; Start printing msg on LCD,;,; End Startcode,;,; Begin printing with sliced GCode after here,;
;   layerChangeGcode,
;   retractionGcode,
;   toolChangeGcode,
;   endingGcode,;,; init 181010,;,;M107 			; Fan off,;G1 E-1 F300 			; Retract the filament a bit before lifting the nozzle,;M104 S0 			; Turn off extruder,;M140 S0 			; Turn off bed,;G91			; Relative positioning,;G28 X0 Y0 			; Move X/Y to min endstops so the head is out of teh way,;M84 			; Disable motors,;G90 			; Absolute positioning,;M117 Print ready...,,;,; // From Cura 181010,; // End_gcode,G92 E0			; Zero the extruded length,;G1 E-30 F300		; Retract E -30,M106 S0			; Turn off cooling fan,M104 S0			; Turn off temperature,M140 S0		     	; Turn off bed,G91			; Relative positioning,G1 E-1 F300			; Retract the filament a bit before lifting the nozzle to release some of the pressure,G1 Z+20 E-5 X-20 Y-20 F7200	; Move Z up a bit and retract filament even more,G1 X0 Y150 F10000		; Move right min,M107			; Turn off layer fan,M84			; Disable motors,G90			; Absolute positioning,M117 *The-End* 		; End msg,;,
;   exportFileFormat,gcode
;   celebration,0
;   celebrationSong,Star Wars
;   postProcessing,D:\S3D_Thumbs\S3D_Thumbs.exe f="[output_filepath]" x=600 y=110 w=953 lw=400 lh=300 sw=32 sh=32 d=Y
;   defaultSpeed,4200
;   outlineUnderspeed,0.5
;   solidInfillUnderspeed,0.8
;   supportUnderspeed,0.8
;   rapidXYspeed,6000
;   rapidZspeed,1002
;   minBridgingArea,50
;   bridgingExtraInflation,0.2
;   bridgingExtrusionMultiplier,1
;   bridgingSpeedMultiplier,0.8
;   useFixedBridgingAngle,0
;   fixedBridgingAngle,0
;   applyBridgingToPerimeters,0
;   filamentDiameters,1.75|1.75|1.75|1.75|1.75|1.75
;   filamentPricesPerKg,30|46|46|46|46|46
;   filamentDensities,1.25|1.25|1.25|1.25|1.25|1.25
;   useMinPrintHeight,0
;   minPrintHeight,0
;   useMaxPrintHeight,0
;   maxPrintHeight,50
;   useDiaphragm,0
;   diaphragmLayerInterval,20
;   robustSlicing,1
;   mergeAllIntoSolid,0
;   onlyRetractWhenCrossingOutline,1
;   retractBetweenLayers,1
;   useRetractionMinTravel,0
;   retractionMinTravel,3
;   retractWhileWiping,1
;   onlyWipeOutlines,1
;   avoidCrossingOutline,0
;   maxMovementDetourFactor,3
;   toolChangeRetractionDistance,12
;   toolChangeExtraRestartDistance,-0.5
;   toolChangeRetractionSpeed,600
;   externalThinWallType,1
;   internalThinWallType,1
;   thinWallAllowedOverlapPercentage,10
;   singleExtrusionMinLength,1
;   singleExtrusionMinPrintingWidthPercentage,50
;   singleExtrusionMaxPrintingWidthPercentage,200
;   singleExtrusionEndpointExtension,0.2
;   horizontalSizeCompensation,0
G90
M82
M106 S0
M140 S10
;
; -]H.P.B[- MarshMalloW  
; $VER: StartScript 1.03 (18.12.2022) MarshMalloW
;
; Begin Startcode
;
M117 *Preheat*	; Preheat
;extruder0_temperature
M104 S185
M109 S185
;M109 R185 
;
M117 *Auto-leveling*     	; Auto-leveling
M107                   	; Turn layer fan off
G21                    	; Set to metric [change to G20 if you want Imperial]
G90                    	; Force coordinates to be absolute relative to the origin
G28                    	; Home X/Y/Z axis
G29                    	; Auto-leveling (BL-Touch)
;
M117 *Start Clean*     	; Indicate nozzle clean in progress on LCD
G92 E0                 	; Set Extruder to 0 
G1 X0 Y0 F2000         	; Move X and Y to 0 with speed 2000 (mm/min)
G1 Z0.1 F1000          	; Move Z to   0.1 with speed 1000 (mm/min)
G1 X8.0 F2000          	; Move X to   8.0 with speed 2000 (mm/min)
G1 Y60.0 E4.0 F1000.0  	; Move Y to  60 and Extruder with 4.0 with speed 1000 (mm/min)
G1 Y100.0 E8.5 F1000.0 	; Move Y to 100 and Extruder with 8.5 with speed 1000 (mm/min)
G92 E0                 	; Set extruder to 0
G1 X16.0 F3000         	; Move X to 16.0 with speed 3000 (mm/min)
G1 Y60.0 F3000         	; Move Y to 60.0 with speed 3000 (mm/min)
M117 *End Clean*       	; Indicate nozzle clean in progress on LCD
G1 Z5 F3000            	; Move Z to  5.0 with speed 3000 (mm/min)
G1 X20.0 F3000         	; Move X to 20.0 with speed 3000 (mm/min)
G1 Y20.0 F3000         	; Move Y to 20.0 with speed 3000 (mm/min)
; 
M117 *Printing...*     	; Start printing msg on LCD
;
; End Startcode
;
; Begin printing with sliced GCode after here
;
; process PLA C01
; layer 1, Z = 0.144
T0
G92 E0.0000
G1 E-3.8000 F3000
; feature skirt
; tool H0.144 W0.350
G1 Z0.300 F1002
G1 X117.392 Y126.056 F6000
G1 Z0.144 F1002
G1 E0.0000 F3000
G92 E0.0000
G1 X117.979 Y125.531 E0.0157 F1050
G1 X118.155 Y125.393 E0.0201
G1 X118.954 Y124.844 E0.0394
G1 X119.182 Y124.711 E0.0447
G1 X120.088 Y124.270 E0.0647
G1 X120.344 Y124.170 E0.0702
G1 X121.429 Y123.839 E0.0928
G1 X121.658 Y123.785 E0.0975
G1 X122.243 Y123.689 E0.1093
G1 X122.398 Y123.671 E0.1124
G1 X123.156 Y123.615 E0.1275
G1 X123.286 Y123.610 E0.1301
G1 X177.196 Y123.630 E1.2033
G1 X177.459 Y123.650 E1.2085
G1 X178.317 Y123.779 E1.2258
G1 X178.585 Y123.842 E1.2313
G1 X179.836 Y124.237 E1.2574
G1 X180.127 Y124.358 E1.2636
G1 X180.990 Y124.813 E1.2831
G1 X181.157 Y124.913 E1.2869
G1 X181.695 Y125.277 E1.2999
G1 X181.863 Y125.406 E1.3041
G1 X182.571 Y126.021 E1.3227
G1 X182.729 Y126.177 E1.3272
G1 X183.237 Y126.746 E1.3424
G1 X183.348 Y126.883 E1.3459
G1 X183.713 Y127.383 E1.3582
G1 X183.806 Y127.525 E1.3616
G1 X184.180 Y128.158 E1.3762
G1 X184.272 Y128.337 E1.3802
G1 X184.542 Y128.942 E1.3934
G1 X184.611 Y129.122 E1.3972
G1 X184.907 Y130.045 E1.4165
G1 X184.968 Y130.297 E1.4217
G1 X185.131 Y131.291 E1.4417
G1 X185.155 Y131.577 E1.4474
G1 X185.174 Y167.953 E2.1716
G1 X185.171 Y168.045 E2.1734
G1 X185.145 Y168.546 E2.1834
G1 X185.128 Y168.718 E2.1868
G1 X185.009 Y169.511 E2.2028
G1 X184.959 Y169.738 E2.2074
G1 X184.720 Y170.564 E2.2245
G1 X184.655 Y170.748 E2.2284
G1 X184.295 Y171.620 E2.2472
G1 X184.159 Y171.884 E2.2531
G1 X183.561 Y172.836 E2.2755
G1 X183.399 Y173.055 E2.2809
G1 X182.764 Y173.786 E2.3002
G1 X182.608 Y173.944 E2.3046
G1 X182.039 Y174.452 E2.3198
G1 X181.902 Y174.563 E2.3233
G1 X181.402 Y174.928 E2.3356
G1 X181.260 Y175.021 E2.3390
G1 X180.627 Y175.395 E2.3536
G1 X180.449 Y175.487 E2.3576
G1 X179.843 Y175.757 E2.3708
G1 X179.663 Y175.826 E2.3747
G1 X178.740 Y176.122 E2.3940
G1 X178.488 Y176.183 E2.3991
G1 X177.536 Y176.339 E2.4183
G1 X177.335 Y176.361 E2.4223
G1 X176.779 Y176.388 E2.4334
G1 X176.693 Y176.390 E2.4351
G1 X123.307 Y176.390 E3.4978
G1 X123.222 Y176.388 E3.4996
G1 X122.676 Y176.361 E3.5104
G1 X122.499 Y176.344 E3.5140
G1 X121.704 Y176.224 E3.5300
G1 X121.477 Y176.174 E3.5346
G1 X120.651 Y175.935 E3.5517
G1 X120.467 Y175.870 E3.5556
G1 X119.595 Y175.510 E3.5744
G1 X119.331 Y175.374 E3.5803
G1 X118.379 Y174.776 E3.6027
G1 X118.160 Y174.614 E3.6081
G1 X117.429 Y173.979 E3.6274
G1 X117.271 Y173.823 E3.6318
G1 X116.763 Y173.254 E3.6470
G1 X116.652 Y173.117 E3.6505
G1 X116.289 Y172.619 E3.6628
G1 X116.198 Y172.482 E3.6660
G1 X115.845 Y171.889 E3.6798
G1 X115.754 Y171.714 E3.6837
G1 X115.467 Y171.079 E3.6976
G1 X115.398 Y170.905 E3.7013
G1 X115.152 Y170.158 E3.7169
G1 X115.105 Y169.991 E3.7204
G1 X114.973 Y169.403 E3.7324
G1 X114.939 Y169.190 E3.7367
G1 X114.834 Y168.125 E3.7580
G1 X114.825 Y167.952 E3.7614
G1 X114.826 Y132.045 E4.4762
G1 X114.829 Y131.954 E4.4780
G1 X114.854 Y131.454 E4.4880
G1 X114.872 Y131.282 E4.4914
G1 X114.991 Y130.489 E4.5074
G1 X115.041 Y130.262 E4.5120
G1 X115.280 Y129.436 E4.5291
G1 X115.345 Y129.252 E4.5330
G1 X115.705 Y128.380 E4.5518
G1 X115.841 Y128.116 E4.5577
G1 X116.439 Y127.164 E4.5801
G1 X116.601 Y126.945 E4.5855
G1 X117.236 Y126.214 E4.6048
G1 X117.392 Y126.056 E4.6092
G92 E0.0000
G1 E-3.8000 F3000
G1 Z0.444 F1002
G1 X117.633 Y126.310 F6000
G1 Z0.144 F1002
G1 E0.0000 F3000
G92 E0.0000
G1 X118.204 Y125.800 E0.0152 F1050
G1 X118.363 Y125.675 E0.0193
G1 X119.141 Y125.140 E0.0381
G1 X119.347 Y125.020 E0.0428
G1 X120.229 Y124.591 E0.0623
G1 X120.459 Y124.501 E0.0672
G1 X121.520 Y124.177 E0.0893
G1 X121.727 Y124.129 E0.0935
G1 X122.292 Y124.036 E0.1050
G1 X122.432 Y124.019 E0.1078
G1 X123.175 Y123.964 E0.1226
G1 X123.293 Y123.960 E0.1249
G1 X177.183 Y123.980 E1.1977
G1 X177.419 Y123.998 E1.2024
G1 X178.251 Y124.124 E1.2191
G1 X178.493 Y124.180 E1.2241
G1 X179.715 Y124.566 E1.2496
G1 X179.977 Y124.675 E1.2553
G1 X180.819 Y125.118 E1.2742
G1 X180.969 Y125.208 E1.2777
G1 X181.490 Y125.561 E1.2902
G1 X181.641 Y125.677 E1.2940
G1 X182.333 Y126.278 E1.3122
G1 X182.475 Y126.418 E1.3162
G1 X182.971 Y126.972 E1.3310
G1 X183.071 Y127.096 E1.3342
G1 X183.425 Y127.583 E1.3462
G1 X183.509 Y127.710 E1.3492
G1 X183.874 Y128.327 E1.3635
G1 X183.957 Y128.488 E1.3671
G1 X184.219 Y129.076 E1.3799
G1 X184.281 Y129.238 E1.3833
G1 X184.570 Y130.139 E1.4022
G1 X184.625 Y130.367 E1.4068
G1 X184.784 Y131.334 E1.4263
G1 X184.805 Y131.591 E1.4315
G1 X184.824 Y167.949 E2.1552
G1 X184.822 Y168.032 E2.1569
G1 X184.796 Y168.520 E2.1666
G1 X184.781 Y168.675 E2.1697
G1 X184.664 Y169.447 E2.1853
G1 X184.619 Y169.652 E2.1894
G1 X184.386 Y170.458 E2.2061
G1 X184.328 Y170.623 E2.2096
G1 X183.977 Y171.472 E2.2279
G1 X183.854 Y171.710 E2.2332
G1 X183.272 Y172.638 E2.2550
G1 X183.126 Y172.835 E2.2599
G1 X182.507 Y173.548 E2.2787
G1 X182.367 Y173.690 E2.2827
G1 X181.813 Y174.186 E2.2975
G1 X181.689 Y174.286 E2.3007
G1 X181.202 Y174.640 E2.3126
G1 X181.075 Y174.724 E2.3157
G1 X180.458 Y175.089 E2.3299
G1 X180.297 Y175.172 E2.3336
G1 X179.709 Y175.434 E2.3464
G1 X179.547 Y175.496 E2.3498
G1 X178.646 Y175.785 E2.3687
G1 X178.418 Y175.840 E2.3733
G1 X177.489 Y175.992 E2.3921
G1 X177.308 Y176.011 E2.3957
G1 X176.766 Y176.038 E2.4065
G1 X176.688 Y176.040 E2.4080
G1 X123.312 Y176.040 E3.4706
G1 X123.234 Y176.038 E3.4721
G1 X122.702 Y176.012 E3.4827
G1 X122.543 Y175.996 E3.4859
G1 X121.768 Y175.879 E3.5015
G1 X121.563 Y175.834 E3.5057
G1 X120.757 Y175.601 E3.5224
G1 X120.592 Y175.543 E3.5259
G1 X119.743 Y175.192 E3.5441
G1 X119.505 Y175.069 E3.5495
G1 X118.577 Y174.487 E3.5713
G1 X118.380 Y174.341 E3.5762
G1 X117.667 Y173.722 E3.5950
G1 X117.525 Y173.582 E3.5989
G1 X117.029 Y173.028 E3.6137
G1 X116.929 Y172.904 E3.6169
G1 X116.576 Y172.419 E3.6288
G1 X116.495 Y172.296 E3.6318
G1 X116.151 Y171.718 E3.6452
G1 X116.069 Y171.561 E3.6487
G1 X115.789 Y170.943 E3.6622
G1 X115.728 Y170.786 E3.6655
G1 X115.487 Y170.056 E3.6808
G1 X115.445 Y169.906 E3.6839
G1 X115.317 Y169.337 E3.6956
G1 X115.286 Y169.145 E3.6994
G1 X115.183 Y168.099 E3.7203
G1 X115.175 Y167.943 E3.7235
G1 X115.176 Y132.050 E4.4380
G1 X115.178 Y131.968 E4.4396
G1 X115.204 Y131.480 E4.4493
G1 X115.219 Y131.325 E4.4524
G1 X115.336 Y130.553 E4.4680
G1 X115.381 Y130.348 E4.4721
G1 X115.614 Y129.542 E4.4888
G1 X115.672 Y129.377 E4.4923
G1 X116.023 Y128.528 E4.5106
G1 X116.146 Y128.290 E4.5159
G1 X116.728 Y127.362 E4.5378
