; G-Code generated by Simplify3D(R) Version 4.1.2
;
;
;
;
; Aug 6, 2023 at 12:30:39 PM
; Settings Summary
;   processName,PLA C01
;   applyToModels,BaseSupportGlasses
;   profileName,PLA_C01_04_10_OS180_05 Tevo Tornado
;   profileVersion,2023-07-25 15:27:17
;   baseProfile,Creality CR-10(2)
;   printMaterial,PLA
;   printQuality,High
;   printExtruders,
;   extruderName,Primary Extruder
;   extruderToolheadNumber,0
;   extruderDiameter,0.4
;   extruderAutoWidth,0
;   extruderWidth,0.35
;   extrusionMultiplier,0.95
;   extruderUseRetract,1
;   extruderRetractionDistance,3.8
;   extruderExtraRestartDistance,0
;   extruderRetractionZLift,0.3
;   extruderRetractionSpeed,3000
;   extruderUseCoasting,1
;   extruderCoastingDistance,0.2
;   extruderUseWipe,0
;   extruderWipeDistance,5
;   primaryExtruder,0
;   layerHeight,0.12
;   topSolidLayers,6
;   bottomSolidLayers,6
;   perimeterOutlines,4
;   printPerimetersInsideOut,1
;   startPointOption,2
;   startPointOriginX,0
;   startPointOriginY,300
;   sequentialIslands,0
;   spiralVaseMode,0
;   firstLayerHeightPercentage,120
;   firstLayerWidthPercentage,100
;   firstLayerUnderspeed,0.25
;   useRaft,0
;   raftExtruder,0
;   raftTopLayers,3
;   raftBaseLayers,2
;   raftOffset,3
;   raftSeparationDistance,0.14
;   raftTopInfill,100
;   aboveRaftSpeedMultiplier,0.3
;   useSkirt,1
;   skirtExtruder,0
;   skirtLayers,2
;   skirtOutlines,2
;   skirtOffset,3
;   usePrimePillar,0
;   primePillarExtruder,999
;   primePillarWidth,12
;   primePillarLocation,7
;   primePillarSpeedMultiplier,1
;   useOozeShield,0
;   oozeShieldExtruder,999
;   oozeShieldOffset,2
;   oozeShieldOutlines,1
;   oozeShieldSidewallShape,1
;   oozeShieldSidewallAngle,30
;   oozeShieldSpeedMultiplier,1
;   infillExtruder,0
;   internalInfillPattern,Fast Honeycomb
;   externalInfillPattern,Rectilinear
;   infillPercentage,10
;   outlineOverlapPercentage,15
;   infillExtrusionWidthPercentage,100
;   minInfillLength,5
;   infillLayerInterval,1
;   internalInfillAngles,0
;   overlapInternalInfillAngles,0
;   externalInfillAngles,45,-45
;   generateSupport,0
;   supportExtruder,0
;   supportInfillPercentage,40
;   supportExtraInflation,0
;   supportBaseLayers,0
;   denseSupportExtruder,0
;   denseSupportLayers,0
;   denseSupportInfillPercentage,70
;   supportLayerInterval,1
;   supportHorizontalPartOffset,0.4
;   supportUpperSeparationLayers,1
;   supportLowerSeparationLayers,1
;   supportType,0
;   supportGridSpacing,4.5
;   maxOverhangAngle,45
;   supportAngles,0
;   temperatureName,Primary Extruder,Heated Bed
;   temperatureNumber,0,0
;   temperatureSetpointCount,2,2
;   temperatureSetpointLayers,1,2,1,2
;   temperatureSetpointTemperatures,185,180,10,5
;   temperatureStabilizeAtStartup,1,1
;   temperatureHeatedBed,0,1
;   fanLayers,1,2
;   fanSpeeds,0,100
;   blipFanToFullPower,0
;   adjustSpeedForCooling,1
;   minSpeedLayerTime,15
;   minCoolingSpeedSlowdown,20
;   increaseFanForCooling,1
;   minFanLayerTime,25
;   maxCoolingFanSpeed,100
;   increaseFanForBridging,1
;   bridgingFanSpeed,100
;   use5D,1
;   relativeEdistances,0
;   allowEaxisZeroing,1
;   independentExtruderAxes,0
;   includeM10123,0
;   stickySupport,1
;   applyToolheadOffsets,0
;   gcodeXoffset,0
;   gcodeYoffset,0
;   gcodeZoffset,0
;   overrideMachineDefinition,1
;   machineTypeOverride,0
;   strokeXoverride,300
;   strokeYoverride,300
;   strokeZoverride,400
;   originOffsetXoverride,0
;   originOffsetYoverride,0
;   originOffsetZoverride,0
;   homeXdirOverride,-1
;   homeYdirOverride,-1
;   homeZdirOverride,-1
;   flipXoverride,1
;   flipYoverride,-1
;   flipZoverride,1
;   toolheadOffsets,0,0|0,0|0,0|0,0|0,0|0,0
;   overrideFirmwareConfiguration,1
;   firmwareTypeOverride,RepRap (Marlin/Repetier/Sprinter)
;   GPXconfigOverride,r2
;   baudRateOverride,250000
;   overridePrinterModels,1
;   printerModelsOverride
;   startingGcode,;,; -]H.P.B[- MarshMalloW  ,; $VER: StartScript 1.03 (18.12.2022) MarshMalloW,;,; Begin Startcode,;,M117 *Preheat*	; Preheat,;extruder0_temperature,M104 S[extruder0_temperature],M109 S[extruder0_temperature],;M109 R[extruder0_temperature] ,;,M117 *Auto-leveling*     	; Auto-leveling,M107                   	; Turn layer fan off,G21                    	; Set to metric [change to G20 if you want Imperial],G90                    	; Force coordinates to be absolute relative to the origin,G28                    	; Home X/Y/Z axis,G29                    	; Auto-leveling (BL-Touch),;,M117 *Start Clean*     	; Indicate nozzle clean in progress on LCD,G92 E0                 	; Set Extruder to 0 ,G1 X0 Y0 F2000         	; Move X and Y to 0 with speed 2000 (mm/min),G1 Z0.1 F1000          	; Move Z to   0.1 with speed 1000 (mm/min),G1 X8.0 F2000          	; Move X to   8.0 with speed 2000 (mm/min),G1 Y60.0 E4.0 F1000.0  	; Move Y to  60 and Extruder with 4.0 with speed 1000 (mm/min),G1 Y100.0 E8.5 F1000.0 	; Move Y to 100 and Extruder with 8.5 with speed 1000 (mm/min),G92 E0                 	; Set extruder to 0,G1 X16.0 F3000         	; Move X to 16.0 with speed 3000 (mm/min),G1 Y60.0 F3000         	; Move Y to 60.0 with speed 3000 (mm/min),M117 *End Clean*       	; Indicate nozzle clean in progress on LCD,G1 Z5 F3000            	; Move Z to  5.0 with speed 3000 (mm/min),G1 X20.0 F3000         	; Move X to 20.0 with speed 3000 (mm/min),G1 Y20.0 F3000         	; Move Y to 20.0 with speed 3000 (mm/min),; ,M117 *Printing...*     	; Start printing msg on LCD,;,; End Startcode,;,; Begin printing with sliced GCode after here,;
;   layerChangeGcode,
;   retractionGcode,
;   toolChangeGcode,
;   endingGcode,;,; init 181010,;,;M107 			; Fan off,;G1 E-1 F300 			; Retract the filament a bit before lifting the nozzle,;M104 S0 			; Turn off extruder,;M140 S0 			; Turn off bed,;G91			; Relative positioning,;G28 X0 Y0 			; Move X/Y to min endstops so the head is out of teh way,;M84 			; Disable motors,;G90 			; Absolute positioning,;M117 Print ready...,,;,; // From Cura 181010,; // End_gcode,G92 E0			; Zero the extruded length,;G1 E-30 F300		; Retract E -30,M106 S0			; Turn off cooling fan,M104 S0			; Turn off temperature,M140 S0		     	; Turn off bed,G91			; Relative positioning,G1 E-1 F300			; Retract the filament a bit before lifting the nozzle to release some of the pressure,G1 Z+20 E-5 X-20 Y-20 F7200	; Move Z up a bit and retract filament even more,G1 X0 Y150 F10000		; Move right min,M107			; Turn off layer fan,M84			; Disable motors,G90			; Absolute positioning,M117 *The-End* 		; End msg,;,
;   exportFileFormat,gcode
;   celebration,0
;   celebrationSong,Star Wars
;   postProcessing,D:\S3D_Thumbs\S3D_Thumbs.exe f="[output_filepath]" x=600 y=110 w=953 lw=400 lh=300 sw=32 sh=32 d=Y
;   defaultSpeed,4200
;   outlineUnderspeed,0.5
;   solidInfillUnderspeed,0.8
;   supportUnderspeed,0.8
;   rapidXYspeed,6000
;   rapidZspeed,1002
;   minBridgingArea,50
;   bridgingExtraInflation,0.2
;   bridgingExtrusionMultiplier,1
;   bridgingSpeedMultiplier,0.8
;   useFixedBridgingAngle,0
;   fixedBridgingAngle,0
;   applyBridgingToPerimeters,0
;   filamentDiameters,1.75|1.75|1.75|1.75|1.75|1.75
;   filamentPricesPerKg,30|46|46|46|46|46
;   filamentDensities,1.25|1.25|1.25|1.25|1.25|1.25
;   useMinPrintHeight,0
;   minPrintHeight,0
;   useMaxPrintHeight,0
;   maxPrintHeight,50
;   useDiaphragm,0
;   diaphragmLayerInterval,20
;   robustSlicing,1
;   mergeAllIntoSolid,0
;   onlyRetractWhenCrossingOutline,1
;   retractBetweenLayers,1
;   useRetractionMinTravel,0
;   retractionMinTravel,3
;   retractWhileWiping,1
;   onlyWipeOutlines,1
;   avoidCrossingOutline,0
;   maxMovementDetourFactor,3
;   toolChangeRetractionDistance,12
;   toolChangeExtraRestartDistance,-0.5
;   toolChangeRetractionSpeed,600
;   externalThinWallType,1
;   internalThinWallType,1
;   thinWallAllowedOverlapPercentage,10
;   singleExtrusionMinLength,1
;   singleExtrusionMinPrintingWidthPercentage,50
;   singleExtrusionMaxPrintingWidthPercentage,200
;   singleExtrusionEndpointExtension,0.2
;   horizontalSizeCompensation,0
G90
M82
M106 S0
M140 S10
;
; -]H.P.B[- MarshMalloW  
; $VER: StartScript 1.03 (18.12.2022) MarshMalloW
;
; Begin Startcode
;
M117 *Preheat*	; Preheat
;extruder0_temperature
M104 S185
M109 S185
;M109 R185 
;
M117 *Auto-leveling*     	; Auto-leveling
M107                   	; Turn layer fan off
G21                    	; Set to metric [change to G20 if you want Imperial]
G90                    	; Force coordinates to be absolute relative to the origin
G28                    	; Home X/Y/Z axis
G29                    	; Auto-leveling (BL-Touch)
;
M117 *Start Clean*     	; Indicate nozzle clean in progress on LCD
G92 E0                 	; Set Extruder to 0 
G1 X0 Y0 F2000         	; Move X and Y to 0 with speed 2000 (mm/min)
G1 Z0.1 F1000          	; Move Z to   0.1 with speed 1000 (mm/min)
G1 X8.0 F2000          	; Move X to   8.0 with speed 2000 (mm/min)
G1 Y60.0 E4.0 F1000.0  	; Move Y to  60 and Extruder with 4.0 with speed 1000 (mm/min)
G1 Y100.0 E8.5 F1000.0 	; Move Y to 100 and Extruder with 8.5 with speed 1000 (mm/min)
G92 E0                 	; Set extruder to 0
G1 X16.0 F3000         	; Move X to 16.0 with speed 3000 (mm/min)
G1 Y60.0 F3000         	; Move Y to 60.0 with speed 3000 (mm/min)
M117 *End Clean*       	; Indicate nozzle clean in progress on LCD
G1 Z5 F3000            	; Move Z to  5.0 with speed 3000 (mm/min)
G1 X20.0 F3000         	; Move X to 20.0 with speed 3000 (mm/min)
G1 Y20.0 F3000         	; Move Y to 20.0 with speed 3000 (mm/min)
; 
M117 *Printing...*     	; Start printing msg on LCD
;
; End Startcode
;
; Begin printing with sliced GCode after here
;
; process PLA C01
; layer 1, Z = 0.144
T0
G92 E0.0000
G1 E-3.8000 F3000
; feature skirt
; tool H0.144 W0.350
G1 Z0.300 F1002
G1 X116.040 Y122.760 F6000
G1 Z0.144 F1002
G1 E0.0000 F3000
G92 E0.0000
G1 X183.960 Y122.760 E1.3520 F1050
G1 X186.025 Y124.825 E1.4102
G1 X186.025 Y175.175 E2.4124
G1 X183.960 Y177.240 E2.4706
G1 X116.040 Y177.240 E3.8226
G1 X113.975 Y175.175 E3.8807
G1 X113.975 Y124.825 E4.8830
G1 X116.040 Y122.760 E4.9411
G92 E0.0000
G1 E-3.8000 F3000
G1 Z0.444 F1002
G1 X116.185 Y123.110 F6000
G1 Z0.144 F1002
G1 E0.0000 F3000
G92 E0.0000
G1 X183.815 Y123.110 E1.3463 F1050
G1 X185.675 Y124.970 E1.3986
G1 X185.675 Y175.030 E2.3951
G1 X183.815 Y176.890 E2.4475
G1 X116.185 Y176.890 E3.7937
G1 X114.325 Y175.030 E3.8461
G1 X114.325 Y124.970 E4.8426
G1 X116.185 Y123.110 E4.8950
G92 E0.0000
G1 E-3.8000 F3000
; feature inner perimeter
G1 Z0.444 F1002
G1 X118.725 Y127.510 F6000
G1 Z0.144 F1002
G1 E0.0000 F3000
G92 E0.0000
G1 X181.275 Y127.510 E1.2451 F788
G1 X181.275 Y172.490 E2.1405
G1 X118.725 Y172.490 E3.3856
G1 X118.725 Y127.710 E4.2770
G1 X118.725 Y127.510 F788
G1 X118.375 Y127.160 F6000
G92 E0.0000
G1 X181.625 Y127.160 E1.2591 F788
G1 X181.625 Y172.840 E2.1684
G1 X118.375 Y172.840 E3.4274
G1 X118.375 Y127.360 E4.3328
G1 X118.375 Y127.160 F788
G1 X118.025 Y126.810 F6000
G92 E0.0000
G1 X181.975 Y126.810 E1.2730 F788
G1 X181.975 Y173.190 E2.1962
G1 X118.025 Y173.190 E3.4693
G1 X118.025 Y127.010 E4.3885
G1 X118.025 Y126.810 F788
; feature outer perimeter
G1 X117.675 Y126.460 F6000
G92 E0.0000
G1 X182.325 Y126.460 E1.2869 F525
G1 X182.325 Y173.540 E2.2241
G1 X117.675 Y173.540 E3.5111
G1 X117.675 Y126.660 E4.4443
G1 X117.675 Y126.460 F525
; feature solid layer
G1 X119.230 Y172.192 F6000
G92 E0.0000
G1 X119.022 Y171.985 E0.0058 F840
G1 X119.022 Y171.490 E0.0157
G1 X119.725 Y172.192 E0.0355
G1 X120.220 Y172.192 E0.0453
G1 X119.022 Y170.995 E0.0791
G1 X119.022 Y170.500 E0.0889
G1 X120.715 Y172.192 E0.1366
G1 X121.210 Y172.192 E0.1464
G1 X119.022 Y170.005 E0.2080
G1 X119.022 Y169.510 E0.2178
G1 X121.705 Y172.192 E0.2934
G1 X122.200 Y172.192 E0.3032
G1 X119.022 Y169.015 E0.3927
G1 X119.022 Y168.520 E0.4025
G1 X122.695 Y172.192 E0.5059
G1 X123.190 Y172.192 E0.5158
G1 X119.022 Y168.025 E0.6331
G1 X119.022 Y167.530 E0.6429
G1 X123.685 Y172.192 E0.7742
G1 X124.180 Y172.192 E0.7840
G1 X119.022 Y167.035 E0.9292
G1 X119.022 Y166.540 E0.9391
G1 X124.675 Y172.192 E1.0982
G1 X125.170 Y172.192 E1.1081
G1 X119.022 Y166.045 E1.2811
G1 X119.022 Y165.550 E1.2910
G1 X125.665 Y172.192 E1.4780
G1 X126.160 Y172.192 E1.4878
G1 X119.022 Y165.055 E1.6888
G1 X119.022 Y164.560 E1.6986
G1 X126.655 Y172.192 E1.9135
G1 X127.150 Y172.192 E1.9233
G1 X119.022 Y164.065 E2.1521
G1 X119.022 Y163.570 E2.1620
G1 X127.645 Y172.192 E2.4047
G1 X128.140 Y172.192 E2.4146
G1 X119.022 Y163.075 E2.6712
G1 X119.022 Y162.580 E2.6811
G1 X128.635 Y172.192 E2.9517
G1 X129.130 Y172.192 E2.9615
G1 X119.022 Y162.085 E3.2461
G1 X119.022 Y161.590 E3.2559
G1 X129.625 Y172.192 E3.5544
G1 X130.120 Y172.192 E3.5642
G1 X119.022 Y161.095 E3.8766
G1 X119.022 Y160.600 E3.8865
G1 X130.615 Y172.192 E4.2128
G1 X131.110 Y172.192 E4.2227
G1 X119.022 Y160.105 E4.5630
G1 X119.022 Y159.610 E4.5728
G1 X131.605 Y172.192 E4.9270
G1 X132.100 Y172.192 E4.9369
G1 X119.022 Y159.115 E5.3050
G1 X119.022 Y158.620 E5.3149
G1 X132.595 Y172.192 E5.6969
G1 X133.089 Y172.192 E5.7068
G1 X119.022 Y158.125 E6.1028
G1 X119.022 Y157.631 E6.1126
G1 X133.584 Y172.192 E6.5226
G1 X134.079 Y172.192 E6.5324
G1 X119.022 Y157.136 E6.9563
G1 X119.022 Y156.641 E6.9662
G1 X134.574 Y172.192 E7.4040
G1 X135.069 Y172.192 E7.4138
G1 X119.022 Y156.146 E7.8656
G1 X119.022 Y155.651 E7.8754
G1 X135.564 Y172.192 E8.3411
G1 X136.059 Y172.192 E8.3510
G1 X119.022 Y155.156 E8.8306
G1 X119.022 Y154.661 E8.8404
G1 X136.554 Y172.192 E9.3340
G1 X137.049 Y172.192 E9.3438
G1 X119.022 Y154.166 E9.8513
G1 X119.022 Y153.671 E9.8612
G1 X137.544 Y172.192 E10.3826
G1 X138.039 Y172.192 E10.3924
G1 X119.022 Y153.176 E10.9278
G1 X119.022 Y152.681 E10.9377
G1 X138.534 Y172.192 E11.4869
G1 X139.029 Y172.192 E11.4968
G1 X119.022 Y152.186 E12.0600
G1 X119.022 Y151.691 E12.0699
G1 X139.524 Y172.192 E12.6470
G1 X140.019 Y172.192 E12.6569
G1 X119.022 Y151.196 E13.2480
G1 X119.022 Y150.701 E13.2578
G1 X140.514 Y172.192 E13.8628
G1 X141.009 Y172.192 E13.8727
G1 X119.022 Y150.206 E14.4916
G1 X119.022 Y149.711 E14.5015
G1 X141.504 Y172.192 E15.1344
G1 X141.999 Y172.192 E15.1442
G1 X119.022 Y149.216 E15.7911
G1 X119.022 Y148.721 E15.8009
G1 X142.494 Y172.192 E16.4617
G1 X142.989 Y172.192 E16.4715
G1 X119.022 Y148.226 E17.1462
G1 X119.022 Y147.731 E17.1561
G1 X143.484 Y172.192 E17.8447
G1 X143.979 Y172.192 E17.8546
G1 X119.022 Y147.236 E18.5571
G1 X119.022 Y146.741 E18.5670
G1 X144.474 Y172.192 E19.2835
G1 X144.969 Y172.192 E19.2933
G1 X119.022 Y146.246 E20.0238
G1 X119.022 Y145.751 E20.0336
G1 X145.464 Y172.192 E20.7780
G1 X145.959 Y172.192 E20.7878
G1 X119.022 Y145.256 E21.5461
G1 X119.022 Y144.761 E21.5560
G1 X146.454 Y172.192 E22.3282
G1 X146.949 Y172.192 E22.3381
G1 X119.022 Y144.266 E23.1243
G1 X119.022 Y143.771 E23.1341
G1 X147.444 Y172.192 E23.9342
G1 X147.939 Y172.192 E23.9441
G1 X119.022 Y143.276 E24.7581
G1 X119.022 Y142.781 E24.7680
G1 X148.434 Y172.192 E25.5959
G1 X148.929 Y172.192 E25.6058
G1 X119.022 Y142.286 E26.4477
G1 X119.022 Y141.791 E26.4575
G1 X149.424 Y172.192 E27.3134
G1 X149.919 Y172.192 E27.3232
G1 X119.022 Y141.296 E28.1930
G1 X119.022 Y140.801 E28.2029
G1 X150.414 Y172.192 E29.0866
G1 X150.909 Y172.192 E29.0964
G1 X119.022 Y140.306 E29.9941
G1 X119.022 Y139.811 E30.0039
G1 X151.404 Y172.192 E30.9155
G1 X151.899 Y172.192 E30.9254
G1 X119.022 Y139.316 E31.8509
G1 X119.022 Y138.821 E31.8607
G1 X152.394 Y172.192 E32.8002
G1 X152.888 Y172.192 E32.8100
G1 X119.022 Y138.327 E33.7634
G1 X119.022 Y137.832 E33.7733
G1 X153.383 Y172.192 E34.7406
G1 X153.878 Y172.192 E34.7504
G1 X119.022 Y137.337 E35.7317
G1 X119.022 Y136.842 E35.7415
G1 X154.373 Y172.192 E36.7367
G1 X154.868 Y172.192 E36.7466
G1 X119.022 Y136.347 E37.7557
G1 X119.022 Y135.852 E37.7655
G1 X155.363 Y172.192 E38.7886
G1 X155.858 Y172.192 E38.7985
G1 X119.022 Y135.357 E39.8354
G1 X119.022 Y134.862 E39.8453
G1 X156.353 Y172.192 E40.8962
G1 X156.848 Y172.192 E40.9061
G1 X119.022 Y134.367 E41.9709
G1 X119.022 Y133.872 E41.9808
G1 X157.343 Y172.192 E43.0596
G1 X157.838 Y172.192 E43.0694
G1 X119.022 Y133.377 E44.1621
G1 X119.022 Y132.882 E44.1720
