; G-Code generated by Simplify3D(R) Version 4.1.2
;
;
;
;
; Jul 26, 2023 at 9:40:41 PM
; Settings Summary
;   processName,PLA C01
;   applyToModels,Support Zyxel XGS1210-12_Test2
;   profileName,PLA_C01_04_10_OS180_05 Tevo Tornado
;   profileVersion,2023-07-25 15:27:17
;   baseProfile,Creality CR-10(2)
;   printMaterial,PLA
;   printQuality,High
;   printExtruders,
;   extruderName,Primary Extruder
;   extruderToolheadNumber,0
;   extruderDiameter,0.4
;   extruderAutoWidth,0
;   extruderWidth,0.35
;   extrusionMultiplier,0.95
;   extruderUseRetract,1
;   extruderRetractionDistance,3.8
;   extruderExtraRestartDistance,0
;   extruderRetractionZLift,0.3
;   extruderRetractionSpeed,3000
;   extruderUseCoasting,1
;   extruderCoastingDistance,0.2
;   extruderUseWipe,0
;   extruderWipeDistance,5
;   primaryExtruder,0
;   layerHeight,0.12
;   topSolidLayers,6
;   bottomSolidLayers,6
;   perimeterOutlines,4
;   printPerimetersInsideOut,1
;   startPointOption,2
;   startPointOriginX,0
;   startPointOriginY,300
;   sequentialIslands,0
;   spiralVaseMode,0
;   firstLayerHeightPercentage,120
;   firstLayerWidthPercentage,100
;   firstLayerUnderspeed,0.25
;   useRaft,0
;   raftExtruder,0
;   raftTopLayers,3
;   raftBaseLayers,2
;   raftOffset,3
;   raftSeparationDistance,0.14
;   raftTopInfill,100
;   aboveRaftSpeedMultiplier,0.3
;   useSkirt,1
;   skirtExtruder,0
;   skirtLayers,2
;   skirtOutlines,2
;   skirtOffset,3
;   usePrimePillar,0
;   primePillarExtruder,999
;   primePillarWidth,12
;   primePillarLocation,7
;   primePillarSpeedMultiplier,1
;   useOozeShield,0
;   oozeShieldExtruder,999
;   oozeShieldOffset,2
;   oozeShieldOutlines,1
;   oozeShieldSidewallShape,1
;   oozeShieldSidewallAngle,30
;   oozeShieldSpeedMultiplier,1
;   infillExtruder,0
;   internalInfillPattern,Fast Honeycomb
;   externalInfillPattern,Rectilinear
;   infillPercentage,10
;   outlineOverlapPercentage,15
;   infillExtrusionWidthPercentage,100
;   minInfillLength,5
;   infillLayerInterval,1
;   internalInfillAngles,0
;   overlapInternalInfillAngles,0
;   externalInfillAngles,45,-45
;   generateSupport,0
;   supportExtruder,0
;   supportInfillPercentage,40
;   supportExtraInflation,0
;   supportBaseLayers,0
;   denseSupportExtruder,0
;   denseSupportLayers,0
;   denseSupportInfillPercentage,70
;   supportLayerInterval,1
;   supportHorizontalPartOffset,0.4
;   supportUpperSeparationLayers,1
;   supportLowerSeparationLayers,1
;   supportType,0
;   supportGridSpacing,4.5
;   maxOverhangAngle,45
;   supportAngles,0
;   temperatureName,Primary Extruder,Heated Bed
;   temperatureNumber,0,0
;   temperatureSetpointCount,2,2
;   temperatureSetpointLayers,1,2,1,2
;   temperatureSetpointTemperatures,185,180,10,5
;   temperatureStabilizeAtStartup,1,1
;   temperatureHeatedBed,0,1
;   fanLayers,1,2
;   fanSpeeds,0,100
;   blipFanToFullPower,0
;   adjustSpeedForCooling,1
;   minSpeedLayerTime,15
;   minCoolingSpeedSlowdown,20
;   increaseFanForCooling,1
;   minFanLayerTime,25
;   maxCoolingFanSpeed,100
;   increaseFanForBridging,1
;   bridgingFanSpeed,100
;   use5D,1
;   relativeEdistances,0
;   allowEaxisZeroing,1
;   independentExtruderAxes,0
;   includeM10123,0
;   stickySupport,1
;   applyToolheadOffsets,0
;   gcodeXoffset,0
;   gcodeYoffset,0
;   gcodeZoffset,0
;   overrideMachineDefinition,1
;   machineTypeOverride,0
;   strokeXoverride,300
;   strokeYoverride,300
;   strokeZoverride,400
;   originOffsetXoverride,0
;   originOffsetYoverride,0
;   originOffsetZoverride,0
;   homeXdirOverride,-1
;   homeYdirOverride,-1
;   homeZdirOverride,-1
;   flipXoverride,1
;   flipYoverride,-1
;   flipZoverride,1
;   toolheadOffsets,0,0|0,0|0,0|0,0|0,0|0,0
;   overrideFirmwareConfiguration,1
;   firmwareTypeOverride,RepRap (Marlin/Repetier/Sprinter)
;   GPXconfigOverride,r2
;   baudRateOverride,250000
;   overridePrinterModels,1
;   printerModelsOverride
;   startingGcode,;,; -]H.P.B[- MarshMalloW  ,; $VER: StartScript 1.03 (18.12.2022) MarshMalloW,;,; Begin Startcode,;,M117 *Preheat*	; Preheat,;extruder0_temperature,M104 S[extruder0_temperature],M109 S[extruder0_temperature],;M109 R[extruder0_temperature] ,;,M117 *Auto-leveling*     	; Auto-leveling,M107                   	; Turn layer fan off,G21                    	; Set to metric [change to G20 if you want Imperial],G90                    	; Force coordinates to be absolute relative to the origin,G28                    	; Home X/Y/Z axis,G29                    	; Auto-leveling (BL-Touch),;,M117 *Start Clean*     	; Indicate nozzle clean in progress on LCD,G92 E0                 	; Set Extruder to 0 ,G1 X0 Y0 F2000         	; Move X and Y to 0 with speed 2000 (mm/min),G1 Z0.1 F1000          	; Move Z to   0.1 with speed 1000 (mm/min),G1 X8.0 F2000          	; Move X to   8.0 with speed 2000 (mm/min),G1 Y60.0 E4.0 F1000.0  	; Move Y to  60 and Extruder with 4.0 with speed 1000 (mm/min),G1 Y100.0 E8.5 F1000.0 	; Move Y to 100 and Extruder with 8.5 with speed 1000 (mm/min),G92 E0                 	; Set extruder to 0,G1 X16.0 F3000         	; Move X to 16.0 with speed 3000 (mm/min),G1 Y60.0 F3000         	; Move Y to 60.0 with speed 3000 (mm/min),M117 *End Clean*       	; Indicate nozzle clean in progress on LCD,G1 Z5 F3000            	; Move Z to  5.0 with speed 3000 (mm/min),G1 X20.0 F3000         	; Move X to 20.0 with speed 3000 (mm/min),G1 Y20.0 F3000         	; Move Y to 20.0 with speed 3000 (mm/min),; ,M117 *Printing...*     	; Start printing msg on LCD,;,; End Startcode,;,; Begin printing with sliced GCode after here,;
;   layerChangeGcode,
;   retractionGcode,
;   toolChangeGcode,
;   endingGcode,;,; init 181010,;,;M107 			; Fan off,;G1 E-1 F300 			; Retract the filament a bit before lifting the nozzle,;M104 S0 			; Turn off extruder,;M140 S0 			; Turn off bed,;G91			; Relative positioning,;G28 X0 Y0 			; Move X/Y to min endstops so the head is out of teh way,;M84 			; Disable motors,;G90 			; Absolute positioning,;M117 Print ready...,,;,; // From Cura 181010,; // End_gcode,G92 E0			; Zero the extruded length,;G1 E-30 F300		; Retract E -30,M106 S0			; Turn off cooling fan,M104 S0			; Turn off temperature,M140 S0		     	; Turn off bed,G91			; Relative positioning,G1 E-1 F300			; Retract the filament a bit before lifting the nozzle to release some of the pressure,G1 Z+20 E-5 X-20 Y-20 F7200	; Move Z up a bit and retract filament even more,G1 X0 Y150 F10000		; Move right min,M107			; Turn off layer fan,M84			; Disable motors,G90			; Absolute positioning,M117 *The-End* 		; End msg,;,
;   exportFileFormat,gcode
;   celebration,0
;   celebrationSong,Star Wars
;   postProcessing,D:\S3D_Thumbs\S3D_Thumbs.exe f="[output_filepath]" x=600 y=110 w=953 lw=400 lh=300 sw=32 sh=32 d=Y
;   defaultSpeed,4200
;   outlineUnderspeed,0.5
;   solidInfillUnderspeed,0.8
;   supportUnderspeed,0.8
;   rapidXYspeed,6000
;   rapidZspeed,1002
;   minBridgingArea,50
;   bridgingExtraInflation,0.2
;   bridgingExtrusionMultiplier,1
;   bridgingSpeedMultiplier,0.8
;   useFixedBridgingAngle,0
;   fixedBridgingAngle,0
;   applyBridgingToPerimeters,0
;   filamentDiameters,1.75|1.75|1.75|1.75|1.75|1.75
;   filamentPricesPerKg,30|46|46|46|46|46
;   filamentDensities,1.25|1.25|1.25|1.25|1.25|1.25
;   useMinPrintHeight,0
;   minPrintHeight,0
;   useMaxPrintHeight,0
;   maxPrintHeight,50
;   useDiaphragm,0
;   diaphragmLayerInterval,20
;   robustSlicing,1
;   mergeAllIntoSolid,0
;   onlyRetractWhenCrossingOutline,1
;   retractBetweenLayers,1
;   useRetractionMinTravel,0
;   retractionMinTravel,3
;   retractWhileWiping,1
;   onlyWipeOutlines,1
;   avoidCrossingOutline,0
;   maxMovementDetourFactor,3
;   toolChangeRetractionDistance,12
;   toolChangeExtraRestartDistance,-0.5
;   toolChangeRetractionSpeed,600
;   externalThinWallType,1
;   internalThinWallType,1
;   thinWallAllowedOverlapPercentage,10
;   singleExtrusionMinLength,1
;   singleExtrusionMinPrintingWidthPercentage,50
;   singleExtrusionMaxPrintingWidthPercentage,200
;   singleExtrusionEndpointExtension,0.2
;   horizontalSizeCompensation,0
G90
M82
M106 S0
M140 S10
;
; -]H.P.B[- MarshMalloW  
; $VER: StartScript 1.03 (18.12.2022) MarshMalloW
;
; Begin Startcode
;
M117 *Preheat*	; Preheat
;extruder0_temperature
M104 S185
M109 S185
;M109 R185 
;
M117 *Auto-leveling*     	; Auto-leveling
M107                   	; Turn layer fan off
G21                    	; Set to metric [change to G20 if you want Imperial]
G90                    	; Force coordinates to be absolute relative to the origin
G28                    	; Home X/Y/Z axis
G29                    	; Auto-leveling (BL-Touch)
;
M117 *Start Clean*     	; Indicate nozzle clean in progress on LCD
G92 E0                 	; Set Extruder to 0 
G1 X0 Y0 F2000         	; Move X and Y to 0 with speed 2000 (mm/min)
G1 Z0.1 F1000          	; Move Z to   0.1 with speed 1000 (mm/min)
G1 X8.0 F2000          	; Move X to   8.0 with speed 2000 (mm/min)
G1 Y60.0 E4.0 F1000.0  	; Move Y to  60 and Extruder with 4.0 with speed 1000 (mm/min)
G1 Y100.0 E8.5 F1000.0 	; Move Y to 100 and Extruder with 8.5 with speed 1000 (mm/min)
G92 E0                 	; Set extruder to 0
G1 X16.0 F3000         	; Move X to 16.0 with speed 3000 (mm/min)
G1 Y60.0 F3000         	; Move Y to 60.0 with speed 3000 (mm/min)
M117 *End Clean*       	; Indicate nozzle clean in progress on LCD
G1 Z5 F3000            	; Move Z to  5.0 with speed 3000 (mm/min)
G1 X20.0 F3000         	; Move X to 20.0 with speed 3000 (mm/min)
G1 Y20.0 F3000         	; Move Y to 20.0 with speed 3000 (mm/min)
; 
M117 *Printing...*     	; Start printing msg on LCD
;
; End Startcode
;
; Begin printing with sliced GCode after here
;
; process PLA C01
; layer 1, Z = 0.144
T0
G92 E0.0000
G1 E-3.8000 F3000
; feature skirt
; tool H0.144 W0.350
G1 Z0.300 F1002
G1 X126.740 Y121.643 F6000
G1 Z0.144 F1002
G1 E0.0000 F3000
G92 E0.0000
G1 X128.805 Y119.578 E0.0581 F1050
G1 X143.723 Y119.578 E0.3551
G1 X145.788 Y121.643 E0.4132
G1 X145.788 Y144.332 E0.8649
G1 X143.723 Y146.397 E0.9230
G1 X128.805 Y146.397 E1.2200
G1 X126.740 Y144.332 E1.2781
G1 X126.740 Y121.643 E1.7298
G92 E0.0000
G1 E-3.8000 F3000
G1 Z0.444 F1002
G1 X127.090 Y121.788 F6000
G1 Z0.144 F1002
G1 E0.0000 F3000
G92 E0.0000
G1 X128.950 Y119.928 E0.0524 F1050
G1 X143.578 Y119.928 E0.3436
G1 X145.438 Y121.788 E0.3959
G1 X145.438 Y144.187 E0.8418
G1 X143.578 Y146.047 E0.8942
G1 X128.950 Y146.047 E1.1854
G1 X127.090 Y144.187 E1.2377
G1 X127.090 Y121.788 E1.6836
G92 E0.0000
G1 E-3.8000 F3000
; feature inner perimeter
G1 Z0.444 F1002
G1 X131.490 Y124.328 F6000
G1 Z0.144 F1002
G1 E0.0000 F3000
G92 E0.0000
G1 X141.038 Y124.328 E0.1901 F788
G1 X141.038 Y141.647 E0.5348
G1 X131.490 Y141.647 E0.7249
G1 X131.490 Y124.528 E1.0657
G1 X131.490 Y124.328 F788
G1 X131.140 Y123.978 F6000
G92 E0.0000
G1 X141.388 Y123.978 E0.2040 F788
G1 X141.388 Y141.997 E0.5627
G1 X131.140 Y141.997 E0.7667
G1 X131.140 Y124.178 E1.1214
G1 X131.140 Y123.978 F788
G1 X130.790 Y123.628 F6000
G92 E0.0000
G1 X141.738 Y123.628 E0.2179 F788
G1 X141.738 Y142.347 E0.5906
G1 X130.790 Y142.347 E0.8085
G1 X130.790 Y123.828 E1.1772
G1 X130.790 Y123.628 F788
; feature outer perimeter
G1 X130.440 Y123.278 F6000
G92 E0.0000
G1 X142.088 Y123.278 E0.2319 F525
G1 X142.088 Y142.697 E0.6184
G1 X130.440 Y142.697 E0.8503
G1 X130.440 Y123.478 E1.2329
G1 X130.440 Y123.278 F525
; feature solid layer
G1 X140.276 Y124.625 F6000
G92 E0.0000
G1 X140.741 Y125.090 E0.0131 F840
G1 X140.741 Y125.585 E0.0229
G1 X139.781 Y124.625 E0.0499
G1 X139.286 Y124.625 E0.0598
G1 X140.741 Y126.080 E0.1007
G1 X140.741 Y126.575 E0.1106
G1 X138.791 Y124.625 E0.1655
G1 X138.296 Y124.625 E0.1753
G1 X140.741 Y127.070 E0.2441
G1 X140.741 Y127.565 E0.2540
G1 X137.801 Y124.625 E0.3367
G1 X137.306 Y124.625 E0.3466
G1 X140.741 Y128.060 E0.4433
G1 X140.741 Y128.555 E0.4531
G1 X136.811 Y124.625 E0.5637
G1 X136.316 Y124.625 E0.5736
G1 X140.741 Y129.050 E0.6981
G1 X140.741 Y129.545 E0.7080
G1 X135.821 Y124.625 E0.8465
G1 X135.327 Y124.625 E0.8563
G1 X140.741 Y130.040 E1.0087
G1 X140.741 Y130.535 E1.0186
G1 X134.832 Y124.625 E1.1849
G1 X134.337 Y124.625 E1.1948
G1 X140.741 Y131.030 E1.3751
G1 X140.741 Y131.524 E1.3849
G1 X133.842 Y124.625 E1.5791
G1 X133.347 Y124.625 E1.5890
G1 X140.741 Y132.019 E1.7971
G1 X140.741 Y132.514 E1.8070
G1 X132.852 Y124.625 E2.0291
G1 X132.357 Y124.625 E2.0389
G1 X140.741 Y133.009 E2.2750
G1 X140.741 Y133.504 E2.2848
G1 X131.862 Y124.625 E2.5348
G1 X131.787 Y124.625 E2.5363
G1 X131.787 Y125.046 E2.5446
G1 X140.741 Y133.999 E2.7967
G1 X140.741 Y134.494 E2.8065
G1 X131.787 Y125.541 E3.0586
G1 X131.787 Y126.036 E3.0684
G1 X140.741 Y134.989 E3.3205
G1 X140.741 Y135.484 E3.3304
G1 X131.787 Y126.531 E3.5824
G1 X131.787 Y127.026 E3.5923
G1 X140.741 Y135.979 E3.8443
G1 X140.741 Y136.474 E3.8542
G1 X131.787 Y127.521 E4.1062
G1 X131.787 Y128.016 E4.1161
G1 X140.741 Y136.969 E4.3681
G1 X140.741 Y137.464 E4.3780
G1 X131.787 Y128.511 E4.6300
G1 X131.787 Y129.006 E4.6399
G1 X140.741 Y137.959 E4.8920
G1 X140.741 Y138.454 E4.9018
G1 X131.787 Y129.501 E5.1539
G1 X131.787 Y129.996 E5.1637
G1 X140.741 Y138.949 E5.4158
G1 X140.741 Y139.444 E5.4256
G1 X131.787 Y130.491 E5.6777
G1 X131.787 Y130.986 E5.6875
G1 X140.741 Y139.939 E5.9396
G1 X140.741 Y140.434 E5.9494
G1 X131.787 Y131.481 E6.2015
G1 X131.787 Y131.975 E6.2114
G1 X140.741 Y140.929 E6.4634
G1 X140.741 Y141.349 E6.4718
G1 X140.666 Y141.349 E6.4733
G1 X131.787 Y132.470 E6.7232
G1 X131.787 Y132.965 E6.7331
G1 X140.171 Y141.349 E6.9691
G1 X139.676 Y141.349 E6.9789
G1 X131.787 Y133.460 E7.2010
G1 X131.787 Y133.955 E7.2109
G1 X139.181 Y141.349 E7.4190
G1 X138.686 Y141.349 E7.4289
G1 X131.787 Y134.450 E7.6231
G1 X131.787 Y134.945 E7.6330
G1 X138.191 Y141.349 E7.8133
G1 X137.696 Y141.349 E7.8231
G1 X131.787 Y135.440 E7.9895
G1 X131.787 Y135.935 E7.9993
G1 X137.201 Y141.349 E8.1517
G1 X136.706 Y141.349 E8.1616
G1 X131.787 Y136.430 E8.3001
G1 X131.787 Y136.925 E8.3099
G1 X136.211 Y141.349 E8.4345
G1 X135.716 Y141.349 E8.4443
G1 X131.787 Y137.420 E8.5549
G1 X131.787 Y137.915 E8.5648
G1 X135.221 Y141.349 E8.6615
G1 X134.726 Y141.349 E8.6713
G1 X131.787 Y138.410 E8.7541
G1 X131.787 Y138.905 E8.7639
G1 X134.231 Y141.349 E8.8327
G1 X133.736 Y141.349 E8.8426
G1 X131.787 Y139.400 E8.8975
G1 X131.787 Y139.895 E8.9073
G1 X133.241 Y141.349 E8.9483
G1 X132.747 Y141.349 E8.9581
G1 X131.787 Y140.390 E8.9851
G1 X131.787 Y140.885 E8.9950
G1 X132.110 Y141.208 E9.0041
G1 X132.252 Y141.349 F840
G92 E0.0000
G1 E-3.8000 F3000
; layer 2, Z = 0.264
M106 S255
M140 S5
M104 S180 T0
; feature skirt
; tool H0.120 W0.350
G1 Z0.444 F1002
G1 X128.805 Y146.397 F6000
G1 Z0.264 F1002
G1 E0.0000 F3000
G92 E0.0000
G1 X126.740 Y144.332 E0.0484 F3664
G1 X126.740 Y121.643 E0.4248
G1 X128.805 Y119.578 E0.4733
G1 X143.723 Y119.578 E0.7207
G1 X145.788 Y121.643 E0.7692
G1 X145.788 Y144.332 E1.1456
G1 X143.723 Y146.397 E1.1940
G1 X128.805 Y146.397 E1.4415
G92 E0.0000
G1 E-3.8000 F3000
G1 Z0.564 F1002
G1 X128.950 Y146.047 F6000
G1 Z0.264 F1002
G1 E0.0000 F3000
G92 E0.0000
G1 X127.090 Y144.187 E0.0436 F3664
G1 X127.090 Y121.788 E0.4152
G1 X128.950 Y119.928 E0.4588
G1 X143.578 Y119.928 E0.7015
G1 X145.438 Y121.788 E0.7451
G1 X145.438 Y144.187 E1.1167
G1 X143.578 Y146.047 E1.1603
G1 X128.950 Y146.047 E1.4030
G92 E0.0000
G1 E-3.8000 F3000
; feature inner perimeter
G1 Z0.564 F1002
G1 X131.490 Y141.647 F6000
G1 Z0.264 F1002
G1 E0.0000 F3000
G92 E0.0000
G1 X131.490 Y124.328 E0.2873 F2748
G1 X141.038 Y124.328 E0.4457
G1 X141.038 Y141.647 E0.7330
G1 X131.690 Y141.647 E0.8881
G1 X131.490 Y141.647 F2748
G1 X131.140 Y141.997 F6000
G92 E0.0000
G1 X131.140 Y123.978 E0.2989 F2748
G1 X141.388 Y123.978 E0.4689
G1 X141.388 Y141.997 E0.7678
G1 X131.340 Y141.997 E0.9345
G1 X131.140 Y141.997 F2748
G1 X130.790 Y142.347 F6000
G92 E0.0000
G1 X130.790 Y123.628 E0.3105 F2748
G1 X141.738 Y123.628 E0.4921
G1 X141.738 Y142.347 E0.8027
G1 X130.990 Y142.347 E0.9810
G1 X130.790 Y142.347 F2748
; feature outer perimeter
G1 X130.440 Y142.697 F6000
G92 E0.0000
G1 X130.440 Y123.278 E0.3221 F1832
G1 X142.088 Y123.278 E0.5154
G1 X142.088 Y142.697 E0.8375
