; G-Code generated by Simplify3D(R) Version 4.1.2
;
;
;
;
; Jul 26, 2023 at 9:35:03 PM
; Settings Summary
;   processName,PLA C01
;   applyToModels,Support Zyxel XGS1210-12_Test
;   profileName,PLA_C01_04_10_OS180_05 Tevo Tornado
;   profileVersion,2023-07-25 15:27:17
;   baseProfile,Creality CR-10(2)
;   printMaterial,PLA
;   printQuality,High
;   printExtruders,
;   extruderName,Primary Extruder
;   extruderToolheadNumber,0
;   extruderDiameter,0.4
;   extruderAutoWidth,0
;   extruderWidth,0.35
;   extrusionMultiplier,0.95
;   extruderUseRetract,1
;   extruderRetractionDistance,3.8
;   extruderExtraRestartDistance,0
;   extruderRetractionZLift,0.3
;   extruderRetractionSpeed,3000
;   extruderUseCoasting,1
;   extruderCoastingDistance,0.2
;   extruderUseWipe,0
;   extruderWipeDistance,5
;   primaryExtruder,0
;   layerHeight,0.12
;   topSolidLayers,6
;   bottomSolidLayers,6
;   perimeterOutlines,4
;   printPerimetersInsideOut,1
;   startPointOption,2
;   startPointOriginX,0
;   startPointOriginY,300
;   sequentialIslands,0
;   spiralVaseMode,0
;   firstLayerHeightPercentage,120
;   firstLayerWidthPercentage,100
;   firstLayerUnderspeed,0.25
;   useRaft,0
;   raftExtruder,0
;   raftTopLayers,3
;   raftBaseLayers,2
;   raftOffset,3
;   raftSeparationDistance,0.14
;   raftTopInfill,100
;   aboveRaftSpeedMultiplier,0.3
;   useSkirt,1
;   skirtExtruder,0
;   skirtLayers,2
;   skirtOutlines,2
;   skirtOffset,3
;   usePrimePillar,0
;   primePillarExtruder,999
;   primePillarWidth,12
;   primePillarLocation,7
;   primePillarSpeedMultiplier,1
;   useOozeShield,0
;   oozeShieldExtruder,999
;   oozeShieldOffset,2
;   oozeShieldOutlines,1
;   oozeShieldSidewallShape,1
;   oozeShieldSidewallAngle,30
;   oozeShieldSpeedMultiplier,1
;   infillExtruder,0
;   internalInfillPattern,Fast Honeycomb
;   externalInfillPattern,Rectilinear
;   infillPercentage,10
;   outlineOverlapPercentage,15
;   infillExtrusionWidthPercentage,100
;   minInfillLength,5
;   infillLayerInterval,1
;   internalInfillAngles,0
;   overlapInternalInfillAngles,0
;   externalInfillAngles,45,-45
;   generateSupport,0
;   supportExtruder,0
;   supportInfillPercentage,40
;   supportExtraInflation,0
;   supportBaseLayers,0
;   denseSupportExtruder,0
;   denseSupportLayers,0
;   denseSupportInfillPercentage,70
;   supportLayerInterval,1
;   supportHorizontalPartOffset,0.4
;   supportUpperSeparationLayers,1
;   supportLowerSeparationLayers,1
;   supportType,0
;   supportGridSpacing,4.5
;   maxOverhangAngle,45
;   supportAngles,0
;   temperatureName,Primary Extruder,Heated Bed
;   temperatureNumber,0,0
;   temperatureSetpointCount,2,2
;   temperatureSetpointLayers,1,2,1,2
;   temperatureSetpointTemperatures,185,180,10,5
;   temperatureStabilizeAtStartup,1,1
;   temperatureHeatedBed,0,1
;   fanLayers,1,2
;   fanSpeeds,0,100
;   blipFanToFullPower,0
;   adjustSpeedForCooling,1
;   minSpeedLayerTime,15
;   minCoolingSpeedSlowdown,20
;   increaseFanForCooling,1
;   minFanLayerTime,25
;   maxCoolingFanSpeed,100
;   increaseFanForBridging,1
;   bridgingFanSpeed,100
;   use5D,1
;   relativeEdistances,0
;   allowEaxisZeroing,1
;   independentExtruderAxes,0
;   includeM10123,0
;   stickySupport,1
;   applyToolheadOffsets,0
;   gcodeXoffset,0
;   gcodeYoffset,0
;   gcodeZoffset,0
;   overrideMachineDefinition,1
;   machineTypeOverride,0
;   strokeXoverride,300
;   strokeYoverride,300
;   strokeZoverride,400
;   originOffsetXoverride,0
;   originOffsetYoverride,0
;   originOffsetZoverride,0
;   homeXdirOverride,-1
;   homeYdirOverride,-1
;   homeZdirOverride,-1
;   flipXoverride,1
;   flipYoverride,-1
;   flipZoverride,1
;   toolheadOffsets,0,0|0,0|0,0|0,0|0,0|0,0
;   overrideFirmwareConfiguration,1
;   firmwareTypeOverride,RepRap (Marlin/Repetier/Sprinter)
;   GPXconfigOverride,r2
;   baudRateOverride,250000
;   overridePrinterModels,1
;   printerModelsOverride
;   startingGcode,;,; -]H.P.B[- MarshMalloW  ,; $VER: StartScript 1.03 (18.12.2022) MarshMalloW,;,; Begin Startcode,;,M117 *Preheat*	; Preheat,;extruder0_temperature,M104 S[extruder0_temperature],M109 S[extruder0_temperature],;M109 R[extruder0_temperature] ,;,M117 *Auto-leveling*     	; Auto-leveling,M107                   	; Turn layer fan off,G21                    	; Set to metric [change to G20 if you want Imperial],G90                    	; Force coordinates to be absolute relative to the origin,G28                    	; Home X/Y/Z axis,G29                    	; Auto-leveling (BL-Touch),;,M117 *Start Clean*     	; Indicate nozzle clean in progress on LCD,G92 E0                 	; Set Extruder to 0 ,G1 X0 Y0 F2000         	; Move X and Y to 0 with speed 2000 (mm/min),G1 Z0.1 F1000          	; Move Z to   0.1 with speed 1000 (mm/min),G1 X8.0 F2000          	; Move X to   8.0 with speed 2000 (mm/min),G1 Y60.0 E4.0 F1000.0  	; Move Y to  60 and Extruder with 4.0 with speed 1000 (mm/min),G1 Y100.0 E8.5 F1000.0 	; Move Y to 100 and Extruder with 8.5 with speed 1000 (mm/min),G92 E0                 	; Set extruder to 0,G1 X16.0 F3000         	; Move X to 16.0 with speed 3000 (mm/min),G1 Y60.0 F3000         	; Move Y to 60.0 with speed 3000 (mm/min),M117 *End Clean*       	; Indicate nozzle clean in progress on LCD,G1 Z5 F3000            	; Move Z to  5.0 with speed 3000 (mm/min),G1 X20.0 F3000         	; Move X to 20.0 with speed 3000 (mm/min),G1 Y20.0 F3000         	; Move Y to 20.0 with speed 3000 (mm/min),; ,M117 *Printing...*     	; Start printing msg on LCD,;,; End Startcode,;,; Begin printing with sliced GCode after here,;
;   layerChangeGcode,
;   retractionGcode,
;   toolChangeGcode,
;   endingGcode,;,; init 181010,;,;M107 			; Fan off,;G1 E-1 F300 			; Retract the filament a bit before lifting the nozzle,;M104 S0 			; Turn off extruder,;M140 S0 			; Turn off bed,;G91			; Relative positioning,;G28 X0 Y0 			; Move X/Y to min endstops so the head is out of teh way,;M84 			; Disable motors,;G90 			; Absolute positioning,;M117 Print ready...,,;,; // From Cura 181010,; // End_gcode,G92 E0			; Zero the extruded length,;G1 E-30 F300		; Retract E -30,M106 S0			; Turn off cooling fan,M104 S0			; Turn off temperature,M140 S0		     	; Turn off bed,G91			; Relative positioning,G1 E-1 F300			; Retract the filament a bit before lifting the nozzle to release some of the pressure,G1 Z+20 E-5 X-20 Y-20 F7200	; Move Z up a bit and retract filament even more,G1 X0 Y150 F10000		; Move right min,M107			; Turn off layer fan,M84			; Disable motors,G90			; Absolute positioning,M117 *The-End* 		; End msg,;,
;   exportFileFormat,gcode
;   celebration,0
;   celebrationSong,Star Wars
;   postProcessing,D:\S3D_Thumbs\S3D_Thumbs.exe f="[output_filepath]" x=600 y=110 w=953 lw=400 lh=300 sw=32 sh=32 d=Y
;   defaultSpeed,4200
;   outlineUnderspeed,0.5
;   solidInfillUnderspeed,0.8
;   supportUnderspeed,0.8
;   rapidXYspeed,6000
;   rapidZspeed,1002
;   minBridgingArea,50
;   bridgingExtraInflation,0.2
;   bridgingExtrusionMultiplier,1
;   bridgingSpeedMultiplier,0.8
;   useFixedBridgingAngle,0
;   fixedBridgingAngle,0
;   applyBridgingToPerimeters,0
;   filamentDiameters,1.75|1.75|1.75|1.75|1.75|1.75
;   filamentPricesPerKg,30|46|46|46|46|46
;   filamentDensities,1.25|1.25|1.25|1.25|1.25|1.25
;   useMinPrintHeight,0
;   minPrintHeight,0
;   useMaxPrintHeight,0
;   maxPrintHeight,50
;   useDiaphragm,0
;   diaphragmLayerInterval,20
;   robustSlicing,1
;   mergeAllIntoSolid,0
;   onlyRetractWhenCrossingOutline,1
;   retractBetweenLayers,1
;   useRetractionMinTravel,0
;   retractionMinTravel,3
;   retractWhileWiping,1
;   onlyWipeOutlines,1
;   avoidCrossingOutline,0
;   maxMovementDetourFactor,3
;   toolChangeRetractionDistance,12
;   toolChangeExtraRestartDistance,-0.5
;   toolChangeRetractionSpeed,600
;   externalThinWallType,1
;   internalThinWallType,1
;   thinWallAllowedOverlapPercentage,10
;   singleExtrusionMinLength,1
;   singleExtrusionMinPrintingWidthPercentage,50
;   singleExtrusionMaxPrintingWidthPercentage,200
;   singleExtrusionEndpointExtension,0.2
;   horizontalSizeCompensation,0
G90
M82
M106 S0
M140 S10
;
; -]H.P.B[- MarshMalloW  
; $VER: StartScript 1.03 (18.12.2022) MarshMalloW
;
; Begin Startcode
;
M117 *Preheat*	; Preheat
;extruder0_temperature
M104 S185
M109 S185
;M109 R185 
;
M117 *Auto-leveling*     	; Auto-leveling
M107                   	; Turn layer fan off
G21                    	; Set to metric [change to G20 if you want Imperial]
G90                    	; Force coordinates to be absolute relative to the origin
G28                    	; Home X/Y/Z axis
G29                    	; Auto-leveling (BL-Touch)
;
M117 *Start Clean*     	; Indicate nozzle clean in progress on LCD
G92 E0                 	; Set Extruder to 0 
G1 X0 Y0 F2000         	; Move X and Y to 0 with speed 2000 (mm/min)
G1 Z0.1 F1000          	; Move Z to   0.1 with speed 1000 (mm/min)
G1 X8.0 F2000          	; Move X to   8.0 with speed 2000 (mm/min)
G1 Y60.0 E4.0 F1000.0  	; Move Y to  60 and Extruder with 4.0 with speed 1000 (mm/min)
G1 Y100.0 E8.5 F1000.0 	; Move Y to 100 and Extruder with 8.5 with speed 1000 (mm/min)
G92 E0                 	; Set extruder to 0
G1 X16.0 F3000         	; Move X to 16.0 with speed 3000 (mm/min)
G1 Y60.0 F3000         	; Move Y to 60.0 with speed 3000 (mm/min)
M117 *End Clean*       	; Indicate nozzle clean in progress on LCD
G1 Z5 F3000            	; Move Z to  5.0 with speed 3000 (mm/min)
G1 X20.0 F3000         	; Move X to 20.0 with speed 3000 (mm/min)
G1 Y20.0 F3000         	; Move Y to 20.0 with speed 3000 (mm/min)
; 
M117 *Printing...*     	; Start printing msg on LCD
;
; End Startcode
;
; Begin printing with sliced GCode after here
;
; process PLA C01
; layer 1, Z = 0.144
T0
G92 E0.0000
G1 E-3.8000 F3000
; feature skirt
; tool H0.144 W0.350
G1 Z0.300 F1002
G1 X112.237 Y90.161 F6000
G1 Z0.144 F1002
G1 E0.0000 F3000
G92 E0.0000
G1 X112.650 Y89.657 E0.0130 F1050
G1 X112.767 Y89.529 E0.0164
G1 X120.245 Y82.051 E0.2269
G1 X120.822 Y81.665 E0.2408
G1 X124.878 Y79.985 E0.3282
G1 X125.559 Y79.850 E0.3420
G1 X190.505 Y79.850 E1.6348
G1 X192.570 Y81.914 E1.6929
G1 X192.570 Y136.035 E2.7703
G1 X190.505 Y138.100 E2.8284
G1 X125.559 Y138.100 E4.1212
G1 X124.878 Y137.964 E4.1350
G1 X120.822 Y136.284 E4.2224
G1 X120.245 Y135.898 E4.2363
G1 X112.767 Y128.420 E4.4468
G1 X112.650 Y128.292 E4.4502
G1 X112.237 Y127.788 E4.4632
G1 X112.044 Y127.500 E4.4701
G1 X111.696 Y126.849 E4.4848
G1 X111.564 Y126.529 E4.4917
G1 X111.350 Y125.822 E4.5064
G1 X111.282 Y125.483 E4.5133
G1 X111.210 Y124.748 E4.5280
G1 X111.210 Y124.401 E4.5349
G1 X111.282 Y123.666 E4.5496
G1 X111.350 Y123.327 E4.5565
G1 X111.564 Y122.620 E4.5712
G1 X111.696 Y122.300 E4.5781
G1 X112.045 Y121.649 E4.5928
G1 X112.237 Y121.361 E4.5996
G1 X112.705 Y120.790 E4.6143
G1 X112.950 Y120.545 E4.6212
G1 X113.504 Y120.091 E4.6355
G1 X113.754 Y119.920 E4.6415
G1 X114.254 Y119.636 E4.6530
G1 X114.490 Y119.524 E4.6582
G1 X115.007 Y119.325 E4.6692
G1 X115.255 Y119.250 E4.6744
G1 X115.795 Y119.128 E4.6854
G1 X116.053 Y119.090 E4.6906
G1 X116.540 Y119.054 E4.7003
G1 X116.670 Y119.050 E4.7029
G1 X180.378 Y119.050 E5.9711
G1 X180.381 Y98.902 E6.3721
G1 X116.670 Y98.900 E7.6404
G1 X116.540 Y98.895 E7.6430
G1 X116.053 Y98.859 E7.6527
G1 X115.795 Y98.821 E7.6579
G1 X115.255 Y98.699 E7.6689
G1 X115.007 Y98.624 E7.6741
G1 X114.490 Y98.425 E7.6851
G1 X114.254 Y98.313 E7.6903
G1 X113.754 Y98.029 E7.7017
G1 X113.504 Y97.858 E7.7077
G1 X112.950 Y97.404 E7.7220
G1 X112.705 Y97.159 E7.7289
G1 X112.237 Y96.588 E7.7436
G1 X112.044 Y96.300 E7.7505
G1 X111.696 Y95.649 E7.7652
G1 X111.564 Y95.329 E7.7721
G1 X111.350 Y94.622 E7.7868
G1 X111.282 Y94.283 E7.7937
G1 X111.210 Y93.548 E7.8084
G1 X111.210 Y93.201 E7.8153
G1 X111.282 Y92.466 E7.8300
G1 X111.350 Y92.127 E7.8369
G1 X111.564 Y91.420 E7.8516
G1 X111.696 Y91.100 E7.8585
G1 X112.044 Y90.449 E7.8732
G1 X112.237 Y90.161 E7.8801
G92 E0.0000
G1 E-3.8000 F3000
G1 Z0.444 F1002
G1 X112.518 Y90.370 F6000
G1 Z0.144 F1002
G1 E0.0000 F3000
G92 E0.0000
G1 X112.915 Y89.886 E0.0125 F1050
G1 X113.020 Y89.770 E0.0156
G1 X120.468 Y82.323 E0.2252
G1 X120.988 Y81.975 E0.2377
G1 X124.980 Y80.322 E0.3237
G1 X125.593 Y80.200 E0.3361
G1 X190.360 Y80.200 E1.6254
G1 X192.220 Y82.059 E1.6778
G1 X192.220 Y135.890 E2.7493
G1 X190.360 Y137.750 E2.8017
G1 X125.593 Y137.750 E4.0909
G1 X124.980 Y137.628 E4.1034
G1 X120.988 Y135.974 E4.1894
G1 X120.468 Y135.626 E4.2018
G1 X113.020 Y128.179 E4.4115
G1 X112.915 Y128.063 E4.4146
G1 X112.518 Y127.579 E4.4271
G1 X112.345 Y127.320 E4.4333
G1 X112.013 Y126.699 E4.4473
G1 X111.894 Y126.411 E4.4535
G1 X111.689 Y125.737 E4.4675
G1 X111.629 Y125.432 E4.4737
G1 X111.560 Y124.731 E4.4877
G1 X111.560 Y124.418 E4.4940
G1 X111.629 Y123.718 E4.5080
G1 X111.689 Y123.412 E4.5142
G1 X111.894 Y122.738 E4.5282
G1 X112.013 Y122.450 E4.5344
G1 X112.345 Y121.829 E4.5484
G1 X112.518 Y121.570 E4.5546
G1 X112.965 Y121.026 E4.5686
G1 X113.186 Y120.805 E4.5749
G1 X113.715 Y120.371 E4.5885
G1 X113.939 Y120.217 E4.5939
G1 X114.416 Y119.947 E4.6048
G1 X114.628 Y119.846 E4.6095
G1 X115.121 Y119.656 E4.6200
G1 X115.344 Y119.588 E4.6246
G1 X115.859 Y119.473 E4.6352
G1 X116.091 Y119.438 E4.6398
G1 X116.560 Y119.404 E4.6492
G1 X116.676 Y119.400 E4.6515
G1 X180.728 Y119.400 E5.9265
G1 X180.731 Y98.552 E6.3415
G1 X116.676 Y98.549 E7.6166
G1 X116.560 Y98.545 E7.6189
G1 X116.091 Y98.511 E7.6283
G1 X115.859 Y98.476 E7.6329
G1 X115.344 Y98.361 E7.6434
G1 X115.121 Y98.293 E7.6481
G1 X114.628 Y98.103 E7.6586
G1 X114.416 Y98.002 E7.6633
G1 X113.939 Y97.732 E7.6742
G1 X113.715 Y97.578 E7.6796
G1 X113.186 Y97.144 E7.6932
G1 X112.965 Y96.923 E7.6994
G1 X112.518 Y96.379 E7.7135
G1 X112.345 Y96.120 E7.7197
G1 X112.013 Y95.499 E7.7337
G1 X111.894 Y95.211 E7.7399
G1 X111.689 Y94.537 E7.7539
G1 X111.629 Y94.232 E7.7601
G1 X111.560 Y93.531 E7.7741
G1 X111.560 Y93.218 E7.7803
G1 X111.629 Y92.517 E7.7944
G1 X111.689 Y92.212 E7.8006
G1 X111.894 Y91.538 E7.8146
G1 X112.013 Y91.250 E7.8208
G1 X112.345 Y90.629 E7.8348
G1 X112.518 Y90.370 E7.8410
G92 E0.0000
G1 E-3.8000 F3000
; feature inner perimeter
G1 Z0.444 F1002
G1 X116.095 Y92.947 F6000
G1 Z0.144 F1002
G1 E0.0000 F3000
G92 E0.0000
G1 X116.229 Y92.784 E0.0042 F788
G1 X123.186 Y85.827 E0.2000
G1 X126.150 Y84.600 E0.2639
G1 X187.820 Y84.600 E1.4915
G1 X187.820 Y133.350 E2.4620
G1 X126.150 Y133.350 E3.6896
G1 X123.186 Y132.122 E3.7534
G1 X116.229 Y125.165 E3.9493
G1 X116.095 Y125.002 E3.9535
G1 X116.024 Y124.869 E3.9565
G1 X115.980 Y124.725 E3.9595
G1 X115.965 Y124.574 E3.9625
G1 X115.980 Y124.424 E3.9655
G1 X116.024 Y124.280 E3.9685
G1 X116.095 Y124.147 E3.9715
G1 X116.191 Y124.031 E3.9745
G1 X116.319 Y123.925 E3.9778
G1 X116.405 Y123.877 E3.9798
G1 X116.511 Y123.836 E3.9820
G1 X116.621 Y123.811 E3.9843
G1 X116.779 Y123.800 E3.9874
G1 X181.451 Y123.800 E5.2748
G1 X181.953 Y123.762 E5.2848
G1 X182.488 Y123.642 E5.2957
G1 X182.986 Y123.450 E5.3064
G1 X183.322 Y123.271 E5.3139
G1 X183.638 Y123.059 E5.3215
G1 X184.031 Y122.721 E5.3318
G1 X184.297 Y122.427 E5.3397
G1 X184.595 Y122.004 E5.3500
G1 X184.782 Y121.654 E5.3579
G1 X184.974 Y121.157 E5.3685
G1 X185.091 Y120.636 E5.3792
G1 X185.128 Y120.257 E5.3867
G1 X185.131 Y97.845 E5.8329
G1 X185.115 Y97.509 E5.8396
G1 X185.061 Y97.148 E5.8468
G1 X184.972 Y96.793 E5.8541
G1 X184.849 Y96.449 E5.8614
G1 X184.693 Y96.118 E5.8687
G1 X184.505 Y95.804 E5.8760
G1 X184.287 Y95.510 E5.8832
G1 X184.041 Y95.239 E5.8905
G1 X183.770 Y94.994 E5.8978
G1 X183.464 Y94.767 E5.9054
G1 X183.013 Y94.512 E5.9157
G1 X182.661 Y94.366 E5.9233
G1 X182.311 Y94.260 E5.9306
G1 X181.953 Y94.188 E5.9378
G1 X181.589 Y94.153 E5.9451
G1 X116.780 Y94.150 E7.2352
G1 X116.621 Y94.138 E7.2384
G1 X116.511 Y94.113 E7.2406
G1 X116.405 Y94.072 E7.2429
G1 X116.319 Y94.024 E7.2449
G1 X116.191 Y93.918 E7.2482
G1 X116.095 Y93.802 E7.2512
G1 X116.024 Y93.669 E7.2542
G1 X115.980 Y93.525 E7.2572
G1 X115.965 Y93.374 E7.2602
G1 X115.980 Y93.224 E7.2632
G1 X116.010 Y93.127 E7.2652
G1 X116.024 Y93.080 F788
G1 X116.095 Y92.947
G1 X115.803 Y92.752 F6000
G92 E0.0000
G1 X115.969 Y92.549 E0.0052 F788
G1 X122.988 Y85.531 E0.2028
