; G-Code generated by Simplify3D(R) Version 4.1.2
;
;
;
;
; Jul 26, 2023 at 5:15:44 PM
; Settings Summary
;   processName,PLA C01
;   applyToModels,Support Zyxel XGS1210-12_Test
;   profileName,PLA_C01_04_50_OS180_05 Tevo Tornado
;   profileVersion,2023-07-25 16:48:30
;   baseProfile,Creality CR-10(2)
;   printMaterial,PLA
;   printQuality,High
;   printExtruders,
;   extruderName,Primary Extruder
;   extruderToolheadNumber,0
;   extruderDiameter,0.4
;   extruderAutoWidth,0
;   extruderWidth,0.35
;   extrusionMultiplier,0.95
;   extruderUseRetract,1
;   extruderRetractionDistance,3.8
;   extruderExtraRestartDistance,0
;   extruderRetractionZLift,0.3
;   extruderRetractionSpeed,3000
;   extruderUseCoasting,1
;   extruderCoastingDistance,0.2
;   extruderUseWipe,0
;   extruderWipeDistance,5
;   primaryExtruder,0
;   layerHeight,0.12
;   topSolidLayers,6
;   bottomSolidLayers,6
;   perimeterOutlines,4
;   printPerimetersInsideOut,1
;   startPointOption,2
;   startPointOriginX,0
;   startPointOriginY,300
;   sequentialIslands,0
;   spiralVaseMode,0
;   firstLayerHeightPercentage,120
;   firstLayerWidthPercentage,100
;   firstLayerUnderspeed,0.25
;   useRaft,0
;   raftExtruder,0
;   raftTopLayers,3
;   raftBaseLayers,2
;   raftOffset,3
;   raftSeparationDistance,0.14
;   raftTopInfill,100
;   aboveRaftSpeedMultiplier,0.3
;   useSkirt,1
;   skirtExtruder,0
;   skirtLayers,2
;   skirtOutlines,2
;   skirtOffset,3
;   usePrimePillar,0
;   primePillarExtruder,999
;   primePillarWidth,12
;   primePillarLocation,7
;   primePillarSpeedMultiplier,1
;   useOozeShield,0
;   oozeShieldExtruder,999
;   oozeShieldOffset,2
;   oozeShieldOutlines,1
;   oozeShieldSidewallShape,1
;   oozeShieldSidewallAngle,30
;   oozeShieldSpeedMultiplier,1
;   infillExtruder,0
;   internalInfillPattern,Fast Honeycomb
;   externalInfillPattern,Rectilinear
;   infillPercentage,50
;   outlineOverlapPercentage,15
;   infillExtrusionWidthPercentage,100
;   minInfillLength,5
;   infillLayerInterval,1
;   internalInfillAngles,0
;   overlapInternalInfillAngles,0
;   externalInfillAngles,45,-45
;   generateSupport,0
;   supportExtruder,0
;   supportInfillPercentage,40
;   supportExtraInflation,0
;   supportBaseLayers,0
;   denseSupportExtruder,0
;   denseSupportLayers,0
;   denseSupportInfillPercentage,70
;   supportLayerInterval,1
;   supportHorizontalPartOffset,0.4
;   supportUpperSeparationLayers,1
;   supportLowerSeparationLayers,1
;   supportType,0
;   supportGridSpacing,4.5
;   maxOverhangAngle,45
;   supportAngles,0
;   temperatureName,Primary Extruder,Heated Bed
;   temperatureNumber,0,0
;   temperatureSetpointCount,2,2
;   temperatureSetpointLayers,1,2,1,2
;   temperatureSetpointTemperatures,185,180,10,5
;   temperatureStabilizeAtStartup,1,1
;   temperatureHeatedBed,0,1
;   fanLayers,1,2
;   fanSpeeds,0,100
;   blipFanToFullPower,0
;   adjustSpeedForCooling,1
;   minSpeedLayerTime,15
;   minCoolingSpeedSlowdown,20
;   increaseFanForCooling,1
;   minFanLayerTime,25
;   maxCoolingFanSpeed,100
;   increaseFanForBridging,1
;   bridgingFanSpeed,100
;   use5D,1
;   relativeEdistances,0
;   allowEaxisZeroing,1
;   independentExtruderAxes,0
;   includeM10123,0
;   stickySupport,1
;   applyToolheadOffsets,0
;   gcodeXoffset,0
;   gcodeYoffset,0
;   gcodeZoffset,0
;   overrideMachineDefinition,1
;   machineTypeOverride,0
;   strokeXoverride,300
;   strokeYoverride,300
;   strokeZoverride,400
;   originOffsetXoverride,0
;   originOffsetYoverride,0
;   originOffsetZoverride,0
;   homeXdirOverride,-1
;   homeYdirOverride,-1
;   homeZdirOverride,-1
;   flipXoverride,1
;   flipYoverride,-1
;   flipZoverride,1
;   toolheadOffsets,0,0|0,0|0,0|0,0|0,0|0,0
;   overrideFirmwareConfiguration,1
;   firmwareTypeOverride,RepRap (Marlin/Repetier/Sprinter)
;   GPXconfigOverride,r2
;   baudRateOverride,250000
;   overridePrinterModels,1
;   printerModelsOverride
;   startingGcode,;,; -]H.P.B[- MarshMalloW  ,; $VER: StartScript 1.03 (18.12.2022) MarshMalloW,;,; Begin Startcode,;,M117 *Preheat*	; Preheat,;extruder0_temperature,M104 S[extruder0_temperature],M109 S[extruder0_temperature],;M109 R[extruder0_temperature] ,;,M117 *Auto-leveling*     	; Auto-leveling,M107                   	; Turn layer fan off,G21                    	; Set to metric [change to G20 if you want Imperial],G90                    	; Force coordinates to be absolute relative to the origin,G28                    	; Home X/Y/Z axis,G29                    	; Auto-leveling (BL-Touch),;,M117 *Start Clean*     	; Indicate nozzle clean in progress on LCD,G92 E0                 	; Set Extruder to 0 ,G1 X0 Y0 F2000         	; Move X and Y to 0 with speed 2000 (mm/min),G1 Z0.1 F1000          	; Move Z to   0.1 with speed 1000 (mm/min),G1 X8.0 F2000          	; Move X to   8.0 with speed 2000 (mm/min),G1 Y60.0 E4.0 F1000.0  	; Move Y to  60 and Extruder with 4.0 with speed 1000 (mm/min),G1 Y100.0 E8.5 F1000.0 	; Move Y to 100 and Extruder with 8.5 with speed 1000 (mm/min),G92 E0                 	; Set extruder to 0,G1 X16.0 F3000         	; Move X to 16.0 with speed 3000 (mm/min),G1 Y60.0 F3000         	; Move Y to 60.0 with speed 3000 (mm/min),M117 *End Clean*       	; Indicate nozzle clean in progress on LCD,G1 Z5 F3000            	; Move Z to  5.0 with speed 3000 (mm/min),G1 X20.0 F3000         	; Move X to 20.0 with speed 3000 (mm/min),G1 Y20.0 F3000         	; Move Y to 20.0 with speed 3000 (mm/min),; ,M117 *Printing...*     	; Start printing msg on LCD,;,; End Startcode,;,; Begin printing with sliced GCode after here,;
;   layerChangeGcode,
;   retractionGcode,
;   toolChangeGcode,
;   endingGcode,;,; init 181010,;,;M107 			; Fan off,;G1 E-1 F300 			; Retract the filament a bit before lifting the nozzle,;M104 S0 			; Turn off extruder,;M140 S0 			; Turn off bed,;G91			; Relative positioning,;G28 X0 Y0 			; Move X/Y to min endstops so the head is out of teh way,;M84 			; Disable motors,;G90 			; Absolute positioning,;M117 Print ready...,,;,; // From Cura 181010,; // End_gcode,G92 E0			; Zero the extruded length,;G1 E-30 F300		; Retract E -30,M106 S0			; Turn off cooling fan,M104 S0			; Turn off temperature,M140 S0		     	; Turn off bed,G91			; Relative positioning,G1 E-1 F300			; Retract the filament a bit before lifting the nozzle to release some of the pressure,G1 Z+20 E-5 X-20 Y-20 F7200	; Move Z up a bit and retract filament even more,G1 X0 Y150 F10000		; Move right min,M107			; Turn off layer fan,M84			; Disable motors,G90			; Absolute positioning,M117 *The-End* 		; End msg,;,
;   exportFileFormat,gcode
;   celebration,0
;   celebrationSong,Star Wars
;   postProcessing,D:\S3D_Thumbs\S3D_Thumbs.exe f="[output_filepath]" x=600 y=110 w=953 lw=400 lh=300 sw=32 sh=32 d=Y
;   defaultSpeed,4200
;   outlineUnderspeed,0.5
;   solidInfillUnderspeed,0.8
;   supportUnderspeed,0.8
;   rapidXYspeed,6000
;   rapidZspeed,1002
;   minBridgingArea,50
;   bridgingExtraInflation,0.2
;   bridgingExtrusionMultiplier,1
;   bridgingSpeedMultiplier,0.8
;   useFixedBridgingAngle,0
;   fixedBridgingAngle,0
;   applyBridgingToPerimeters,0
;   filamentDiameters,1.75|1.75|1.75|1.75|1.75|1.75
;   filamentPricesPerKg,30|46|46|46|46|46
;   filamentDensities,1.25|1.25|1.25|1.25|1.25|1.25
;   useMinPrintHeight,0
;   minPrintHeight,0
;   useMaxPrintHeight,0
;   maxPrintHeight,50
;   useDiaphragm,0
;   diaphragmLayerInterval,20
;   robustSlicing,1
;   mergeAllIntoSolid,0
;   onlyRetractWhenCrossingOutline,1
;   retractBetweenLayers,1
;   useRetractionMinTravel,0
;   retractionMinTravel,3
;   retractWhileWiping,1
;   onlyWipeOutlines,1
;   avoidCrossingOutline,0
;   maxMovementDetourFactor,3
;   toolChangeRetractionDistance,12
;   toolChangeExtraRestartDistance,-0.5
;   toolChangeRetractionSpeed,600
;   externalThinWallType,1
;   internalThinWallType,1
;   thinWallAllowedOverlapPercentage,10
;   singleExtrusionMinLength,1
;   singleExtrusionMinPrintingWidthPercentage,50
;   singleExtrusionMaxPrintingWidthPercentage,200
;   singleExtrusionEndpointExtension,0.2
;   horizontalSizeCompensation,0
G90
M82
M106 S0
M140 S10
;
; -]H.P.B[- MarshMalloW  
; $VER: StartScript 1.03 (18.12.2022) MarshMalloW
;
; Begin Startcode
;
M117 *Preheat*	; Preheat
;extruder0_temperature
M104 S185
M109 S185
;M109 R185 
;
M117 *Auto-leveling*     	; Auto-leveling
M107                   	; Turn layer fan off
G21                    	; Set to metric [change to G20 if you want Imperial]
G90                    	; Force coordinates to be absolute relative to the origin
G28                    	; Home X/Y/Z axis
G29                    	; Auto-leveling (BL-Touch)
;
M117 *Start Clean*     	; Indicate nozzle clean in progress on LCD
G92 E0                 	; Set Extruder to 0 
G1 X0 Y0 F2000         	; Move X and Y to 0 with speed 2000 (mm/min)
G1 Z0.1 F1000          	; Move Z to   0.1 with speed 1000 (mm/min)
G1 X8.0 F2000          	; Move X to   8.0 with speed 2000 (mm/min)
G1 Y60.0 E4.0 F1000.0  	; Move Y to  60 and Extruder with 4.0 with speed 1000 (mm/min)
G1 Y100.0 E8.5 F1000.0 	; Move Y to 100 and Extruder with 8.5 with speed 1000 (mm/min)
G92 E0                 	; Set extruder to 0
G1 X16.0 F3000         	; Move X to 16.0 with speed 3000 (mm/min)
G1 Y60.0 F3000         	; Move Y to 60.0 with speed 3000 (mm/min)
M117 *End Clean*       	; Indicate nozzle clean in progress on LCD
G1 Z5 F3000            	; Move Z to  5.0 with speed 3000 (mm/min)
G1 X20.0 F3000         	; Move X to 20.0 with speed 3000 (mm/min)
G1 Y20.0 F3000         	; Move Y to 20.0 with speed 3000 (mm/min)
; 
M117 *Printing...*     	; Start printing msg on LCD
;
; End Startcode
;
; Begin printing with sliced GCode after here
;
; process PLA C01
; layer 1, Z = 0.144
T0
G92 E0.0000
G1 E-3.8000 F3000
; feature skirt
; tool H0.144 W0.350
G1 Z0.300 F1002
G1 X110.624 Y85.168 F6000
G1 Z0.144 F1002
G1 E0.0000 F3000
G92 E0.0000
G1 X112.689 Y83.103 E0.0581 F1050
G1 X178.364 Y83.103 E1.3655
G1 X180.429 Y85.168 E1.4236
G1 X180.429 Y100.088 E1.7206
G1 X178.364 Y102.153 E1.7787
G1 X112.689 Y102.153 E3.0861
G1 X110.624 Y100.088 E3.1442
G1 X110.624 Y85.168 E3.4412
G92 E0.0000
G1 E-3.8000 F3000
G1 Z0.444 F1002
G1 X110.974 Y85.313 F6000
G1 Z0.144 F1002
G1 E0.0000 F3000
G92 E0.0000
G1 X112.834 Y83.453 E0.0524 F1050
G1 X178.219 Y83.453 E1.3539
G1 X180.079 Y85.313 E1.4063
G1 X180.079 Y99.943 E1.6975
G1 X178.219 Y101.803 E1.7499
G1 X112.834 Y101.803 E3.0514
G1 X110.974 Y99.943 E3.1038
G1 X110.974 Y85.313 E3.3950
G92 E0.0000
G1 E-3.8000 F3000
; feature inner perimeter
G1 Z0.444 F1002
G1 X115.374 Y87.853 F6000
G1 Z0.144 F1002
G1 E0.0000 F3000
G92 E0.0000
G1 X175.679 Y87.853 E1.2004 F788
G1 X175.679 Y97.403 E1.3905
G1 X115.374 Y97.403 E2.5910
G1 X115.374 Y88.053 E2.7771
G1 X115.374 Y87.853 F788
G1 X115.024 Y87.503 F6000
G92 E0.0000
G1 X176.029 Y87.503 E1.2144 F788
G1 X176.029 Y97.753 E1.4184
G1 X115.024 Y97.753 E2.6328
G1 X115.024 Y87.703 E2.8328
G1 X115.024 Y87.503 F788
G1 X114.674 Y87.153 F6000
G92 E0.0000
G1 X176.379 Y87.153 E1.2283 F788
G1 X176.379 Y98.103 E1.4463
G1 X114.674 Y98.103 E2.6746
G1 X114.674 Y87.353 E2.8886
G1 X114.674 Y87.153 F788
; feature outer perimeter
G1 X114.324 Y86.803 F6000
G92 E0.0000
G1 X176.729 Y86.803 E1.2422 F525
G1 X176.729 Y98.453 E1.4742
G1 X114.324 Y98.453 E2.7164
G1 X114.324 Y87.003 E2.9443
G1 X114.324 Y86.803 F525
; feature solid layer
G1 X115.851 Y97.105 F6000
G92 E0.0000
G1 X115.672 Y96.926 E0.0050 F840
G1 X115.672 Y96.431 E0.0149
G1 X116.346 Y97.105 E0.0339
G1 X116.841 Y97.105 E0.0437
G1 X115.672 Y95.936 E0.0766
G1 X115.672 Y95.441 E0.0865
G1 X117.336 Y97.105 E0.1333
G1 X117.831 Y97.105 E0.1432
G1 X115.672 Y94.946 E0.2040
G1 X115.672 Y94.451 E0.2138
G1 X118.326 Y97.105 E0.2886
G1 X118.821 Y97.105 E0.2984
G1 X115.672 Y93.956 E0.3871
G1 X115.672 Y93.461 E0.3969
G1 X119.316 Y97.105 E0.4995
G1 X119.811 Y97.105 E0.5093
G1 X115.672 Y92.966 E0.6259
G1 X115.672 Y92.471 E0.6357
G1 X120.306 Y97.105 E0.7662
G1 X120.800 Y97.105 E0.7760
G1 X115.672 Y91.976 E0.9204
G1 X115.672 Y91.482 E0.9303
G1 X121.295 Y97.105 E1.0886
G1 X121.790 Y97.105 E1.0984
G1 X115.672 Y90.987 E1.2707
G1 X115.672 Y90.492 E1.2806
G1 X122.285 Y97.105 E1.4667
G1 X122.780 Y97.105 E1.4766
G1 X115.672 Y89.997 E1.6767
G1 X115.672 Y89.502 E1.6866
G1 X123.275 Y97.105 E1.9006
G1 X123.770 Y97.105 E1.9105
G1 X115.672 Y89.007 E2.1385
G1 X115.672 Y88.512 E2.1483
G1 X124.265 Y97.105 E2.3903
G1 X124.760 Y97.105 E2.4001
G1 X115.805 Y88.150 E2.6522
G1 X116.300 Y88.150 E2.6621
G1 X125.255 Y97.105 E2.9142
G1 X125.750 Y97.105 E2.9240
G1 X116.795 Y88.150 E3.1761
G1 X117.290 Y88.150 E3.1860
G1 X126.245 Y97.105 E3.4381
G1 X126.740 Y97.105 E3.4479
G1 X117.785 Y88.150 E3.7000
G1 X118.280 Y88.150 E3.7099
G1 X127.235 Y97.105 E3.9620
G1 X127.730 Y97.105 E3.9718
G1 X118.775 Y88.150 E4.2239
G1 X119.270 Y88.150 E4.2338
G1 X128.225 Y97.105 E4.4859
G1 X128.720 Y97.105 E4.4957
G1 X119.765 Y88.150 E4.7478
G1 X120.260 Y88.150 E4.7577
G1 X129.215 Y97.105 E5.0098
G1 X129.710 Y97.105 E5.0196
G1 X120.755 Y88.150 E5.2717
G1 X121.250 Y88.150 E5.2816
G1 X130.205 Y97.105 E5.5337
G1 X130.700 Y97.105 E5.5435
G1 X121.745 Y88.150 E5.7956
G1 X122.240 Y88.150 E5.8055
G1 X131.195 Y97.105 E6.0576
G1 X131.690 Y97.105 E6.0674
G1 X122.735 Y88.150 E6.3195
G1 X123.230 Y88.150 E6.3294
G1 X132.185 Y97.105 E6.5815
G1 X132.680 Y97.105 E6.5913
G1 X123.725 Y88.150 E6.8434
G1 X124.220 Y88.150 E6.8533
G1 X133.175 Y97.105 E7.1054
G1 X133.670 Y97.105 E7.1152
G1 X124.715 Y88.150 E7.3673
G1 X125.210 Y88.150 E7.3772
G1 X134.165 Y97.105 E7.6293
G1 X134.660 Y97.105 E7.6391
G1 X125.705 Y88.150 E7.8912
G1 X126.200 Y88.150 E7.9011
G1 X135.155 Y97.105 E8.1532
G1 X135.650 Y97.105 E8.1630
G1 X126.695 Y88.150 E8.4151
G1 X127.190 Y88.150 E8.4250
G1 X136.145 Y97.105 E8.6771
G1 X136.640 Y97.105 E8.6869
G1 X127.685 Y88.150 E8.9390
G1 X128.180 Y88.150 E8.9489
G1 X137.135 Y97.105 E9.2010
G1 X137.630 Y97.105 E9.2108
G1 X128.675 Y88.150 E9.4629
G1 X129.170 Y88.150 E9.4728
G1 X138.125 Y97.105 E9.7249
G1 X138.620 Y97.105 E9.7347
G1 X129.665 Y88.150 E9.9868
G1 X130.160 Y88.150 E9.9967
G1 X139.115 Y97.105 E10.2488
G1 X139.610 Y97.105 E10.2586
G1 X130.655 Y88.150 E10.5107
G1 X131.150 Y88.150 E10.5206
G1 X140.104 Y97.105 E10.7727
G1 X140.599 Y97.105 E10.7825
G1 X131.644 Y88.150 E11.0346
G1 X132.139 Y88.150 E11.0445
G1 X141.094 Y97.105 E11.2966
G1 X141.589 Y97.105 E11.3064
G1 X132.634 Y88.150 E11.5585
G1 X133.129 Y88.150 E11.5684
G1 X142.084 Y97.105 E11.8205
G1 X142.579 Y97.105 E11.8303
G1 X133.624 Y88.150 E12.0824
G1 X134.119 Y88.150 E12.0923
G1 X143.074 Y97.105 E12.3444
G1 X143.569 Y97.105 E12.3542
G1 X134.614 Y88.150 E12.6063
G1 X135.109 Y88.150 E12.6162
G1 X144.064 Y97.105 E12.8683
G1 X144.559 Y97.105 E12.8781
G1 X135.604 Y88.150 E13.1302
G1 X136.099 Y88.150 E13.1401
G1 X145.054 Y97.105 E13.3922
G1 X145.549 Y97.105 E13.4020
G1 X136.594 Y88.150 E13.6541
G1 X137.089 Y88.150 E13.6640
G1 X146.044 Y97.105 E13.9161
G1 X146.539 Y97.105 E13.9259
G1 X137.584 Y88.150 E14.1780
G1 X138.079 Y88.150 E14.1879
G1 X147.034 Y97.105 E14.4400
G1 X147.529 Y97.105 E14.4498
G1 X138.574 Y88.150 E14.7019
G1 X139.069 Y88.150 E14.7118
G1 X148.024 Y97.105 E14.9639
G1 X148.519 Y97.105 E14.9737
G1 X139.564 Y88.150 E15.2258
G1 X140.059 Y88.150 E15.2357
G1 X149.014 Y97.105 E15.4878
G1 X149.509 Y97.105 E15.4976
G1 X140.554 Y88.150 E15.7497
G1 X141.049 Y88.150 E15.7596
G1 X150.004 Y97.105 E16.0117
G1 X150.499 Y97.105 E16.0215
G1 X141.544 Y88.150 E16.2736
G1 X142.039 Y88.150 E16.2835
G1 X150.994 Y97.105 E16.5356
G1 X151.489 Y97.105 E16.5454
G1 X142.534 Y88.150 E16.7975
G1 X143.029 Y88.150 E16.8074
G1 X151.984 Y97.105 E17.0595
G1 X152.479 Y97.105 E17.0693
G1 X143.524 Y88.150 E17.3214
G1 X144.019 Y88.150 E17.3313
G1 X152.974 Y97.105 E17.5834
G1 X153.469 Y97.105 E17.5932
G1 X144.514 Y88.150 E17.8453
G1 X145.009 Y88.150 E17.8552
G1 X153.964 Y97.105 E18.1073
G1 X154.459 Y97.105 E18.1171
G1 X145.504 Y88.150 E18.3692
G1 X145.999 Y88.150 E18.3791
G1 X154.954 Y97.105 E18.6312
G1 X155.449 Y97.105 E18.6410
G1 X146.494 Y88.150 E18.8931
G1 X146.989 Y88.150 E18.9030
G1 X155.944 Y97.105 E19.1551
G1 X156.439 Y97.105 E19.1649
G1 X147.484 Y88.150 E19.4170
