; G-Code generated by Simplify3D(R) Version 4.1.2
;
;
;
;
; Jul 26, 2023 at 4:10:22 PM
; Settings Summary
;   processName,PLA C01
;   applyToModels,Support Zyxel XGS1210-12_Test
;   profileName,PLA_C01_04_10_OS180_05 Tevo Tornado
;   profileVersion,2023-07-25 15:27:17
;   baseProfile,Creality CR-10(2)
;   printMaterial,PLA
;   printQuality,High
;   printExtruders,
;   extruderName,Primary Extruder
;   extruderToolheadNumber,0
;   extruderDiameter,0.4
;   extruderAutoWidth,0
;   extruderWidth,0.35
;   extrusionMultiplier,0.95
;   extruderUseRetract,1
;   extruderRetractionDistance,3.8
;   extruderExtraRestartDistance,0
;   extruderRetractionZLift,0.3
;   extruderRetractionSpeed,3000
;   extruderUseCoasting,1
;   extruderCoastingDistance,0.2
;   extruderUseWipe,0
;   extruderWipeDistance,5
;   primaryExtruder,0
;   layerHeight,0.12
;   topSolidLayers,6
;   bottomSolidLayers,6
;   perimeterOutlines,4
;   printPerimetersInsideOut,1
;   startPointOption,2
;   startPointOriginX,0
;   startPointOriginY,300
;   sequentialIslands,0
;   spiralVaseMode,0
;   firstLayerHeightPercentage,120
;   firstLayerWidthPercentage,100
;   firstLayerUnderspeed,0.25
;   useRaft,0
;   raftExtruder,0
;   raftTopLayers,3
;   raftBaseLayers,2
;   raftOffset,3
;   raftSeparationDistance,0.14
;   raftTopInfill,100
;   aboveRaftSpeedMultiplier,0.3
;   useSkirt,1
;   skirtExtruder,0
;   skirtLayers,2
;   skirtOutlines,2
;   skirtOffset,3
;   usePrimePillar,0
;   primePillarExtruder,999
;   primePillarWidth,12
;   primePillarLocation,7
;   primePillarSpeedMultiplier,1
;   useOozeShield,0
;   oozeShieldExtruder,999
;   oozeShieldOffset,2
;   oozeShieldOutlines,1
;   oozeShieldSidewallShape,1
;   oozeShieldSidewallAngle,30
;   oozeShieldSpeedMultiplier,1
;   infillExtruder,0
;   internalInfillPattern,Fast Honeycomb
;   externalInfillPattern,Rectilinear
;   infillPercentage,10
;   outlineOverlapPercentage,15
;   infillExtrusionWidthPercentage,100
;   minInfillLength,5
;   infillLayerInterval,1
;   internalInfillAngles,0
;   overlapInternalInfillAngles,0
;   externalInfillAngles,45,-45
;   generateSupport,0
;   supportExtruder,0
;   supportInfillPercentage,40
;   supportExtraInflation,0
;   supportBaseLayers,0
;   denseSupportExtruder,0
;   denseSupportLayers,0
;   denseSupportInfillPercentage,70
;   supportLayerInterval,1
;   supportHorizontalPartOffset,0.4
;   supportUpperSeparationLayers,1
;   supportLowerSeparationLayers,1
;   supportType,0
;   supportGridSpacing,4.5
;   maxOverhangAngle,45
;   supportAngles,0
;   temperatureName,Primary Extruder,Heated Bed
;   temperatureNumber,0,0
;   temperatureSetpointCount,2,2
;   temperatureSetpointLayers,1,2,1,2
;   temperatureSetpointTemperatures,185,180,10,5
;   temperatureStabilizeAtStartup,1,1
;   temperatureHeatedBed,0,1
;   fanLayers,1,2
;   fanSpeeds,0,100
;   blipFanToFullPower,0
;   adjustSpeedForCooling,1
;   minSpeedLayerTime,15
;   minCoolingSpeedSlowdown,20
;   increaseFanForCooling,1
;   minFanLayerTime,25
;   maxCoolingFanSpeed,100
;   increaseFanForBridging,1
;   bridgingFanSpeed,100
;   use5D,1
;   relativeEdistances,0
;   allowEaxisZeroing,1
;   independentExtruderAxes,0
;   includeM10123,0
;   stickySupport,1
;   applyToolheadOffsets,0
;   gcodeXoffset,0
;   gcodeYoffset,0
;   gcodeZoffset,0
;   overrideMachineDefinition,1
;   machineTypeOverride,0
;   strokeXoverride,300
;   strokeYoverride,300
;   strokeZoverride,400
;   originOffsetXoverride,0
;   originOffsetYoverride,0
;   originOffsetZoverride,0
;   homeXdirOverride,-1
;   homeYdirOverride,-1
;   homeZdirOverride,-1
;   flipXoverride,1
;   flipYoverride,-1
;   flipZoverride,1
;   toolheadOffsets,0,0|0,0|0,0|0,0|0,0|0,0
;   overrideFirmwareConfiguration,1
;   firmwareTypeOverride,RepRap (Marlin/Repetier/Sprinter)
;   GPXconfigOverride,r2
;   baudRateOverride,250000
;   overridePrinterModels,1
;   printerModelsOverride
;   startingGcode,;,; -]H.P.B[- MarshMalloW  ,; $VER: StartScript 1.03 (18.12.2022) MarshMalloW,;,; Begin Startcode,;,M117 *Preheat*	; Preheat,;extruder0_temperature,M104 S[extruder0_temperature],M109 S[extruder0_temperature],;M109 R[extruder0_temperature] ,;,M117 *Auto-leveling*     	; Auto-leveling,M107                   	; Turn layer fan off,G21                    	; Set to metric [change to G20 if you want Imperial],G90                    	; Force coordinates to be absolute relative to the origin,G28                    	; Home X/Y/Z axis,G29                    	; Auto-leveling (BL-Touch),;,M117 *Start Clean*     	; Indicate nozzle clean in progress on LCD,G92 E0                 	; Set Extruder to 0 ,G1 X0 Y0 F2000         	; Move X and Y to 0 with speed 2000 (mm/min),G1 Z0.1 F1000          	; Move Z to   0.1 with speed 1000 (mm/min),G1 X8.0 F2000          	; Move X to   8.0 with speed 2000 (mm/min),G1 Y60.0 E4.0 F1000.0  	; Move Y to  60 and Extruder with 4.0 with speed 1000 (mm/min),G1 Y100.0 E8.5 F1000.0 	; Move Y to 100 and Extruder with 8.5 with speed 1000 (mm/min),G92 E0                 	; Set extruder to 0,G1 X16.0 F3000         	; Move X to 16.0 with speed 3000 (mm/min),G1 Y60.0 F3000         	; Move Y to 60.0 with speed 3000 (mm/min),M117 *End Clean*       	; Indicate nozzle clean in progress on LCD,G1 Z5 F3000            	; Move Z to  5.0 with speed 3000 (mm/min),G1 X20.0 F3000         	; Move X to 20.0 with speed 3000 (mm/min),G1 Y20.0 F3000         	; Move Y to 20.0 with speed 3000 (mm/min),; ,M117 *Printing...*     	; Start printing msg on LCD,;,; End Startcode,;,; Begin printing with sliced GCode after here,;
;   layerChangeGcode,
;   retractionGcode,
;   toolChangeGcode,
;   endingGcode,;,; init 181010,;,;M107 			; Fan off,;G1 E-1 F300 			; Retract the filament a bit before lifting the nozzle,;M104 S0 			; Turn off extruder,;M140 S0 			; Turn off bed,;G91			; Relative positioning,;G28 X0 Y0 			; Move X/Y to min endstops so the head is out of teh way,;M84 			; Disable motors,;G90 			; Absolute positioning,;M117 Print ready...,,;,; // From Cura 181010,; // End_gcode,G92 E0			; Zero the extruded length,;G1 E-30 F300		; Retract E -30,M106 S0			; Turn off cooling fan,M104 S0			; Turn off temperature,M140 S0		     	; Turn off bed,G91			; Relative positioning,G1 E-1 F300			; Retract the filament a bit before lifting the nozzle to release some of the pressure,G1 Z+20 E-5 X-20 Y-20 F7200	; Move Z up a bit and retract filament even more,G1 X0 Y150 F10000		; Move right min,M107			; Turn off layer fan,M84			; Disable motors,G90			; Absolute positioning,M117 *The-End* 		; End msg,;,
;   exportFileFormat,gcode
;   celebration,0
;   celebrationSong,Star Wars
;   postProcessing,D:\S3D_Thumbs\S3D_Thumbs.exe f="[output_filepath]" x=600 y=110 w=953 lw=400 lh=300 sw=32 sh=32 d=Y
;   defaultSpeed,4200
;   outlineUnderspeed,0.5
;   solidInfillUnderspeed,0.8
;   supportUnderspeed,0.8
;   rapidXYspeed,6000
;   rapidZspeed,1002
;   minBridgingArea,50
;   bridgingExtraInflation,0.2
;   bridgingExtrusionMultiplier,1
;   bridgingSpeedMultiplier,0.8
;   useFixedBridgingAngle,0
;   fixedBridgingAngle,0
;   applyBridgingToPerimeters,0
;   filamentDiameters,1.75|1.75|1.75|1.75|1.75|1.75
;   filamentPricesPerKg,30|46|46|46|46|46
;   filamentDensities,1.25|1.25|1.25|1.25|1.25|1.25
;   useMinPrintHeight,0
;   minPrintHeight,0
;   useMaxPrintHeight,0
;   maxPrintHeight,50
;   useDiaphragm,0
;   diaphragmLayerInterval,20
;   robustSlicing,1
;   mergeAllIntoSolid,0
;   onlyRetractWhenCrossingOutline,1
;   retractBetweenLayers,1
;   useRetractionMinTravel,0
;   retractionMinTravel,3
;   retractWhileWiping,1
;   onlyWipeOutlines,1
;   avoidCrossingOutline,0
;   maxMovementDetourFactor,3
;   toolChangeRetractionDistance,12
;   toolChangeExtraRestartDistance,-0.5
;   toolChangeRetractionSpeed,600
;   externalThinWallType,1
;   internalThinWallType,1
;   thinWallAllowedOverlapPercentage,10
;   singleExtrusionMinLength,1
;   singleExtrusionMinPrintingWidthPercentage,50
;   singleExtrusionMaxPrintingWidthPercentage,200
;   singleExtrusionEndpointExtension,0.2
;   horizontalSizeCompensation,0
G90
M82
M106 S0
M140 S10
;
; -]H.P.B[- MarshMalloW  
; $VER: StartScript 1.03 (18.12.2022) MarshMalloW
;
; Begin Startcode
;
M117 *Preheat*	; Preheat
;extruder0_temperature
M104 S185
M109 S185
;M109 R185 
;
M117 *Auto-leveling*     	; Auto-leveling
M107                   	; Turn layer fan off
G21                    	; Set to metric [change to G20 if you want Imperial]
G90                    	; Force coordinates to be absolute relative to the origin
G28                    	; Home X/Y/Z axis
G29                    	; Auto-leveling (BL-Touch)
;
M117 *Start Clean*     	; Indicate nozzle clean in progress on LCD
G92 E0                 	; Set Extruder to 0 
G1 X0 Y0 F2000         	; Move X and Y to 0 with speed 2000 (mm/min)
G1 Z0.1 F1000          	; Move Z to   0.1 with speed 1000 (mm/min)
G1 X8.0 F2000          	; Move X to   8.0 with speed 2000 (mm/min)
G1 Y60.0 E4.0 F1000.0  	; Move Y to  60 and Extruder with 4.0 with speed 1000 (mm/min)
G1 Y100.0 E8.5 F1000.0 	; Move Y to 100 and Extruder with 8.5 with speed 1000 (mm/min)
G92 E0                 	; Set extruder to 0
G1 X16.0 F3000         	; Move X to 16.0 with speed 3000 (mm/min)
G1 Y60.0 F3000         	; Move Y to 60.0 with speed 3000 (mm/min)
M117 *End Clean*       	; Indicate nozzle clean in progress on LCD
G1 Z5 F3000            	; Move Z to  5.0 with speed 3000 (mm/min)
G1 X20.0 F3000         	; Move X to 20.0 with speed 3000 (mm/min)
G1 Y20.0 F3000         	; Move Y to 20.0 with speed 3000 (mm/min)
; 
M117 *Printing...*     	; Start printing msg on LCD
;
; End Startcode
;
; Begin printing with sliced GCode after here
;
; process PLA C01
; layer 1, Z = 0.144
T0
G92 E0.0000
G1 E-3.8000 F3000
; feature skirt
; tool H0.144 W0.350
G1 Z0.300 F1002
G1 X140.475 Y117.162 F6000
G1 Z0.144 F1002
G1 E0.0000 F3000
G92 E0.0000
G1 X142.540 Y115.097 E0.0581 F1050
G1 X157.460 Y115.097 E0.3551
G1 X159.525 Y117.162 E0.4133
G1 X159.525 Y182.838 E1.7206
G1 X157.460 Y184.903 E1.7787
G1 X142.540 Y184.903 E2.0757
G1 X140.475 Y182.838 E2.1339
G1 X140.475 Y117.162 E3.4412
G92 E0.0000
G1 E-3.8000 F3000
G1 Z0.444 F1002
G1 X140.825 Y117.307 F6000
G1 Z0.144 F1002
G1 E0.0000 F3000
G92 E0.0000
G1 X142.685 Y115.447 E0.0524 F1050
G1 X157.315 Y115.447 E0.3436
G1 X159.175 Y117.307 E0.3959
G1 X159.175 Y182.693 E1.6975
G1 X157.315 Y184.553 E1.7499
G1 X142.685 Y184.553 E2.0411
G1 X140.825 Y182.693 E2.0935
G1 X140.825 Y117.307 E3.3950
G92 E0.0000
G1 E-3.8000 F3000
; feature inner perimeter
G1 Z0.444 F1002
G1 X145.225 Y119.847 F6000
G1 Z0.144 F1002
G1 E0.0000 F3000
G92 E0.0000
G1 X154.775 Y119.847 E0.1901 F788
G1 X154.775 Y180.153 E1.3905
G1 X145.225 Y180.153 E1.5807
G1 X145.225 Y120.047 E2.7771
G1 X145.225 Y119.847 F788
G1 X144.875 Y119.497 F6000
G92 E0.0000
G1 X155.125 Y119.497 E0.2040 F788
G1 X155.125 Y180.502 E1.4184
G1 X144.875 Y180.502 E1.6225
G1 X144.875 Y119.697 E2.8329
G1 X144.875 Y119.497 F788
G1 X144.525 Y119.147 F6000
G92 E0.0000
G1 X155.475 Y119.147 E0.2180 F788
G1 X155.475 Y180.852 E1.4463
G1 X144.525 Y180.852 E1.6643
G1 X144.525 Y119.347 E2.8886
G1 X144.525 Y119.147 F788
; feature outer perimeter
G1 X144.175 Y118.797 F6000
G92 E0.0000
G1 X155.825 Y118.797 E0.2319 F525
G1 X155.825 Y181.202 E1.4742
G1 X144.175 Y181.202 E1.7061
G1 X144.175 Y118.997 E2.9443
G1 X144.175 Y118.797 F525
; feature solid layer
G1 X154.298 Y120.145 F6000
G92 E0.0000
G1 X154.477 Y120.324 E0.0050 F840
G1 X154.477 Y120.819 E0.0149
G1 X153.803 Y120.145 E0.0339
G1 X153.308 Y120.145 E0.0437
G1 X154.477 Y121.314 E0.0766
G1 X154.477 Y121.809 E0.0865
G1 X152.813 Y120.145 E0.1333
G1 X152.318 Y120.145 E0.1432
G1 X154.477 Y122.304 E0.2040
G1 X154.477 Y122.799 E0.2138
G1 X151.823 Y120.145 E0.2886
G1 X151.328 Y120.145 E0.2984
G1 X154.477 Y123.294 E0.3871
G1 X154.477 Y123.789 E0.3969
G1 X150.833 Y120.145 E0.4995
G1 X150.338 Y120.145 E0.5094
G1 X154.477 Y124.284 E0.6259
G1 X154.477 Y124.779 E0.6357
G1 X149.843 Y120.145 E0.7662
G1 X149.349 Y120.145 E0.7760
G1 X154.477 Y125.274 E0.9204
G1 X154.477 Y125.769 E0.9303
G1 X148.854 Y120.145 E1.0886
G1 X148.359 Y120.145 E1.0985
G1 X154.477 Y126.264 E1.2707
G1 X154.477 Y126.759 E1.2806
G1 X147.864 Y120.145 E1.4668
G1 X147.369 Y120.145 E1.4766
G1 X154.477 Y127.254 E1.6767
G1 X154.477 Y127.749 E1.6866
G1 X146.874 Y120.145 E1.9007
G1 X146.379 Y120.145 E1.9105
G1 X154.477 Y128.244 E2.1385
G1 X154.477 Y128.739 E2.1484
G1 X145.884 Y120.145 E2.3903
G1 X145.523 Y120.145 E2.3975
G1 X145.523 Y120.279 E2.4001
G1 X154.477 Y129.234 E2.6522
G1 X154.477 Y129.729 E2.6621
G1 X145.523 Y120.774 E2.9142
G1 X145.523 Y121.269 E2.9240
G1 X154.477 Y130.224 E3.1761
G1 X154.477 Y130.719 E3.1860
G1 X145.523 Y121.764 E3.4381
G1 X145.523 Y122.259 E3.4479
G1 X154.477 Y131.214 E3.7000
G1 X154.477 Y131.709 E3.7099
G1 X145.523 Y122.754 E3.9620
G1 X145.523 Y123.249 E3.9718
G1 X154.477 Y132.204 E4.2239
G1 X154.477 Y132.699 E4.2338
G1 X145.523 Y123.744 E4.4859
G1 X145.523 Y124.239 E4.4957
G1 X154.477 Y133.194 E4.7478
G1 X154.477 Y133.689 E4.7577
G1 X145.523 Y124.734 E5.0098
G1 X145.523 Y125.229 E5.0196
G1 X154.477 Y134.184 E5.2717
G1 X154.477 Y134.678 E5.2816
G1 X145.523 Y125.723 E5.5337
G1 X145.523 Y126.218 E5.5435
G1 X154.477 Y135.173 E5.7956
G1 X154.477 Y135.668 E5.8055
G1 X145.523 Y126.713 E6.0576
G1 X145.523 Y127.208 E6.0674
G1 X154.477 Y136.163 E6.3195
G1 X154.477 Y136.658 E6.3294
G1 X145.523 Y127.703 E6.5815
G1 X145.523 Y128.198 E6.5913
G1 X154.477 Y137.153 E6.8434
G1 X154.477 Y137.648 E6.8533
G1 X145.523 Y128.693 E7.1054
G1 X145.523 Y129.188 E7.1152
G1 X154.477 Y138.143 E7.3673
G1 X154.477 Y138.638 E7.3772
G1 X145.523 Y129.683 E7.6293
G1 X145.523 Y130.178 E7.6391
G1 X154.477 Y139.133 E7.8912
G1 X154.477 Y139.628 E7.9011
G1 X145.523 Y130.673 E8.1532
G1 X145.523 Y131.168 E8.1630
G1 X154.477 Y140.123 E8.4151
G1 X154.477 Y140.618 E8.4250
G1 X145.523 Y131.663 E8.6771
G1 X145.523 Y132.158 E8.6870
G1 X154.477 Y141.113 E8.9390
G1 X154.477 Y141.608 E8.9489
G1 X145.523 Y132.653 E9.2010
G1 X145.523 Y133.148 E9.2109
G1 X154.477 Y142.103 E9.4629
G1 X154.477 Y142.598 E9.4728
G1 X145.523 Y133.643 E9.7249
G1 X145.523 Y134.138 E9.7348
G1 X154.477 Y143.093 E9.9869
G1 X154.477 Y143.588 E9.9967
G1 X145.523 Y134.633 E10.2488
G1 X145.523 Y135.128 E10.2587
G1 X154.477 Y144.083 E10.5108
G1 X154.477 Y144.578 E10.5206
G1 X145.523 Y135.623 E10.7727
G1 X145.523 Y136.118 E10.7826
G1 X154.477 Y145.073 E11.0347
G1 X154.477 Y145.568 E11.0445
G1 X145.523 Y136.613 E11.2966
G1 X145.523 Y137.108 E11.3065
G1 X154.477 Y146.063 E11.5586
G1 X154.477 Y146.558 E11.5684
G1 X145.523 Y137.603 E11.8205
G1 X145.523 Y138.098 E11.8304
G1 X154.477 Y147.053 E12.0825
G1 X154.477 Y147.548 E12.0923
G1 X145.523 Y138.593 E12.3444
G1 X145.523 Y139.088 E12.3543
G1 X154.477 Y148.043 E12.6064
G1 X154.477 Y148.538 E12.6162
G1 X145.523 Y139.583 E12.8683
G1 X145.523 Y140.078 E12.8782
G1 X154.477 Y149.033 E13.1303
G1 X154.477 Y149.528 E13.1401
G1 X145.523 Y140.573 E13.3922
G1 X145.523 Y141.068 E13.4021
G1 X154.477 Y150.023 E13.6542
G1 X154.477 Y150.518 E13.6640
G1 X145.523 Y141.563 E13.9161
G1 X145.523 Y142.058 E13.9260
G1 X154.477 Y151.013 E14.1781
G1 X154.477 Y151.508 E14.1879
G1 X145.523 Y142.553 E14.4400
G1 X145.523 Y143.048 E14.4499
G1 X154.477 Y152.003 E14.7020
G1 X154.477 Y152.498 E14.7118
G1 X145.523 Y143.543 E14.9639
G1 X145.523 Y144.038 E14.9738
G1 X154.477 Y152.993 E15.2259
G1 X154.477 Y153.488 E15.2357
G1 X145.523 Y144.533 E15.4878
G1 X145.523 Y145.028 E15.4977
G1 X154.477 Y153.983 E15.7498
G1 X154.477 Y154.477 E15.7596
G1 X145.523 Y145.522 E16.0117
G1 X145.523 Y146.017 E16.0216
G1 X154.477 Y154.972 E16.2737
G1 X154.477 Y155.467 E16.2835
G1 X145.523 Y146.512 E16.5356
G1 X145.523 Y147.007 E16.5455
G1 X154.477 Y155.962 E16.7976
G1 X154.477 Y156.457 E16.8074
G1 X145.523 Y147.502 E17.0595
G1 X145.523 Y147.997 E17.0694
G1 X154.477 Y156.952 E17.3215
G1 X154.477 Y157.447 E17.3313
G1 X145.523 Y148.492 E17.5834
G1 X145.523 Y148.987 E17.5933
G1 X154.477 Y157.942 E17.8454
G1 X154.477 Y158.437 E17.8552
G1 X145.523 Y149.482 E18.1073
G1 X145.523 Y149.977 E18.1172
G1 X154.477 Y158.932 E18.3693
